luts/FalseColor_flog2.cube
# False Color Exposure Monitor LUT
# Profile  : Fuji F-Log2
# Cameras  : X-H2S, X-H2, GFX100S II
# Generator: false_color_generator.py
#
# Zone Reference:
#   #ef4444     white_clip      log 0.600 - 1.000
#   #eab308     +2 stops        log 0.497 - 0.529
#   #d946ef     +1 stops        log 0.396 - 0.425
#   #22c55e     +0 stops        log 0.306 - 0.331
#   #06b6d4     -1 stops        log 0.232 - 0.252
#   #3b82f6     -2 stops        log 0.178 - 0.192
#   #6366f1     black_clip      log 0.000 - 0.100
#   Grayscale   = between zones / untagged
#
TITLE "FalseColor Fuji F-Log2"
LUT_3D_SIZE 33
DOMAIN_MIN 0.0 0.0 0.0
DOMAIN_MAX 1.0 1.0 1.0
0.194118 0.200000 0.472549
0.388235 0.400000 0.945098
0.388235 0.400000 0.945098
0.388235 0.400000 0.945098
0.388235 0.400000 0.945098
0.388235 0.400000 0.945098
0.388235 0.400000 0.945098
0.388235 0.400000 0.945098
0.388235 0.400000 0.945098
0.388235 0.400000 0.945098
0.388235 0.400000 0.945098
0.388235 0.400000 0.945098
0.388235 0.400000 0.945098
0.388235 0.400000 0.945098
0.388235 0.400000 0.945098
0.265637 0.272403 0.585924
0.106300 0.106300 0.106300
0.112944 0.112944 0.112944
0.119588 0.119588 0.119588
0.126231 0.126231 0.126231
0.132875 0.132875 0.132875
0.139519 0.139519 0.139519
0.146163 0.146163 0.146163
0.152806 0.152806 0.152806
0.159450 0.159450 0.159450
0.166094 0.166094 0.166094
0.172738 0.172738 0.172738
0.223049 0.456907 0.838985
0.231373 0.509804 0.964706
0.205878 0.300902 0.456153
0.199313 0.199313 0.199313
0.205956 0.205956 0.205956
0.212600 0.212600 0.212600
0.388235 0.400000 0.945098
0.388235 0.400000 0.945098
0.388235 0.400000 0.945098
0.388235 0.400000 0.945098
0.388235 0.400000 0.945098
0.388235 0.400000 0.945098
0.388235 0.400000 0.945098
0.388235 0.400000 0.945098
0.388235 0.400000 0.945098
0.388235 0.400000 0.945098
0.388235 0.400000 0.945098
0.388235 0.400000 0.945098
0.130880 0.132064 0.186934
0.108719 0.108719 0.108719
0.115362 0.115362 0.115362
0.122006 0.122006 0.122006
0.128650 0.128650 0.128650
0.135294 0.135294 0.135294
0.141938 0.141938 0.141938
0.148581 0.148581 0.148581
0.155225 0.155225 0.155225
0.161869 0.161869 0.161869
0.168513 0.168513 0.168513
0.177707 0.190343 0.210986
0.231373 0.509804 0.964706
0.231373 0.509804 0.964706
0.195247 0.196469 0.198466
0.201731 0.201731 0.201731
0.208375 0.208375 0.208375
0.215019 0.215019 0.215019
0.221663 0.221663 0.221663
0.228306 0.228306 0.228306
0.027622 0.704457 0.819827
0.388235 0.400000 0.945098
0.388235 0.400000 0.945098
0.388235 0.400000 0.945098
0.388235 0.400000 0.945098
0.388235 0.400000 0.945098
0.388235 0.400000 0.945098
0.388235 0.400000 0.945098
0.388235 0.400000 0.945098
0.361958 0.372658 0.868431
0.104494 0.104494 0.104494
0.111138 0.111138 0.111138
0.117781 0.117781 0.117781
0.124425 0.124425 0.124425
0.131069 0.131069 0.131069
0.137712 0.137712 0.137712
0.144356 0.144356 0.144356
0.151000 0.151000 0.151000
0.157644 0.157644 0.157644
0.164288 0.164288 0.164288
0.170931 0.170931 0.170931
0.203055 0.334928 0.550382
0.231373 0.509804 0.964706
0.220329 0.422858 0.753751
0.197506 0.197506 0.197506
0.204150 0.204150 0.204150
0.210794 0.210794 0.210794
0.217438 0.217438 0.217438
0.224081 0.224081 0.224081
0.186130 0.334682 0.360003
0.023529 0.713725 0.831373
0.023529 0.713725 0.831373
0.061843 0.635611 0.733412
0.257300 0.257300 0.257300
0.388235 0.400000 0.945098
0.388235 0.400000 0.945098
0.388235 0.400000 0.945098
0.388235 0.400000 0.945098
0.388235 0.400000 0.945098
0.227307 0.232498 0.472972
0.106912 0.106912 0.106912
0.113556 0.113556 0.113556
0.120200 0.120200 0.120200
0.126844 0.126844 0.126844
0.133488 0.133488 0.133488
0.140131 0.140131 0.140131
0.146775 0.146775 0.146775
0.153419 0.153419 0.153419
0.160062 0.160062 0.160062
0.166706 0.166706 0.166706
0.173350 0.173350 0.173350
0.227688 0.486154 0.908435
0.231373 0.509804 0.964706
0.201651 0.262829 0.362782
0.199925 0.199925 0.199925
0.206569 0.206569 0.206569
0.213212 0.213212 0.213212
0.219856 0.219856 0.219856
0.226500 0.226500 0.226500
0.081683 0.580397 0.665405
0.023529 0.713725 0.831373
0.023529 0.713725 0.831373
0.177097 0.405548 0.444488
0.259719 0.259719 0.259719
0.266363 0.266363 0.266363
0.273006 0.273006 0.273006
0.279650 0.279650 0.279650
0.388235 0.400000 0.945098
0.388235 0.400000 0.945098
0.111781 0.112156 0.129514
0.109331 0.109331 0.109331
0.115975 0.115975 0.115975
0.122619 0.122619 0.122619
0.129263 0.129263 0.129263
0.135906 0.135906 0.135906
0.142550 0.142550 0.142550
0.149194 0.149194 0.149194
0.155838 0.155838 0.155838
0.162481 0.162481 0.162481
0.169125 0.169125 0.169125
0.182557 0.216546 0.272078
0.231373 0.509804 0.964706
0.230621 0.504104 0.950922
0.195700 0.195700 0.195700
0.202344 0.202344 0.202344
0.208987 0.208987 0.208987
0.215631 0.215631 0.215631
0.222275 0.222275 0.222275
0.228173 0.230678 0.231105
0.023529 0.713725 0.831373
0.023529 0.713725 0.831373
0.023529 0.713725 0.831373
0.254816 0.256832 0.257176
0.262138 0.262138 0.262138
0.268781 0.268781 0.268781
0.275425 0.275425 0.275425
0.282069 0.282069 0.282069
0.288712 0.288712 0.288712
0.295356 0.295356 0.295356
0.302000 0.302000 0.302000
0.111750 0.111750 0.111750
0.118394 0.118394 0.118394
0.125037 0.125037 0.125037
0.131681 0.131681 0.131681
0.138325 0.138325 0.138325
0.144969 0.144969 0.144969
0.151612 0.151612 0.151612
0.158256 0.158256 0.158256
0.164900 0.164900 0.164900
0.171544 0.171544 0.171544
0.210484 0.379562 0.655802
0.231373 0.509804 0.964706
0.215418 0.382506 0.655495
0.198119 0.198119 0.198119
0.204762 0.204762 0.204762
0.211406 0.211406 0.211406
0.218050 0.218050 0.218050
0.224694 0.224694 0.224694
0.161472 0.393518 0.433071
0.023529 0.713725 0.831373
0.023529 0.713725 0.831373
0.087847 0.583120 0.667541
0.257912 0.257912 0.257912
0.264556 0.264556 0.264556
0.271200 0.271200 0.271200
0.277844 0.277844 0.277844
0.284488 0.284488 0.284488
0.291131 0.291131 0.291131
0.297775 0.297775 0.297775
0.272412 0.391998 0.316431
0.133333 0.772549 0.368627
0.133333 0.772549 0.368627
0.133333 0.772549 0.368627
0.134100 0.134100 0.134100
0.140744 0.140744 0.140744
0.147388 0.147388 0.147388
0.154031 0.154031 0.154031
0.160675 0.160675 0.160675
0.167319 0.167319 0.167319
0.173962 0.173962 0.173962
0.230575 0.504633 0.952389
0.231373 0.509804 0.964706
0.198284 0.230900 0.284188
0.200538 0.200538 0.200538
0.207181 0.207181 0.207181
0.213825 0.213825 0.213825
0.220469 0.220469 0.220469
0.227112 0.227112 0.227112
0.058106 0.634783 0.733080
0.023529 0.713725 0.831373
0.023529 0.713725 0.831373
0.205206 0.350591 0.375373
0.260331 0.260331 0.260331
0.266975 0.266975 0.266975
0.273619 0.273619 0.273619
0.280262 0.280262 0.280262
0.286906 0.286906 0.286906
0.293550 0.293550 0.293550
0.300194 0.300194 0.300194
0.186946 0.628645 0.349535
0.133333 0.772549 0.368627
0.133333 0.772549 0.368627
0.133333 0.772549 0.368627
0.308991 0.387013 0.337711
0.340056 0.340056 0.340056
0.346700 0.346700 0.346700
0.156450 0.156450 0.156450
0.163094 0.163094 0.163094
0.169737 0.169737 0.169737
0.188804 0.251704 0.354470
0.231373 0.509804 0.964706
0.228214 0.485554 0.905998
0.196312 0.196312 0.196312
0.202956 0.202956 0.202956
0.209600 0.209600 0.209600
0.216244 0.216244 0.216244
0.222887 0.222887 0.222887
0.220709 0.250268 0.255307
0.023529 0.713725 0.831373
0.023529 0.713725 0.831373
0.028287 0.703950 0.819120
0.256106 0.256106 0.256106
0.262750 0.262750 0.262750
0.269394 0.269394 0.269394
0.276037 0.276037 0.276037
0.282681 0.282681 0.282681
0.289325 0.289325 0.289325
0.295969 0.295969 0.295969
0.302536 0.302824 0.302642
0.133466 0.772200 0.368583
0.133333 0.772549 0.368627
0.133333 0.772549 0.368627
0.147380 0.740751 0.365799
0.335831 0.335831 0.335831
0.342475 0.342475 0.342475
0.349119 0.349119 0.349119
0.355762 0.355762 0.355762
0.362406 0.362406 0.362406
0.369050 0.369050 0.369050
0.217385 0.421738 0.755609
0.231373 0.509804 0.964706
0.210408 0.340255 0.552399
0.198731 0.198731 0.198731
0.205375 0.205375 0.205375
0.212019 0.212019 0.212019
0.218662 0.218662 0.218662
0.225306 0.225306 0.225306
0.134437 0.457357 0.512401
0.023529 0.713725 0.831373
0.023529 0.713725 0.831373
0.117278 0.524118 0.593465
0.258525 0.258525 0.258525
0.265169 0.265169 0.265169
0.271813 0.271813 0.271813
0.278456 0.278456 0.278456
0.285100 0.285100 0.285100
0.291744 0.291744 0.291744
0.298388 0.298388 0.298388
0.252846 0.447128 0.324361
0.133333 0.772549 0.368627
0.133333 0.772549 0.368627
0.133333 0.772549 0.368627
0.237703 0.540439 0.349140
0.338250 0.338250 0.338250
0.344894 0.344894 0.344894
0.351538 0.351538 0.351538
0.358181 0.358181 0.358181
0.364825 0.364825 0.364825
0.371469 0.371469 0.371469
0.378112 0.378112 0.378112
0.384756 0.384756 0.384756
0.391400 0.391400 0.391400
0.201150 0.201150 0.201150
0.207794 0.207794 0.207794
0.214438 0.214438 0.214438
0.221081 0.221081 0.221081
0.227725 0.227725 0.227725
0.039321 0.677822 0.786658
0.023529 0.713725 0.831373
0.023529 0.713725 0.831373
0.228923 0.304820 0.317757
0.260944 0.260944 0.260944
0.267587 0.267587 0.267587
0.274231 0.274231 0.274231
0.280875 0.280875 0.280875
0.287519 0.287519 0.287519
0.294162 0.294162 0.294162
0.300806 0.300806 0.300806
0.166668 0.683505 0.356915
0.133333 0.772549 0.368627
0.133333 0.772549 0.368627
0.133333 0.772549 0.368627
0.324919 0.353921 0.335595
0.340669 0.340669 0.340669
0.347313 0.347313 0.347313
0.353956 0.353956 0.353956
0.360600 0.360600 0.360600
0.367244 0.367244 0.367244
0.373888 0.373888 0.373888
0.380531 0.380531 0.380531
0.387175 0.387175 0.387175
0.431794 0.383908 0.438961
0.850980 0.274510 0.937255
0.850980 0.274510 0.937255
0.850980 0.274510 0.937255
0.223500 0.223500 0.223500
0.205729 0.287285 0.301187
0.023529 0.713725 0.831373
0.023529 0.713725 0.831373
0.042089 0.675742 0.783751
0.256719 0.256719 0.256719
0.263362 0.263362 0.263362
0.270006 0.270006 0.270006
0.276650 0.276650 0.276650
0.283294 0.283294 0.283294
0.289937 0.289937 0.289937
0.296581 0.296581 0.296581
0.298292 0.316851 0.305124
0.133333 0.772549 0.368627
0.133333 0.772549 0.368627
0.133333 0.772549 0.368627
0.164788 0.701663 0.362411
0.336444 0.336444 0.336444
0.343087 0.343087 0.343087
0.349731 0.349731 0.349731
0.356375 0.356375 0.356375
0.363019 0.363019 0.363019
0.369663 0.369663 0.369663
0.376306 0.376306 0.376306
0.382950 0.382950 0.382950
0.389594 0.389594 0.389594
0.644711 0.329725 0.691852
0.850980 0.274510 0.937255
0.850980 0.274510 0.937255
0.850980 0.274510 0.937255
0.835992 0.279701 0.919247
0.429456 0.429456 0.429456
0.436100 0.436100 0.436100
0.023529 0.713725 0.831373
0.148188 0.462611 0.516205
0.259137 0.259137 0.259137
0.265781 0.265781 0.265781
0.272425 0.272425 0.272425
0.279069 0.279069 0.279069
0.285712 0.285712 0.285712
0.292356 0.292356 0.292356
0.299000 0.299000 0.299000
0.230914 0.508137 0.332959
0.133333 0.772549 0.368627
0.133333 0.772549 0.368627
0.133333 0.772549 0.368627
0.264264 0.482669 0.344659
0.338862 0.338862 0.338862
0.345506 0.345506 0.345506
0.352150 0.352150 0.352150
0.358794 0.358794 0.358794
0.365437 0.365437 0.365437
0.372081 0.372081 0.372081
0.378725 0.378725 0.378725
0.385369 0.385369 0.385369
0.392012 0.392012 0.392012
0.834343 0.279076 0.917444
0.850980 0.274510 0.937255
0.850980 0.274510 0.937255
0.850980 0.274510 0.937255
0.659730 0.342215 0.707249
0.431875 0.431875 0.431875
0.438519 0.438519 0.438519
0.445163 0.445163 0.445163
0.451806 0.451806 0.451806
0.458450 0.458450 0.458450
0.268200 0.268200 0.268200
0.274844 0.274844 0.274844
0.281488 0.281488 0.281488
0.288131 0.288131 0.288131
0.294775 0.294775 0.294775
0.301419 0.301419 0.301419
0.149947 0.728385 0.362869
0.133333 0.772549 0.368627
0.133333 0.772549 0.368627
0.133333 0.772549 0.368627
0.333742 0.336586 0.334789
0.341281 0.341281 0.341281
0.347925 0.347925 0.347925
0.354569 0.354569 0.354569
0.361212 0.361212 0.361212
0.367856 0.367856 0.367856
0.374500 0.374500 0.374500
0.381144 0.381144 0.381144
0.387788 0.387788 0.387788
0.474576 0.373380 0.489721
0.850980 0.274510 0.937255
0.850980 0.274510 0.937255
0.850980 0.274510 0.937255
0.850980 0.274510 0.937255
0.463909 0.414533 0.471299
0.434294 0.434294 0.434294
0.440937 0.440937 0.440937
0.447581 0.447581 0.447581
0.454225 0.454225 0.454225
0.460869 0.460869 0.460869
0.467512 0.467512 0.467512
0.474156 0.474156 0.474156
0.480800 0.480800 0.480800
0.290550 0.290550 0.290550
0.297194 0.297194 0.297194
0.287476 0.348814 0.310055
0.133333 0.772549 0.368627
0.133333 0.772549 0.368627
0.133333 0.772549 0.368627
0.186986 0.652183 0.358224
0.337056 0.337056 0.337056
0.343700 0.343700 0.343700
0.350344 0.350344 0.350344
0.356988 0.356988 0.356988
0.363631 0.363631 0.363631
0.370275 0.370275 0.370275
0.376919 0.376919 0.376919
0.383562 0.383562 0.383562
0.390206 0.390206 0.390206
0.704451 0.313984 0.762889
0.850980 0.274510 0.937255
0.850980 0.274510 0.937255
0.850980 0.274510 0.937255
0.805734 0.290269 0.882879
0.430069 0.430069 0.430069
0.436712 0.436712 0.436712
0.443356 0.443356 0.443356
0.450000 0.450000 0.450000
0.456644 0.456644 0.456644
0.463287 0.463287 0.463287
0.469931 0.469931 0.469931
0.476575 0.476575 0.476575
0.483219 0.483219 0.483219
0.489862 0.489862 0.489862
0.633650 0.563412 0.345037
0.917647 0.701961 0.031373
0.133333 0.772549 0.368627
0.133333 0.772549 0.368627
0.133333 0.772549 0.368627
0.288928 0.429600 0.340709
0.339475 0.339475 0.339475
0.346119 0.346119 0.346119
0.352762 0.352762 0.352762
0.359406 0.359406 0.359406
0.366050 0.366050 0.366050
0.372694 0.372694 0.372694
0.379337 0.379337 0.379337
0.385981 0.385981 0.385981
0.392634 0.392623 0.392636
0.850104 0.274752 0.936211
0.850980 0.274510 0.937255
0.850980 0.274510 0.937255
0.850980 0.274510 0.937255
0.603054 0.362763 0.639016
0.432487 0.432487 0.432487
0.439131 0.439131 0.439131
0.445775 0.445775 0.445775
0.452419 0.452419 0.452419
0.459062 0.459062 0.459062
0.465706 0.465706 0.465706
0.472350 0.472350 0.472350
0.478994 0.478994 0.478994
0.485637 0.485637 0.485637
0.492281 0.492281 0.492281
0.845179 0.666821 0.112292
0.917647 0.701961 0.031373
0.917647 0.701961 0.031373
0.917647 0.701961 0.031373
0.917647 0.701961 0.031373
0.335250 0.335250 0.335250
0.341894 0.341894 0.341894
0.348538 0.348538 0.348538
0.355181 0.355181 0.355181
0.361825 0.361825 0.361825
0.368469 0.368469 0.368469
0.375113 0.375113 0.375113
0.381756 0.381756 0.381756
0.388400 0.388400 0.388400
0.527486 0.360031 0.552547
0.850980 0.274510 0.937255
0.850980 0.274510 0.937255
0.850980 0.274510 0.937255
0.850980 0.274510 0.937255
0.438031 0.424709 0.440025
0.434906 0.434906 0.434906
0.441550 0.441550 0.441550
0.448194 0.448194 0.448194
0.454838 0.454838 0.454838
0.461481 0.461481 0.461481
0.468125 0.468125 0.468125
0.474769 0.474769 0.474769
0.481413 0.481413 0.481413
0.488056 0.488056 0.488056
0.510808 0.502593 0.477054
0.917647 0.701961 0.031373
0.917647 0.701961 0.031373
0.917647 0.701961 0.031373
0.917647 0.701961 0.031373
0.826265 0.661152 0.147800
0.534563 0.534563 0.534563
0.541206 0.541206 0.541206
0.547850 0.547850 0.547850
0.357600 0.357600 0.357600
0.364244 0.364244 0.364244
0.370887 0.370887 0.370887
0.377531 0.377531 0.377531
0.384175 0.384175 0.384175
0.390819 0.390819 0.390819
0.758765 0.299510 0.827497
0.850980 0.274510 0.937255
0.850980 0.274510 0.937255
0.850980 0.274510 0.937255
0.763305 0.305216 0.831863
0.430681 0.430681 0.430681
0.437325 0.437325 0.437325
0.443969 0.443969 0.443969
0.450612 0.450612 0.450612
0.457256 0.457256 0.457256
0.463900 0.463900 0.463900
0.470544 0.470544 0.470544
0.477187 0.477187 0.477187
0.483831 0.483831 0.483831
0.490475 0.490475 0.490475
0.689197 0.590681 0.284388
0.917647 0.701961 0.031373
0.917647 0.701961 0.031373
0.917647 0.701961 0.031373
0.917647 0.701961 0.031373
0.629935 0.574471 0.402028
0.536981 0.536981 0.536981
0.543625 0.543625 0.543625
0.550269 0.550269 0.550269
0.556912 0.556912 0.556912
0.563556 0.563556 0.563556
0.570200 0.570200 0.570200
0.379950 0.379950 0.379950
0.386594 0.386594 0.386594
0.404189 0.390397 0.406253
0.850980 0.274510 0.937255
0.850980 0.274510 0.937255
0.850980 0.274510 0.937255
0.850980 0.274510 0.937255
0.548819 0.382660 0.573687
0.433100 0.433100 0.433100
0.439744 0.439744 0.439744
0.446387 0.446387 0.446387
0.453031 0.453031 0.453031
0.459675 0.459675 0.459675
0.466319 0.466319 0.466319
0.472962 0.472962 0.472962
0.479606 0.479606 0.479606
0.486250 0.486250 0.486250
0.492894 0.492894 0.492894
0.883685 0.685518 0.069400
0.917647 0.701961 0.031373
0.917647 0.701961 0.031373
0.917647 0.701961 0.031373
0.914778 0.700672 0.034998
0.532756 0.532756 0.532756
0.539400 0.539400 0.539400
0.546044 0.546044 0.546044
0.552687 0.552687 0.552687
0.559331 0.559331 0.559331
0.565975 0.565975 0.565975
0.572619 0.572619 0.572619
0.579263 0.579263 0.579263
0.585906 0.585906 0.585906
0.592550 0.592550 0.592550
0.850980 0.274510 0.937255
0.850980 0.274510 0.937255
0.850980 0.274510 0.937255
0.850040 0.274834 0.936125
0.428876 0.428875 0.428876
0.435519 0.435519 0.435519
0.442163 0.442163 0.442163
0.448806 0.448806 0.448806
0.455450 0.455450 0.455450
0.462094 0.462094 0.462094
0.468738 0.468738 0.468738
0.475381 0.475381 0.475381
0.482025 0.482025 0.482025
0.488669 0.488669 0.488669
0.542087 0.518199 0.443930
0.917647 0.701961 0.031373
0.917647 0.701961 0.031373
0.917647 0.701961 0.031373
0.917647 0.701961 0.031373
0.778402 0.639899 0.209281
0.535175 0.535175 0.535175
0.541819 0.541819 0.541819
0.548462 0.548462 0.548462
0.555106 0.555106 0.555106
0.561750 0.561750 0.561750
0.568394 0.568394 0.568394
0.575037 0.575037 0.575037
0.581681 0.581681 0.581681
0.588325 0.588325 0.588325
0.594969 0.594969 0.594969
0.879370 0.324431 0.324431
0.937255 0.266667 0.266667
0.937255 0.266667 0.266667
0.712436 0.323301 0.770674
0.431294 0.431294 0.431294
0.437937 0.437937 0.437937
0.444581 0.444581 0.444581
0.451225 0.451225 0.451225
0.457869 0.457869 0.457869
0.464512 0.464512 0.464512
0.471156 0.471156 0.471156
0.477800 0.477800 0.477800
0.484444 0.484444 0.484444
0.491088 0.491088 0.491088
0.745750 0.618357 0.222281
0.917647 0.701961 0.031373
0.917647 0.701961 0.031373
0.917647 0.701961 0.031373
0.917647 0.701961 0.031373
0.587998 0.556179 0.457249
0.537594 0.537594 0.537594
0.544237 0.544237 0.544237
0.550881 0.550881 0.550881
0.557525 0.557525 0.557525
0.564169 0.564169 0.564169
0.570812 0.570812 0.570812
0.577456 0.577456 0.577456
0.584100 0.584100 0.584100
0.590744 0.590744 0.590744
0.610442 0.584684 0.584684
0.937255 0.266667 0.266667
0.937255 0.266667 0.266667
0.937255 0.266667 0.266667
0.937255 0.266667 0.266667
0.937255 0.266667 0.266667
0.937255 0.266667 0.266667
0.447000 0.447000 0.447000
0.453644 0.453644 0.453644
0.460287 0.460287 0.460287
0.466931 0.466931 0.466931
0.473575 0.473575 0.473575
0.480219 0.480219 0.480219
0.486862 0.486862 0.486862
0.493506 0.493506 0.493506
0.909014 0.697788 0.041066
0.917647 0.701961 0.031373
0.917647 0.701961 0.031373
0.917647 0.701961 0.031373
0.896845 0.692636 0.057732
0.533369 0.533369 0.533369
0.540013 0.540013 0.540013
0.546656 0.546656 0.546656
0.553300 0.553300 0.553300
0.559944 0.559944 0.559944
0.566588 0.566588 0.566588
0.573231 0.573231 0.573231
0.579875 0.579875 0.579875
0.586519 0.586519 0.586519
0.593162 0.593162 0.593162
0.754201 0.447383 0.447383
0.937255 0.266667 0.266667
0.937255 0.266667 0.266667
0.937255 0.266667 0.266667
0.937255 0.266667 0.266667
0.937255 0.266667 0.266667
0.937255 0.266667 0.266667
0.937255 0.266667 0.266667
0.937255 0.266667 0.266667
0.937255 0.266667 0.266667
0.469350 0.469350 0.469350
0.475994 0.475994 0.475994
0.482637 0.482637 0.482637
0.489281 0.489281 0.489281
0.585180 0.539531 0.397605
0.917647 0.701961 0.031373
0.917647 0.701961 0.031373
0.917647 0.701961 0.031373
0.917647 0.701961 0.031373
0.727099 0.617200 0.275513
0.535787 0.535787 0.535787
0.542431 0.542431 0.542431
0.549075 0.549075 0.549075
0.555719 0.555719 0.555719
0.562362 0.562362 0.562362
0.569006 0.569006 0.569006
0.575650 0.575650 0.575650
0.582294 0.582294 0.582294
0.588938 0.588938 0.588938
0.595581 0.595581 0.595581
0.910193 0.293771 0.293771
0.937255 0.266667 0.266667
0.937255 0.266667 0.266667
0.937255 0.266667 0.266667
0.937255 0.266667 0.266667
0.937255 0.266667 0.266667
0.937255 0.266667 0.266667
0.937255 0.266667 0.266667
0.937255 0.266667 0.266667
0.937255 0.266667 0.266667
0.937255 0.266667 0.266667
0.937255 0.266667 0.266667
0.937255 0.266667 0.266667
0.491700 0.491700 0.491700
0.799687 0.644679 0.162742
0.917647 0.701961 0.031373
0.917647 0.701961 0.031373
0.917647 0.701961 0.031373
0.917647 0.701961 0.031373
0.555783 0.542252 0.500184
0.538206 0.538206 0.538206
0.544850 0.544850 0.544850
0.551494 0.551494 0.551494
0.558137 0.558137 0.558137
0.564781 0.564781 0.564781
0.571425 0.571425 0.571425
0.578069 0.578069 0.578069
0.584712 0.584712 0.584712
0.591356 0.591356 0.591356
0.635748 0.561133 0.561133
0.937255 0.266667 0.266667
0.937255 0.266667 0.266667
0.937255 0.266667 0.266667
0.937255 0.266667 0.266667
0.937255 0.266667 0.266667
0.937255 0.266667 0.266667
0.937255 0.266667 0.266667
0.937255 0.266667 0.266667
0.937255 0.266667 0.266667
0.937255 0.266667 0.266667
0.937255 0.266667 0.266667
0.937255 0.266667 0.266667
0.937255 0.266667 0.266667
0.937255 0.266667 0.266667
0.937255 0.266667 0.266667
0.937255 0.266667 0.266667
0.917647 0.701961 0.031373
0.917647 0.701961 0.031373
0.865430 0.678599 0.097724
0.533981 0.533981 0.533981
0.540625 0.540625 0.540625
0.547269 0.547269 0.547269
0.553913 0.553913 0.553913
0.560556 0.560556 0.560556
0.567200 0.567200 0.567200
0.573844 0.573844 0.573844
0.580488 0.580488 0.580488
0.587131 0.587131 0.587131
0.593775 0.593775 0.593775
0.799628 0.403033 0.403033
0.937255 0.266667 0.266667
0.937255 0.266667 0.266667
0.937255 0.266667 0.266667
0.937255 0.266667 0.266667
0.937255 0.266667 0.266667
0.937255 0.266667 0.266667
0.937255 0.266667 0.266667
0.937255 0.266667 0.266667
0.937255 0.266667 0.266667
0.937255 0.266667 0.266667
0.937255 0.266667 0.266667
0.937255 0.266667 0.266667
0.937255 0.266667 0.266667
0.937255 0.266667 0.266667
0.937255 0.266667 0.266667
0.937255 0.266667 0.266667
0.937255 0.266667 0.266667
0.937255 0.266667 0.266667
0.937255 0.266667 0.266667
0.536400 0.536400 0.536400
0.543044 0.543044 0.543044
0.549687 0.549687 0.549687
0.556331 0.556331 0.556331
0.562975 0.562975 0.562975
0.569619 0.569619 0.569619
0.576263 0.576263 0.576263
0.582906 0.582906 0.582906
0.589550 0.589550 0.589550
0.596194 0.596194 0.596194
0.930422 0.273536 0.273536
0.937255 0.266667 0.266667
0.937255 0.266667 0.266667
0.937255 0.266667 0.266667
0.937255 0.266667 0.266667
0.937255 0.266667 0.266667
0.937255 0.266667 0.266667
0.937255 0.266667 0.266667
0.937255 0.266667 0.266667
0.937255 0.266667 0.266667
0.937255 0.266667 0.266667
0.937255 0.266667 0.266667
0.937255 0.266667 0.266667
0.937255 0.266667 0.266667
0.937255 0.266667 0.266667
0.937255 0.266667 0.266667
0.937255 0.266667 0.266667
0.937255 0.266667 0.266667
0.937255 0.266667 0.266667
0.937255 0.266667 0.266667
0.937255 0.266667 0.266667
0.937255 0.266667 0.266667
0.937255 0.266667 0.266667
0.558750 0.558750 0.558750
0.565394 0.565394 0.565394
0.572037 0.572037 0.572037
0.578681 0.578681 0.578681
0.585325 0.585325 0.585325
0.591969 0.591969 0.591969
0.670507 0.528140 0.528140
0.937255 0.266667 0.266667
0.937255 0.266667 0.266667
0.937255 0.266667 0.266667
0.937255 0.266667 0.266667
0.937255 0.266667 0.266667
0.937255 0.266667 0.266667
0.937255 0.266667 0.266667
0.937255 0.266667 0.266667
0.937255 0.266667 0.266667
0.937255 0.266667 0.266667
0.937255 0.266667 0.266667
0.937255 0.266667 0.266667
0.937255 0.266667 0.266667
0.937255 0.266667 0.266667
0.937255 0.266667 0.266667
0.937255 0.266667 0.266667
0.937255 0.266667 0.266667
0.937255 0.266667 0.266667
0.937255 0.266667 0.266667
0.937255 0.266667 0.266667
0.937255 0.266667 0.266667
0.937255 0.266667 0.266667
0.937255 0.266667 0.266667
0.937255 0.266667 0.266667
0.937255 0.266667 0.266667
0.937255 0.266667 0.266667
0.581100 0.581100 0.581100
0.587744 0.587744 0.587744
0.594387 0.594387 0.594387
0.842908 0.360492 0.360492
0.937255 0.266667 0.266667
0.937255 0.266667 0.266667
0.937255 0.266667 0.266667
