luts/FalseColor_logc3.cube
# False Color Exposure Monitor LUT
# Profile  : ARRI LogC3 (EI800)
# Cameras  : Alexa Mini, Alexa Mini LF, Alexa 35, Amira
# Generator: false_color_generator.py
#
# Zone Reference:
#   #ef4444     white_clip      log 0.750 - 1.000
#   #eab308     +2 stops        log 0.514 - 0.558
#   #d946ef     +1 stops        log 0.441 - 0.485
#   #22c55e     +0 stops        log 0.370 - 0.412
#   #06b6d4     -1 stops        log 0.302 - 0.342
#   #3b82f6     -2 stops        log 0.239 - 0.276
#   #6366f1     black_clip      log 0.000 - 0.090
#   Grayscale   = between zones / untagged
#
TITLE "FalseColor ARRI LogC3 (EI800)"
LUT_3D_SIZE 5
DOMAIN_MIN 0.0 0.0 0.0
DOMAIN_MAX 1.0 1.0 1.0
0.194118 0.200000 0.472549
0.388235 0.400000 0.945098
0.106300 0.106300 0.106300
0.159450 0.159450 0.159450
0.212600 0.212600 0.212600
0.178800 0.178800 0.178800
0.231938 0.237837 0.247475
0.285100 0.285100 0.285100
0.079159 0.647357 0.744208
0.133333 0.772549 0.368627
0.357600 0.357600 0.357600
0.233957 0.641318 0.383906
0.850980 0.274510 0.937255
0.828094 0.660624 0.139945
0.570200 0.570200 0.570200
0.917647 0.701961 0.031373
0.589550 0.589550 0.589550
0.642700 0.642700 0.642700
0.695850 0.695850 0.695850
0.826599 0.550181 0.550181
0.715200 0.715200 0.715200
0.937255 0.266667 0.266667
0.937255 0.266667 0.266667
0.937255 0.266667 0.266667
0.937255 0.266667 0.266667
0.388235 0.400000 0.945098
0.388235 0.400000 0.945098
0.124350 0.124350 0.124350
0.177500 0.177500 0.177500
0.230650 0.230735 0.230874
0.196850 0.196850 0.196850
0.231373 0.509804 0.964706
0.130315 0.556930 0.629648
0.356300 0.356300 0.356300
0.204053 0.679551 0.379083
0.150432 0.744543 0.369123
0.428800 0.428800 0.428800
0.747786 0.332517 0.809935
0.917647 0.701961 0.031373
0.588250 0.588250 0.588250
0.838281 0.669726 0.145676
0.607600 0.607600 0.607600
0.660750 0.660750 0.660750
0.713900 0.713900 0.713900
0.937255 0.266667 0.266667
0.733250 0.733250 0.733250
0.937255 0.266667 0.266667
0.937255 0.266667 0.266667
0.937255 0.266667 0.266667
0.937255 0.266667 0.266667
0.388235 0.400000 0.945098
0.258470 0.265129 0.573645
0.142400 0.142400 0.142400
0.195550 0.195550 0.195550
0.231373 0.509804 0.964706
0.214900 0.214900 0.214900
0.231542 0.508688 0.961489
0.023529 0.713725 0.831373
0.168015 0.715249 0.369451
0.427500 0.427500 0.427500
0.133333 0.772549 0.368627
0.824072 0.285985 0.904602
0.500000 0.500000 0.500000
0.870382 0.682664 0.099033
0.606300 0.606300 0.606300
0.572500 0.572500 0.572500
0.625650 0.625650 0.625650
0.678800 0.678800 0.678800
0.731950 0.731950 0.731950
0.937255 0.266667 0.266667
0.865434 0.453845 0.453845
0.937255 0.266667 0.266667
0.937255 0.266667 0.266667
0.937255 0.266667 0.266667
0.937255 0.266667 0.266667
0.388235 0.400000 0.945098
0.107300 0.107300 0.107300
0.160450 0.160450 0.160450
0.213600 0.213600 0.213600
0.231373 0.509804 0.964706
0.232860 0.248802 0.274849
0.286100 0.286100 0.286100
0.102572 0.619974 0.708167
0.133333 0.772549 0.368627
0.794806 0.298208 0.869127
0.258457 0.610401 0.388007
0.850980 0.274510 0.937255
0.856484 0.673811 0.105864
0.571200 0.571200 0.571200
0.624350 0.624350 0.624350
0.590550 0.590550 0.590550
0.643700 0.643700 0.643700
0.696850 0.696850 0.696850
0.843627 0.508333 0.508333
0.937255 0.266667 0.266667
0.937255 0.266667 0.266667
0.937255 0.266667 0.266667
0.937255 0.266667 0.266667
0.937255 0.266667 0.266667
0.937255 0.266667 0.266667
0.388235 0.400000 0.945098
0.125350 0.125350 0.125350
0.178500 0.178500 0.178500
0.231646 0.235433 0.241620
0.284800 0.284800 0.284800
0.231373 0.509804 0.964706
0.107145 0.591686 0.674278
0.357300 0.357300 0.357300
0.226818 0.650396 0.382736
0.850980 0.274510 0.937255
0.429800 0.429800 0.429800
0.717579 0.350064 0.772581
0.917647 0.701961 0.031373
0.589250 0.589250 0.589250
0.642400 0.642400 0.642400
0.608600 0.608600 0.608600
0.661750 0.661750 0.661750
0.714900 0.714900 0.714900
0.937255 0.266667 0.266667
0.937255 0.266667 0.266667
0.937255 0.266667 0.266667
0.937255 0.266667 0.266667
0.937255 0.266667 0.266667
0.937255 0.266667 0.266667
0.968627 0.633333 0.633333
