luts/FalseColor_logc3.cube
# False Color Exposure Monitor LUT
# Profile  : ARRI LogC3 (EI800)
# Cameras  : Alexa Mini, Alexa Mini LF, Alexa 35, Amira
# Generator: false_color_generator.py
#
# Zone Reference:
#   #ef4444     white_clip      log 0.750 - 1.000
#   #eab308     +2 stops        log 0.514 - 0.558
#   #d946ef     +1 stops        log 0.441 - 0.485
#   #22c55e     +0 stops        log 0.370 - 0.412
#   #06b6d4     -1 stops        log 0.302 - 0.342
#   #3b82f6     -2 stops        log 0.239 - 0.276
#   #6366f1     black_clip      log 0.000 - 0.090
#   Grayscale   = between zones / untagged
#
TITLE "FalseColor ARRI LogC3 (EI800)"
LUT_3D_SIZE 33
DOMAIN_MIN 0.0 0.0 0.0
DOMAIN_MAX 1.0 1.0 1.0
0.194118 0.200000 0.472549
0.375550 0.386924 0.913901
0.388235 0.400000 0.945098
0.388235 0.400000 0.945098
0.388235 0.400000 0.945098
0.388235 0.400000 0.945098
0.388235 0.400000 0.945098
0.388235 0.400000 0.945098
0.388235 0.400000 0.945098
0.388235 0.400000 0.945098
0.388235 0.400000 0.945098
0.388235 0.400000 0.945098
0.388235 0.400000 0.945098
0.328110 0.337532 0.774059
0.165460 0.168347 0.302115
0.099656 0.099656 0.099656
0.106300 0.106300 0.106300
0.112944 0.112944 0.112944
0.119588 0.119588 0.119588
0.126231 0.126231 0.126231
0.132875 0.132875 0.132875
0.139519 0.139519 0.139519
0.146163 0.146163 0.146163
0.152806 0.152806 0.152806
0.159450 0.159450 0.159450
0.166094 0.166094 0.166094
0.172738 0.172738 0.172738
0.179381 0.179381 0.179381
0.186025 0.186025 0.186025
0.192669 0.192669 0.192669
0.199313 0.199313 0.199313
0.205956 0.205956 0.205956
0.212600 0.212600 0.212600
0.388235 0.400000 0.945098
0.388235 0.400000 0.945098
0.388235 0.400000 0.945098
0.388235 0.400000 0.945098
0.388235 0.400000 0.945098
0.388235 0.400000 0.945098
0.388235 0.400000 0.945098
0.388235 0.400000 0.945098
0.388235 0.400000 0.945098
0.386941 0.398656 0.941449
0.270320 0.277452 0.607903
0.120639 0.121652 0.168579
0.102075 0.102075 0.102075
0.108719 0.108719 0.108719
0.115362 0.115362 0.115362
0.122006 0.122006 0.122006
0.128650 0.128650 0.128650
0.135294 0.135294 0.135294
0.141938 0.141938 0.141938
0.148581 0.148581 0.148581
0.155225 0.155225 0.155225
0.161869 0.161869 0.161869
0.168513 0.168513 0.168513
0.175156 0.175156 0.175156
0.181800 0.181800 0.181800
0.188444 0.188444 0.188444
0.195088 0.195088 0.195088
0.201731 0.201731 0.201731
0.208375 0.208375 0.208375
0.215019 0.215019 0.215019
0.221663 0.221663 0.221663
0.228306 0.228306 0.228306
0.234338 0.281979 0.359815
0.388235 0.400000 0.945098
0.388235 0.400000 0.945098
0.388235 0.400000 0.945098
0.388235 0.400000 0.945098
0.388235 0.400000 0.945098
0.388235 0.400000 0.945098
0.362191 0.372947 0.871295
0.208330 0.212969 0.427910
0.099101 0.099152 0.101501
0.104494 0.104494 0.104494
0.111138 0.111138 0.111138
0.117781 0.117781 0.117781
0.124425 0.124425 0.124425
0.131069 0.131069 0.131069
0.137712 0.137712 0.137712
0.144356 0.144356 0.144356
0.151000 0.151000 0.151000
0.157644 0.157644 0.157644
0.164288 0.164288 0.164288
0.170931 0.170931 0.170931
0.177575 0.177575 0.177575
0.184219 0.184219 0.184219
0.190862 0.190862 0.190862
0.197506 0.197506 0.197506
0.204150 0.204150 0.204150
0.210794 0.210794 0.210794
0.217438 0.217438 0.217438
0.224081 0.224081 0.224081
0.230725 0.230900 0.231186
0.235213 0.335316 0.498865
0.232737 0.481105 0.886888
0.231373 0.509804 0.964706
0.231373 0.509804 0.964706
0.388235 0.400000 0.945098
0.388235 0.400000 0.945098
0.388235 0.400000 0.945098
0.314453 0.323336 0.734930
0.152438 0.154786 0.263603
0.100269 0.100269 0.100269
0.106912 0.106912 0.106912
0.113556 0.113556 0.113556
0.120200 0.120200 0.120200
0.126844 0.126844 0.126844
0.133488 0.133488 0.133488
0.140131 0.140131 0.140131
0.146775 0.146775 0.146775
0.153419 0.153419 0.153419
0.160062 0.160062 0.160062
0.166706 0.166706 0.166706
0.173350 0.173350 0.173350
0.179994 0.179994 0.179994
0.186638 0.186638 0.186638
0.193281 0.193281 0.193281
0.199925 0.199925 0.199925
0.206569 0.206569 0.206569
0.213212 0.213212 0.213212
0.219856 0.219856 0.219856
0.226500 0.226500 0.226500
0.233027 0.251410 0.281445
0.234983 0.393954 0.653683
0.231538 0.506903 0.956795
0.231373 0.509804 0.964706
0.231373 0.509804 0.964706
0.231373 0.509804 0.964706
0.242049 0.449083 0.787336
0.270524 0.323155 0.409144
0.254607 0.261111 0.562460
0.112607 0.113274 0.144173
0.102687 0.102687 0.102687
0.109331 0.109331 0.109331
0.115975 0.115975 0.115975
0.122619 0.122619 0.122619
0.129263 0.129263 0.129263
0.135906 0.135906 0.135906
0.142550 0.142550 0.142550
0.149194 0.149194 0.149194
0.155838 0.155838 0.155838
0.162481 0.162481 0.162481
0.169125 0.169125 0.169125
0.175769 0.175769 0.175769
0.182412 0.182412 0.182412
0.189056 0.189056 0.189056
0.195700 0.195700 0.195700
0.202344 0.202344 0.202344
0.208987 0.208987 0.208987
0.215631 0.215631 0.215631
0.222275 0.222275 0.222275
0.228919 0.228919 0.228919
0.234663 0.294454 0.392141
0.233855 0.448488 0.799156
0.231373 0.509804 0.964706
0.231373 0.509804 0.964706
0.231373 0.509804 0.964706
0.232099 0.505125 0.951195
0.251645 0.401945 0.647505
0.279515 0.293542 0.316460
0.288712 0.288712 0.288712
0.284361 0.312279 0.317037
0.157844 0.515138 0.576040
0.111750 0.111750 0.111750
0.118394 0.118394 0.118394
0.125037 0.125037 0.125037
0.131681 0.131681 0.131681
0.138325 0.138325 0.138325
0.144969 0.144969 0.144969
0.151612 0.151612 0.151612
0.158256 0.158256 0.158256
0.164900 0.164900 0.164900
0.171544 0.171544 0.171544
0.178187 0.178187 0.178187
0.184831 0.184831 0.184831
0.191475 0.191475 0.191475
0.198119 0.198119 0.198119
0.204762 0.204762 0.204762
0.211406 0.211406 0.211406
0.218050 0.218050 0.218050
0.224694 0.224694 0.224694
0.231338 0.233401 0.236771
0.235257 0.350041 0.537576
0.232370 0.489845 0.910507
0.231373 0.509804 0.964706
0.231373 0.509804 0.964706
0.231373 0.509804 0.964706
0.236514 0.479004 0.875185
0.262527 0.354297 0.504230
0.284488 0.284488 0.284488
0.291131 0.291131 0.291131
0.250737 0.369118 0.389296
0.101136 0.600639 0.685782
0.023529 0.713725 0.831373
0.023529 0.713725 0.831373
0.023529 0.713725 0.831373
0.134100 0.134100 0.134100
0.140744 0.140744 0.140744
0.147388 0.147388 0.147388
0.154031 0.154031 0.154031
0.160675 0.160675 0.160675
0.167319 0.167319 0.167319
0.173962 0.173962 0.173962
0.180606 0.180606 0.180606
0.187250 0.187250 0.187250
0.193894 0.193894 0.193894
0.200538 0.200538 0.200538
0.207181 0.207181 0.207181
0.213825 0.213825 0.213825
0.220469 0.220469 0.220469
0.227112 0.227112 0.227112
0.233525 0.260580 0.304783
0.234767 0.408516 0.692389
0.231403 0.509286 0.963291
0.231373 0.509804 0.964706
0.231373 0.509804 0.964706
0.231373 0.509804 0.964706
0.244279 0.437646 0.753568
0.273053 0.314111 0.381191
0.286906 0.286906 0.286906
0.293372 0.293827 0.293904
0.200584 0.449080 0.491438
0.054022 0.669931 0.774916
0.023529 0.713725 0.831373
0.023529 0.713725 0.831373
0.023529 0.713725 0.831373
0.023529 0.713725 0.831373
0.123249 0.596003 0.676586
0.301444 0.398097 0.414572
0.156450 0.156450 0.156450
0.163094 0.163094 0.163094
0.169737 0.169737 0.169737
0.176381 0.176381 0.176381
0.183025 0.183025 0.183025
0.189669 0.189669 0.189669
0.196312 0.196312 0.196312
0.202956 0.202956 0.202956
0.209600 0.209600 0.209600
0.216244 0.216244 0.216244
0.222887 0.222887 0.222887
0.229531 0.229531 0.229531
0.234919 0.307731 0.426692
0.233484 0.460558 0.831551
0.231373 0.509804 0.964706
0.231373 0.509804 0.964706
0.231373 0.509804 0.964706
0.232854 0.500434 0.937607
0.254338 0.389606 0.610608
0.281248 0.289025 0.301731
0.289325 0.289325 0.289325
0.277904 0.323669 0.331469
0.143122 0.537555 0.604788
0.026641 0.709321 0.825686
0.023529 0.713725 0.831373
0.023529 0.713725 0.831373
0.023529 0.713725 0.831373
0.037069 0.697342 0.809889
0.190779 0.519048 0.575003
0.341184 0.358004 0.360872
0.355762 0.355762 0.355762
0.360122 0.366496 0.362468
0.268990 0.540332 0.368871
0.178800 0.178800 0.178800
0.185444 0.185444 0.185444
0.192087 0.192087 0.192087
0.198731 0.198731 0.198731
0.205375 0.205375 0.205375
0.212019 0.212019 0.212019
0.218662 0.218662 0.218662
0.225306 0.225306 0.225306
0.231938 0.237837 0.247475
0.235229 0.364950 0.576887
0.232034 0.497178 0.930369
0.231373 0.509804 0.964706
0.231373 0.509804 0.964706
0.231373 0.509804 0.964706
0.238199 0.469628 0.847736
0.265298 0.343107 0.470232
0.285100 0.285100 0.285100
0.291744 0.291744 0.291744
0.239241 0.387763 0.413079
0.087903 0.620265 0.711009
0.023529 0.713725 0.831373
0.023529 0.713725 0.831373
0.023529 0.713725 0.831373
0.023529 0.713725 0.831373
0.079159 0.647357 0.744208
0.258053 0.444561 0.476352
0.351538 0.351538 0.351538
0.358181 0.358181 0.358181
0.340517 0.407638 0.365224
0.220006 0.626570 0.369662
0.133558 0.772187 0.368636
0.133333 0.772549 0.368627
0.133333 0.772549 0.368627
0.201150 0.201150 0.201150
0.207794 0.207794 0.207794
0.214438 0.214438 0.214438
0.221081 0.221081 0.221081
0.227725 0.227725 0.227725
0.233970 0.271029 0.331575
0.234498 0.422664 0.730090
0.231373 0.509804 0.964706
0.231373 0.509804 0.964706
0.231373 0.509804 0.964706
0.231390 0.509690 0.964378
0.246659 0.425782 0.718434
0.275434 0.306036 0.356034
0.287519 0.287519 0.287519
0.292130 0.297314 0.298198
0.186353 0.471250 0.519812
0.044815 0.683267 0.792094
0.023529 0.713725 0.831373
0.023529 0.713725 0.831373
0.023529 0.713725 0.831373
0.023875 0.713303 0.830820
0.139770 0.576990 0.651516
0.313863 0.385166 0.397319
0.353956 0.353956 0.353956
0.360600 0.360600 0.360600
0.303477 0.477735 0.367621
0.175354 0.702909 0.369546
0.133333 0.772549 0.368627
0.133333 0.772549 0.368627
0.133333 0.772549 0.368627
0.133333 0.772549 0.368627
0.160030 0.736913 0.372380
0.308472 0.548455 0.396810
0.223500 0.223500 0.223500
0.230144 0.230144 0.230144
0.235104 0.321653 0.463056
0.233100 0.471637 0.861358
0.231373 0.509804 0.964706
0.231373 0.509804 0.964706
0.231373 0.509804 0.964706
0.233863 0.494345 0.919921
0.257091 0.377369 0.573879
0.282686 0.285947 0.291274
0.289937 0.289937 0.289937
0.269958 0.337253 0.348724
0.128542 0.559602 0.633078
0.024079 0.712950 0.830372
0.023529 0.713725 0.831373
0.023529 0.713725 0.831373
0.023529 0.713725 0.831373
0.045404 0.687351 0.796774
0.208276 0.499448 0.549079
0.346668 0.353150 0.354255
0.356375 0.356375 0.356375
0.357214 0.373369 0.363161
0.256634 0.562349 0.369167
0.143586 0.755829 0.368951
0.133333 0.772549 0.368627
0.133333 0.772549 0.368627
0.133333 0.772549 0.368627
0.133333 0.772549 0.368627
0.205696 0.677436 0.379343
0.364123 0.481748 0.407421
0.422812 0.422812 0.422812
0.429456 0.429456 0.429456
0.483466 0.417652 0.493316
0.231748 0.502965 0.946081
0.231373 0.509804 0.964706
0.231373 0.509804 0.964706
0.231373 0.509804 0.964706
0.240086 0.459417 0.817760
0.268019 0.332524 0.437914
0.285712 0.285712 0.285712
0.292356 0.292356 0.292356
0.226832 0.407650 0.438472
0.075447 0.638626 0.734622
0.023529 0.713725 0.831373
0.023529 0.713725 0.831373
0.023529 0.713725 0.831373
0.023529 0.713725 0.831373
0.093170 0.630937 0.722602
0.273720 0.427602 0.453832
0.352150 0.352150 0.352150
0.358794 0.358794 0.358794
0.332490 0.423227 0.365890
0.207957 0.647378 0.369707
0.133333 0.772549 0.368627
0.133333 0.772549 0.368627
0.133333 0.772549 0.368627
0.133333 0.772549 0.368627
0.139143 0.764704 0.369411
0.263291 0.604345 0.388832
0.405046 0.435391 0.416216
0.425231 0.425231 0.425231
0.431875 0.431875 0.431875
0.556208 0.391721 0.580825
0.784484 0.302473 0.856621
0.850980 0.274510 0.937255
0.850980 0.274510 0.937255
0.231625 0.508149 0.959934
0.249167 0.413627 0.682323
0.277632 0.299052 0.334049
0.288131 0.288131 0.288131
0.288982 0.303722 0.306234
0.171804 0.493729 0.548603
0.037040 0.694464 0.806525
0.023529 0.713725 0.831373
0.023529 0.713725 0.831373
0.023529 0.713725 0.831373
0.026287 0.710365 0.826969
0.156798 0.557518 0.625823
0.324809 0.373992 0.382375
0.354569 0.354569 0.354569
0.361212 0.361212 0.361212
0.292233 0.498352 0.368105
0.165746 0.719051 0.369417
0.133333 0.772549 0.368627
0.133333 0.772549 0.368627
0.133333 0.772549 0.368627
0.133333 0.772549 0.368627
0.169961 0.723848 0.373846
0.323401 0.530297 0.399559
0.421006 0.421006 0.421006
0.427650 0.427650 0.427650
0.446918 0.429453 0.449532
0.642793 0.359009 0.685264
0.836332 0.280794 0.919474
0.850980 0.274510 0.937255
0.850980 0.274510 0.937255
0.850980 0.274510 0.937255
0.850980 0.274510 0.937255
0.779796 0.314178 0.849481
0.290550 0.290550 0.290550
0.260667 0.352789 0.368492
0.114263 0.581048 0.660614
0.023529 0.713725 0.831373
0.023529 0.713725 0.831373
0.023529 0.713725 0.831373
0.023529 0.713725 0.831373
0.055423 0.675408 0.781088
0.225578 0.480215 0.523619
0.349916 0.350819 0.350973
0.356988 0.356988 0.356988
0.352834 0.382803 0.363865
0.244159 0.584391 0.369398
0.138637 0.763935 0.368808
0.133333 0.772549 0.368627
0.133333 0.772549 0.368627
0.133333 0.772549 0.368627
0.133333 0.772549 0.368627
0.219519 0.659709 0.381552
0.376281 0.467615 0.409901
0.423425 0.423425 0.423425
0.430069 0.430069 0.430069
0.499776 0.412021 0.512909
0.728885 0.325084 0.789318
0.850980 0.274510 0.937255
0.850980 0.274510 0.937255
0.850980 0.274510 0.937255
0.850980 0.274510 0.937255
0.849828 0.275132 0.935837
0.709210 0.354966 0.762226
0.522783 0.470230 0.530648
0.496506 0.496506 0.496506
0.503150 0.503150 0.503150
0.023529 0.713725 0.831373
0.023529 0.713725 0.831373
0.023529 0.713725 0.831373
0.023529 0.713725 0.831373
0.108200 0.613429 0.699548
0.288468 0.411815 0.432840
0.352762 0.352762 0.352762
0.359406 0.359406 0.359406
0.323465 0.440435 0.366522
0.196321 0.667327 0.369698
0.133333 0.772549 0.368627
0.133333 0.772549 0.368627
0.133333 0.772549 0.368627
0.133333 0.772549 0.368627
0.144683 0.757283 0.370180
0.278654 0.585192 0.391490
0.411848 0.428287 0.417899
0.425844 0.425844 0.425844
0.432487 0.432487 0.432487
0.577397 0.383865 0.606361
0.800487 0.295852 0.876011
0.850980 0.274510 0.937255
0.850980 0.274510 0.937255
0.850980 0.274510 0.937255
0.850980 0.274510 0.937255
0.820916 0.291036 0.900218
0.632734 0.400632 0.667471
0.494307 0.491051 0.494794
0.498925 0.498925 0.498925
0.506005 0.505777 0.505067
0.660541 0.581632 0.336297
0.876271 0.682963 0.081951
0.917647 0.701961 0.031373
0.030867 0.704817 0.819695
0.174159 0.537799 0.599783
0.334090 0.364771 0.370001
0.355181 0.355181 0.355181
0.361416 0.362561 0.361837
0.280486 0.519667 0.368528
0.157105 0.733473 0.369265
0.133333 0.772549 0.368627
0.133333 0.772549 0.368627
0.133333 0.772549 0.368627
0.133333 0.772549 0.368627
0.181094 0.709292 0.375523
0.337868 0.512870 0.402286
0.421619 0.421619 0.421619
0.428262 0.428262 0.428262
0.457146 0.426333 0.461758
0.665199 0.350305 0.712326
0.843931 0.277549 0.928696
0.850980 0.274510 0.937255
0.850980 0.274510 0.937255
0.850980 0.274510 0.937255
0.850980 0.274510 0.937255
0.763189 0.323660 0.828968
0.563035 0.443938 0.580859
0.494700 0.494700 0.494700
0.501344 0.501344 0.501344
0.536470 0.521474 0.474850
0.747348 0.622803 0.235579
0.913864 0.700236 0.036048
0.917647 0.701961 0.031373
0.917647 0.701961 0.031373
0.917647 0.701961 0.031373
0.917647 0.701961 0.031373
0.357600 0.357600 0.357600
0.347101 0.394556 0.364569
0.231697 0.606233 0.369563
0.135230 0.769481 0.368697
0.133333 0.772549 0.368627
0.133333 0.772549 0.368627
0.133333 0.772549 0.368627
0.133559 0.772243 0.368657
0.233957 0.641318 0.383906
0.387330 0.454982 0.412233
0.424037 0.424037 0.424037
0.430681 0.430681 0.430681
0.517672 0.405700 0.534430
0.748933 0.316997 0.813576
0.850980 0.274510 0.937255
0.850980 0.274510 0.937255
0.850980 0.274510 0.937255
0.850980 0.274510 0.937255
0.845973 0.277225 0.931092
0.689895 0.366349 0.738317
0.512445 0.477313 0.517703
0.497119 0.497119 0.497119
0.503763 0.503763 0.503763
0.600104 0.552597 0.404896
0.828094 0.660624 0.139945
0.917647 0.701961 0.031373
0.917647 0.701961 0.031373
0.917647 0.701961 0.031373
0.917647 0.701961 0.031373
0.914305 0.700581 0.036093
0.765957 0.640968 0.252363
0.588575 0.573335 0.525954
0.570200 0.570200 0.570200
0.133333 0.772549 0.368627
0.133333 0.772549 0.368627
0.133333 0.772549 0.368627
0.133333 0.772549 0.368627
0.151852 0.747738 0.371196
0.294024 0.566181 0.394204
0.416874 0.423431 0.419287
0.426456 0.426456 0.426456
0.434515 0.432563 0.434807
0.599237 0.375660 0.632698
0.814683 0.289930 0.893218
0.850980 0.274510 0.937255
0.850980 0.274510 0.937255
0.850980 0.274510 0.937255
0.850980 0.274510 0.937255
0.808493 0.297974 0.884898
0.613951 0.412115 0.644158
0.492963 0.492852 0.492979
0.499537 0.499537 0.499537
0.509769 0.507888 0.502042
0.682332 0.592020 0.311232
0.889121 0.688887 0.066341
0.917647 0.701961 0.031373
0.917647 0.701961 0.031373
0.917647 0.701961 0.031373
0.917647 0.701961 0.031373
0.880265 0.686671 0.084770
0.691143 0.611800 0.365114
0.566404 0.566141 0.565323
0.572619 0.572619 0.572619
0.579263 0.579263 0.579263
0.585906 0.585906 0.585906
0.592550 0.592550 0.592550
0.133333 0.772549 0.368627
0.193285 0.693457 0.377397
0.351711 0.496370 0.404960
0.422231 0.422231 0.422231
0.428875 0.428875 0.428875
0.469673 0.422282 0.476766
0.687343 0.341616 0.739085
0.848869 0.275425 0.934690
0.850980 0.274510 0.937255
0.850980 0.274510 0.937255
0.850980 0.274510 0.937255
0.850980 0.274510 0.937255
0.745584 0.333789 0.807214
0.547938 0.453635 0.562051
0.495312 0.495312 0.495312
0.501956 0.501956 0.501956
0.550029 0.528184 0.460265
0.768914 0.632948 0.210217
0.917106 0.701715 0.032043
0.917647 0.701961 0.031373
0.917647 0.701961 0.031373
0.917647 0.701961 0.031373
0.917647 0.701961 0.031373
0.820130 0.662459 0.172248
0.625044 0.586686 0.467426
0.568394 0.568394 0.568394
0.575037 0.575037 0.575037
0.581681 0.581681 0.581681
0.588325 0.588325 0.588325
0.594969 0.594969 0.594969
0.601612 0.601612 0.601612
0.608256 0.608256 0.608256
0.614900 0.614900 0.614900
0.424650 0.424650 0.424650
0.431294 0.431294 0.431294
0.536916 0.398775 0.557590
0.767825 0.309309 0.836447
0.850980 0.274510 0.937255
0.850980 0.274510 0.937255
0.850980 0.274510 0.937255
0.850980 0.274510 0.937255
0.839624 0.280696 0.923273
0.670411 0.377931 0.714184
0.504104 0.483254 0.507224
0.497731 0.497731 0.497731
0.504375 0.504375 0.504375
0.619736 0.562070 0.382779
0.845944 0.668923 0.118547
0.917647 0.701961 0.031373
0.917647 0.701961 0.031373
0.917647 0.701961 0.031373
0.917647 0.701961 0.031373
0.908879 0.698349 0.043792
0.746864 0.633464 0.280893
0.579709 0.570227 0.540745
0.570812 0.570812 0.570812
0.577456 0.577456 0.577456
0.584100 0.584100 0.584100
0.590744 0.590744 0.590744
0.597387 0.597387 0.597387
0.604031 0.604031 0.604031
0.610675 0.610675 0.610675
0.617319 0.617319 0.617319
0.623962 0.623962 0.623962
0.630606 0.630606 0.630606
0.637250 0.637250 0.637250
0.826853 0.284811 0.907975
0.850980 0.274510 0.937255
0.850980 0.274510 0.937255
0.850980 0.274510 0.937255
0.850980 0.274510 0.937255
0.794442 0.305879 0.867560
0.595806 0.423327 0.621619
0.493506 0.493506 0.493506
0.500150 0.500150 0.500150
0.516369 0.511342 0.495713
0.704400 0.602502 0.285693
0.899850 0.693819 0.053249
0.917647 0.701961 0.031373
0.917647 0.701961 0.031373
0.917647 0.701961 0.031373
0.917647 0.701961 0.031373
0.866987 0.681290 0.103944
0.673099 0.604869 0.392736
0.566588 0.566588 0.566588
0.573231 0.573231 0.573231
0.579875 0.579875 0.579875
0.586519 0.586519 0.586519
0.593162 0.593162 0.593162
0.599806 0.599806 0.599806
0.606450 0.606450 0.606450
0.613094 0.613094 0.613094
0.619737 0.619737 0.619737
0.626381 0.626381 0.626381
0.633025 0.633025 0.633025
0.639669 0.639669 0.639669
0.646312 0.646312 0.646312
0.652956 0.652956 0.652956
0.659600 0.659600 0.659600
0.850980 0.274510 0.937255
0.850980 0.274510 0.937255
0.727195 0.344453 0.784476
0.534264 0.462571 0.544994
0.495925 0.495925 0.495925
0.502569 0.502569 0.502569
0.565475 0.535764 0.443389
0.789865 0.642774 0.185453
0.917647 0.701961 0.031373
0.917647 0.701961 0.031373
0.917647 0.701961 0.031373
0.917647 0.701961 0.031373
0.917647 0.701961 0.031373
0.802313 0.655359 0.198463
0.611132 0.581525 0.489474
0.569006 0.569006 0.569006
0.575650 0.575650 0.575650
0.582294 0.582294 0.582294
0.588938 0.588938 0.588938
0.595581 0.595581 0.595581
0.602225 0.602225 0.602225
0.608869 0.608869 0.608869
0.615513 0.615513 0.615513
0.622156 0.622156 0.622156
0.628800 0.628800 0.628800
0.635444 0.635444 0.635444
0.642088 0.642088 0.642088
0.648731 0.648731 0.648731
0.655375 0.655375 0.655375
0.662019 0.662019 0.662019
0.668662 0.668662 0.668662
0.675306 0.675306 0.675306
0.681950 0.681950 0.681950
0.497950 0.487921 0.499451
0.498344 0.498344 0.498344
0.504987 0.504987 0.504987
0.640326 0.571960 0.359403
0.862310 0.676509 0.098838
0.917647 0.701961 0.031373
0.917647 0.701961 0.031373
0.917647 0.701961 0.031373
0.917647 0.701961 0.031373
0.901146 0.695180 0.054812
0.727740 0.625988 0.309630
0.572927 0.567948 0.552468
0.571425 0.571425 0.571425
0.578069 0.578069 0.578069
0.584712 0.584712 0.584712
0.591356 0.591356 0.591356
0.598000 0.598000 0.598000
0.604644 0.604644 0.604644
0.611287 0.611287 0.611287
0.617931 0.617931 0.617931
0.624575 0.624575 0.624575
0.631219 0.631219 0.631219
0.637862 0.637862 0.637862
0.644506 0.644506 0.644506
0.651150 0.651150 0.651150
0.657794 0.657794 0.657794
0.664438 0.664438 0.664438
0.671081 0.671081 0.671081
0.677725 0.677725 0.677725
0.684369 0.684369 0.684369
0.691013 0.691013 0.691013
0.697656 0.697656 0.697656
0.704300 0.704300 0.704300
0.726518 0.612973 0.259951
0.908247 0.697668 0.042960
0.917647 0.701961 0.031373
0.917647 0.701961 0.031373
0.917647 0.701961 0.031373
0.917647 0.701961 0.031373
0.852249 0.675342 0.125323
0.655813 0.598277 0.419392
0.567200 0.567200 0.567200
0.573844 0.573844 0.573844
0.580488 0.580488 0.580488
0.587131 0.587131 0.587131
0.593775 0.593775 0.593775
0.600419 0.600419 0.600419
0.607063 0.607063 0.607063
0.613706 0.613706 0.613706
0.620350 0.620350 0.620350
0.626994 0.626994 0.626994
0.633638 0.633638 0.633638
0.640281 0.640281 0.640281
0.646925 0.646925 0.646925
0.653569 0.653569 0.653569
0.660212 0.660212 0.660212
0.666856 0.666856 0.666856
0.673500 0.673500 0.673500
0.680144 0.680144 0.680144
0.686787 0.686787 0.686787
0.693431 0.693431 0.693431
0.700075 0.700075 0.700075
0.706719 0.706719 0.706719
0.713363 0.713363 0.713363
0.720006 0.720006 0.720006
0.726650 0.726650 0.726650
0.917647 0.701961 0.031373
0.917647 0.701961 0.031373
0.917123 0.701744 0.032111
0.783864 0.648039 0.225747
0.598746 0.576992 0.509360
0.569619 0.569619 0.569619
0.576263 0.576263 0.576263
0.582906 0.582906 0.582906
0.589550 0.589550 0.589550
0.596194 0.596194 0.596194
0.602838 0.602838 0.602838
0.609481 0.609481 0.609481
0.616125 0.616125 0.616125
0.622769 0.622769 0.622769
0.629412 0.629412 0.629412
0.636056 0.636056 0.636056
0.642700 0.642700 0.642700
0.649344 0.649344 0.649344
0.655987 0.655987 0.655987
0.662631 0.662631 0.662631
0.669275 0.669275 0.669275
0.675919 0.675919 0.675919
0.682562 0.682562 0.682562
0.689206 0.689206 0.689206
0.695850 0.695850 0.695850
0.702494 0.702494 0.702494
0.709137 0.709137 0.709137
0.715781 0.715781 0.715781
0.722425 0.722425 0.722425
0.729069 0.729069 0.729069
0.735712 0.735712 0.735712
0.743798 0.738836 0.738836
0.826599 0.550181 0.550181
0.708788 0.618620 0.338279
0.568416 0.566565 0.560812
0.572037 0.572037 0.572037
0.578681 0.578681 0.578681
0.585325 0.585325 0.585325
0.591969 0.591969 0.591969
0.598612 0.598612 0.598612
0.605256 0.605256 0.605256
0.611900 0.611900 0.611900
0.618544 0.618544 0.618544
0.625188 0.625188 0.625188
0.631831 0.631831 0.631831
0.638475 0.638475 0.638475
0.645119 0.645119 0.645119
0.651763 0.651763 0.651763
0.658406 0.658406 0.658406
0.665050 0.665050 0.665050
0.671694 0.671694 0.671694
0.678338 0.678338 0.678338
0.684981 0.684981 0.684981
0.691625 0.691625 0.691625
0.698269 0.698269 0.698269
0.704912 0.704912 0.704912
0.711556 0.711556 0.711556
0.718200 0.718200 0.718200
0.724844 0.724844 0.724844
0.731487 0.731487 0.731487
0.738131 0.738131 0.738131
0.763472 0.698333 0.698333
0.867377 0.448943 0.448943
0.936901 0.267638 0.267638
0.937255 0.266667 0.266667
0.937255 0.266667 0.266667
0.581100 0.581100 0.581100
0.587744 0.587744 0.587744
0.594387 0.594387 0.594387
0.601031 0.601031 0.601031
0.607675 0.607675 0.607675
