luts/FalseColor_bmpfilm5.cube
# False Color Exposure Monitor LUT
# Profile  : Blackmagic Film Gen 5
# Cameras  : Pocket 6K G2, 6K Pro, 6K G2, URSA Mini Pro 12K
# Generator: false_color_lut_generator.py
#
# Zone Reference:
#   #ef4444     white_clip      log 0.750 - 1.000
#   #eab308     +2 stops        log 0.503 - 0.521
#   #d946ef     +1 stops        log 0.444 - 0.462
#   #22c55e     +0 stops        log 0.385 - 0.403
#   #06b6d4     -1 stops        log 0.328 - 0.345
#   #3b82f6     -2 stops        log 0.273 - 0.289
#   #6366f1     black_clip      log 0.000 - 0.100
#   Grayscale   = between zones / untagged
#
TITLE "FalseColor Blackmagic Film Gen 5"
LUT_3D_SIZE 33
DOMAIN_MIN 0.0 0.0 0.0
DOMAIN_MAX 1.0 1.0 1.0
0.194118 0.200000 0.472549
0.388235 0.400000 0.945098
0.388235 0.400000 0.945098
0.388235 0.400000 0.945098
0.388235 0.400000 0.945098
0.388235 0.400000 0.945098
0.388235 0.400000 0.945098
0.388235 0.400000 0.945098
0.388235 0.400000 0.945098
0.388235 0.400000 0.945098
0.388235 0.400000 0.945098
0.388235 0.400000 0.945098
0.388235 0.400000 0.945098
0.388235 0.400000 0.945098
0.388235 0.400000 0.945098
0.275515 0.282684 0.614865
0.106300 0.106300 0.106300
0.112944 0.112944 0.112944
0.119588 0.119588 0.119588
0.126231 0.126231 0.126231
0.132875 0.132875 0.132875
0.139519 0.139519 0.139519
0.146163 0.146163 0.146163
0.152806 0.152806 0.152806
0.159450 0.159450 0.159450
0.166094 0.166094 0.166094
0.172738 0.172738 0.172738
0.179381 0.179381 0.179381
0.186025 0.186025 0.186025
0.192669 0.192669 0.192669
0.199313 0.199313 0.199313
0.205956 0.205956 0.205956
0.212600 0.212600 0.212600
0.388235 0.400000 0.945098
0.388235 0.400000 0.945098
0.388235 0.400000 0.945098
0.388235 0.400000 0.945098
0.388235 0.400000 0.945098
0.388235 0.400000 0.945098
0.388235 0.400000 0.945098
0.388235 0.400000 0.945098
0.388235 0.400000 0.945098
0.388235 0.400000 0.945098
0.388235 0.400000 0.945098
0.388235 0.400000 0.945098
0.104719 0.104828 0.109865
0.108719 0.108719 0.108719
0.115362 0.115362 0.115362
0.122006 0.122006 0.122006
0.128650 0.128650 0.128650
0.135294 0.135294 0.135294
0.141938 0.141938 0.141938
0.148581 0.148581 0.148581
0.155225 0.155225 0.155225
0.161869 0.161869 0.161869
0.168513 0.168513 0.168513
0.175156 0.175156 0.175156
0.181800 0.181800 0.181800
0.188444 0.188444 0.188444
0.195088 0.195088 0.195088
0.201731 0.201731 0.201731
0.208375 0.208375 0.208375
0.215019 0.215019 0.215019
0.221663 0.221663 0.221663
0.228306 0.228306 0.228306
0.234950 0.234950 0.234950
0.388235 0.400000 0.945098
0.388235 0.400000 0.945098
0.388235 0.400000 0.945098
0.388235 0.400000 0.945098
0.388235 0.400000 0.945098
0.388235 0.400000 0.945098
0.388235 0.400000 0.945098
0.388235 0.400000 0.945098
0.386842 0.398550 0.941032
0.104494 0.104494 0.104494
0.111138 0.111138 0.111138
0.117781 0.117781 0.117781
0.124425 0.124425 0.124425
0.131069 0.131069 0.131069
0.137712 0.137712 0.137712
0.144356 0.144356 0.144356
0.151000 0.151000 0.151000
0.157644 0.157644 0.157644
0.164288 0.164288 0.164288
0.170931 0.170931 0.170931
0.177575 0.177575 0.177575
0.184219 0.184219 0.184219
0.190862 0.190862 0.190862
0.197506 0.197506 0.197506
0.204150 0.204150 0.204150
0.210794 0.210794 0.210794
0.217438 0.217438 0.217438
0.224081 0.224081 0.224081
0.230725 0.230725 0.230725
0.237369 0.237369 0.237369
0.244012 0.244012 0.244012
0.250656 0.250656 0.250656
0.257300 0.257300 0.257300
0.388235 0.400000 0.945098
0.388235 0.400000 0.945098
0.388235 0.400000 0.945098
0.388235 0.400000 0.945098
0.388235 0.400000 0.945098
0.219554 0.224427 0.450224
0.106912 0.106912 0.106912
0.113556 0.113556 0.113556
0.120200 0.120200 0.120200
0.126844 0.126844 0.126844
0.133488 0.133488 0.133488
0.140131 0.140131 0.140131
0.146775 0.146775 0.146775
0.153419 0.153419 0.153419
0.160062 0.160062 0.160062
0.166706 0.166706 0.166706
0.173350 0.173350 0.173350
0.179994 0.179994 0.179994
0.186638 0.186638 0.186638
0.193281 0.193281 0.193281
0.199925 0.199925 0.199925
0.206569 0.206569 0.206569
0.213212 0.213212 0.213212
0.219856 0.219856 0.219856
0.226500 0.226500 0.226500
0.233144 0.233144 0.233144
0.239788 0.239788 0.239788
0.246431 0.246431 0.246431
0.253075 0.253075 0.253075
0.259719 0.259719 0.259719
0.266363 0.266363 0.266363
0.247350 0.418931 0.699261
0.231373 0.509804 0.964706
0.388235 0.400000 0.945098
0.388235 0.400000 0.945098
0.102687 0.102687 0.102687
0.109331 0.109331 0.109331
0.115975 0.115975 0.115975
0.122619 0.122619 0.122619
0.129263 0.129263 0.129263
0.135906 0.135906 0.135906
0.142550 0.142550 0.142550
0.149194 0.149194 0.149194
0.155838 0.155838 0.155838
0.162481 0.162481 0.162481
0.169125 0.169125 0.169125
0.175769 0.175769 0.175769
0.182412 0.182412 0.182412
0.189056 0.189056 0.189056
0.195700 0.195700 0.195700
0.202344 0.202344 0.202344
0.208987 0.208987 0.208987
0.215631 0.215631 0.215631
0.222275 0.222275 0.222275
0.228919 0.228919 0.228919
0.235563 0.235563 0.235563
0.242206 0.242206 0.242206
0.248850 0.248850 0.248850
0.255494 0.255494 0.255494
0.262138 0.262138 0.262138
0.268781 0.268781 0.268781
0.231373 0.509804 0.964706
0.231373 0.509804 0.964706
0.258751 0.404240 0.641941
0.295356 0.295356 0.295356
0.302000 0.302000 0.302000
0.111750 0.111750 0.111750
0.118394 0.118394 0.118394
0.125037 0.125037 0.125037
0.131681 0.131681 0.131681
0.138325 0.138325 0.138325
0.144969 0.144969 0.144969
0.151612 0.151612 0.151612
0.158256 0.158256 0.158256
0.164900 0.164900 0.164900
0.171544 0.171544 0.171544
0.178187 0.178187 0.178187
0.184831 0.184831 0.184831
0.191475 0.191475 0.191475
0.198119 0.198119 0.198119
0.204762 0.204762 0.204762
0.211406 0.211406 0.211406
0.218050 0.218050 0.218050
0.224694 0.224694 0.224694
0.231338 0.231338 0.231338
0.237981 0.237981 0.237981
0.244625 0.244625 0.244625
0.251269 0.251269 0.251269
0.257912 0.257912 0.257912
0.264556 0.264556 0.264556
0.268522 0.287244 0.317832
0.231373 0.509804 0.964706
0.231373 0.509804 0.964706
0.291131 0.291131 0.291131
0.297775 0.297775 0.297775
0.304419 0.304419 0.304419
0.311063 0.311063 0.311063
0.317706 0.317706 0.317706
0.324350 0.324350 0.324350
0.134100 0.134100 0.134100
0.140744 0.140744 0.140744
0.147388 0.147388 0.147388
0.154031 0.154031 0.154031
0.160675 0.160675 0.160675
0.167319 0.167319 0.167319
0.173962 0.173962 0.173962
0.180606 0.180606 0.180606
0.187250 0.187250 0.187250
0.193894 0.193894 0.193894
0.200538 0.200538 0.200538
0.207181 0.207181 0.207181
0.213825 0.213825 0.213825
0.220469 0.220469 0.220469
0.227112 0.227112 0.227112
0.233756 0.233756 0.233756
0.240400 0.240400 0.240400
0.247044 0.247044 0.247044
0.253688 0.253688 0.253688
0.260331 0.260331 0.260331
0.266975 0.266975 0.266975
0.239429 0.464764 0.832918
0.231373 0.509804 0.964706
0.232049 0.507090 0.956452
0.293550 0.293550 0.293550
0.300194 0.300194 0.300194
0.306837 0.306837 0.306837
0.313481 0.313481 0.313481
0.320125 0.320125 0.320125
0.252678 0.421314 0.450058
0.023529 0.713725 0.831373
0.023529 0.713725 0.831373
0.345122 0.348492 0.349066
0.156450 0.156450 0.156450
0.163094 0.163094 0.163094
0.169737 0.169737 0.169737
0.176381 0.176381 0.176381
0.183025 0.183025 0.183025
0.189669 0.189669 0.189669
0.196312 0.196312 0.196312
0.202956 0.202956 0.202956
0.209600 0.209600 0.209600
0.216244 0.216244 0.216244
0.222887 0.222887 0.222887
0.229531 0.229531 0.229531
0.236175 0.236175 0.236175
0.242819 0.242819 0.242819
0.249462 0.249462 0.249462
0.256106 0.256106 0.256106
0.262750 0.262750 0.262750
0.269394 0.269394 0.269394
0.231373 0.509804 0.964706
0.231373 0.509804 0.964706
0.271179 0.358361 0.500801
0.295969 0.295969 0.295969
0.302612 0.302612 0.302612
0.309256 0.309256 0.309256
0.315900 0.315900 0.315900
0.322544 0.322544 0.322544
0.041167 0.691536 0.802395
0.023529 0.713725 0.831373
0.024364 0.712754 0.830093
0.349119 0.349119 0.349119
0.355762 0.355762 0.355762
0.362406 0.362406 0.362406
0.369050 0.369050 0.369050
0.178800 0.178800 0.178800
0.185444 0.185444 0.185444
0.192087 0.192087 0.192087
0.198731 0.198731 0.198731
0.205375 0.205375 0.205375
0.212019 0.212019 0.212019
0.218662 0.218662 0.218662
0.225306 0.225306 0.225306
0.231950 0.231950 0.231950
0.238594 0.238594 0.238594
0.245237 0.245237 0.245237
0.251881 0.251881 0.251881
0.258525 0.258525 0.258525
0.265169 0.265169 0.265169
0.263044 0.323418 0.422057
0.231373 0.509804 0.964706
0.231373 0.509804 0.964706
0.291744 0.291744 0.291744
0.298388 0.298388 0.298388
0.305031 0.305031 0.305031
0.311675 0.311675 0.311675
0.318319 0.318319 0.318319
0.324962 0.324962 0.324962
0.023529 0.713725 0.831373
0.023529 0.713725 0.831373
0.213863 0.495279 0.543248
0.351538 0.351538 0.351538
0.358181 0.358181 0.358181
0.364825 0.364825 0.364825
0.371469 0.371469 0.371469
0.378112 0.378112 0.378112
0.281036 0.544734 0.378103
0.133333 0.772549 0.368627
0.201150 0.201150 0.201150
0.207794 0.207794 0.207794
0.214438 0.214438 0.214438
0.221081 0.221081 0.221081
0.227725 0.227725 0.227725
0.234369 0.234369 0.234369
0.241012 0.241012 0.241012
0.247656 0.247656 0.247656
0.254300 0.254300 0.254300
0.260944 0.260944 0.260944
0.267587 0.267587 0.267587
0.233570 0.497728 0.929311
0.231373 0.509804 0.964706
0.237622 0.485062 0.889331
0.294162 0.294162 0.294162
0.300806 0.300806 0.300806
0.307450 0.307450 0.307450
0.314094 0.314094 0.314094
0.320738 0.320738 0.320738
0.195117 0.495554 0.546765
0.023529 0.713725 0.831373
0.023529 0.713725 0.831373
0.347313 0.347313 0.347313
0.353956 0.353956 0.353956
0.360600 0.360600 0.360600
0.367244 0.367244 0.367244
0.373888 0.373888 0.373888
0.380531 0.380531 0.380531
0.134620 0.770595 0.368721
0.133333 0.772549 0.368627
0.135235 0.769900 0.368854
0.407106 0.407106 0.407106
0.413750 0.413750 0.413750
0.223500 0.223500 0.223500
0.230144 0.230144 0.230144
0.236787 0.236787 0.236787
0.243431 0.243431 0.243431
0.250075 0.250075 0.250075
0.256719 0.256719 0.256719
0.263362 0.263362 0.263362
0.270006 0.270006 0.270006
0.231373 0.509804 0.964706
0.231373 0.509804 0.964706
0.282050 0.319549 0.380815
0.296581 0.296581 0.296581
0.303225 0.303225 0.303225
0.309869 0.309869 0.309869
0.316512 0.316512 0.316512
0.323156 0.323156 0.323156
0.023645 0.713581 0.831183
0.023529 0.713725 0.831373
0.046640 0.686920 0.796059
0.349731 0.349731 0.349731
0.356375 0.356375 0.356375
0.363019 0.363019 0.363019
0.369663 0.369663 0.369663
0.376306 0.376306 0.376306
0.380734 0.386408 0.382823
0.133333 0.772549 0.368627
0.133333 0.772549 0.368627
0.294806 0.551100 0.389147
0.409525 0.409525 0.409525
0.416169 0.416169 0.416169
0.422812 0.422812 0.422812
0.429456 0.429456 0.429456
0.436100 0.436100 0.436100
0.245850 0.245850 0.245850
0.252494 0.252494 0.252494
0.259137 0.259137 0.259137
0.265781 0.265781 0.265781
0.255392 0.370917 0.559661
0.231373 0.509804 0.964706
0.231373 0.509804 0.964706
0.292356 0.292356 0.292356
0.299000 0.299000 0.299000
0.305644 0.305644 0.305644
0.312287 0.312287 0.312287
0.318931 0.318931 0.318931
0.322496 0.329531 0.330731
0.023529 0.713725 0.831373
0.023529 0.713725 0.831373
0.274552 0.426652 0.452578
0.352150 0.352150 0.352150
0.358794 0.358794 0.358794
0.365437 0.365437 0.365437
0.372081 0.372081 0.372081
0.378725 0.378725 0.378725
0.232204 0.620662 0.375195
0.133333 0.772549 0.368627
0.133333 0.772549 0.368627
0.405300 0.405300 0.405300
0.411944 0.411944 0.411944
0.418588 0.418588 0.418588
0.425231 0.425231 0.425231
0.431875 0.431875 0.431875
0.438519 0.438519 0.438519
0.799246 0.296265 0.874523
0.850980 0.274510 0.937255
0.850980 0.274510 0.937255
0.268200 0.268200 0.268200
0.231373 0.509804 0.964706
0.231373 0.509804 0.964706
0.247354 0.447386 0.774199
0.294775 0.294775 0.294775
0.301419 0.301419 0.301419
0.308063 0.308063 0.308063
0.314706 0.314706 0.314706
0.321350 0.321350 0.321350
0.134454 0.573193 0.647978
0.023529 0.713725 0.831373
0.023529 0.713725 0.831373
0.347925 0.347925 0.347925
0.354569 0.354569 0.354569
0.361212 0.361212 0.361212
0.367856 0.367856 0.367856
0.374500 0.374500 0.374500
0.381144 0.381144 0.381144
0.133333 0.772549 0.368627
0.133333 0.772549 0.368627
0.156337 0.740633 0.371415
0.407719 0.407719 0.407719
0.414362 0.414362 0.414362
0.421006 0.421006 0.421006
0.427650 0.427650 0.427650
0.434294 0.434294 0.434294
0.440937 0.440937 0.440937
0.850980 0.274510 0.937255
0.850980 0.274510 0.937255
0.749087 0.323185 0.812827
0.467512 0.467512 0.467512
0.474156 0.474156 0.474156
0.480800 0.480800 0.480800
0.289258 0.295337 0.305270
0.297194 0.297194 0.297194
0.303837 0.303837 0.303837
0.310481 0.310481 0.310481
0.317125 0.317125 0.317125
0.323769 0.323769 0.323769
0.023529 0.713725 0.831373
0.023529 0.713725 0.831373
0.092391 0.634141 0.726485
0.350344 0.350344 0.350344
0.356988 0.356988 0.356988
0.363631 0.363631 0.363631
0.370275 0.370275 0.370275
0.376919 0.376919 0.376919
0.360740 0.419041 0.382200
0.133333 0.772549 0.368627
0.133333 0.772549 0.368627
0.344222 0.484462 0.395844
0.410137 0.410137 0.410137
0.416781 0.416781 0.416781
0.423425 0.423425 0.423425
0.430069 0.430069 0.430069
0.436712 0.436712 0.436712
0.584609 0.384847 0.614505
0.850980 0.274510 0.937255
0.850980 0.274510 0.937255
0.488614 0.450955 0.494250
0.469931 0.469931 0.469931
0.476575 0.476575 0.476575
0.483219 0.483219 0.483219
0.489862 0.489862 0.489862
0.496506 0.496506 0.496506
0.681005 0.588457 0.300717
0.312900 0.312900 0.312900
0.319544 0.319544 0.319544
0.296379 0.364356 0.375943
0.023529 0.713725 0.831373
0.023529 0.713725 0.831373
0.321662 0.373988 0.382907
0.352762 0.352762 0.352762
0.359406 0.359406 0.359406
0.366050 0.366050 0.366050
0.372694 0.372694 0.372694
0.379337 0.379337 0.379337
0.186889 0.690605 0.372306
0.133333 0.772549 0.368627
0.133333 0.772549 0.368627
0.405912 0.405912 0.405912
0.412556 0.412556 0.412556
0.419200 0.419200 0.419200
0.425844 0.425844 0.425844
0.432487 0.432487 0.432487
0.439131 0.439131 0.439131
0.840813 0.278807 0.924923
0.850980 0.274510 0.937255
0.850980 0.274510 0.937255
0.465706 0.465706 0.465706
0.472350 0.472350 0.472350
0.478994 0.478994 0.478994
0.485637 0.485637 0.485637
0.492281 0.492281 0.492281
0.498925 0.498925 0.498925
0.915541 0.700957 0.033796
0.917647 0.701961 0.031373
0.917647 0.701961 0.031373
0.525500 0.525500 0.525500
0.023529 0.713725 0.831373
0.023529 0.713725 0.831373
0.348538 0.348538 0.348538
0.355181 0.355181 0.355181
0.361825 0.361825 0.361825
0.368469 0.368469 0.368469
0.375113 0.375113 0.375113
0.381756 0.381756 0.381756
0.133333 0.772549 0.368627
0.133333 0.772549 0.368627
0.195166 0.687097 0.376245
0.408331 0.408331 0.408331
0.414975 0.414975 0.414975
0.421619 0.421619 0.421619
0.428262 0.428262 0.428262
0.434906 0.434906 0.434906
0.441855 0.441426 0.441919
0.850980 0.274510 0.937255
0.850980 0.274510 0.937255
0.677368 0.357849 0.725187
0.468125 0.468125 0.468125
0.474769 0.474769 0.474769
0.481413 0.481413 0.481413
0.488056 0.488056 0.488056
0.494700 0.494700 0.494700
0.508026 0.504564 0.493800
0.917647 0.701961 0.031373
0.917647 0.701961 0.031373
0.724564 0.613944 0.270017
0.527919 0.527919 0.527919
0.534563 0.534563 0.534563
0.541206 0.541206 0.541206
0.547850 0.547850 0.547850
0.357600 0.357600 0.357600
0.364244 0.364244 0.364244
0.370887 0.370887 0.370887
0.377531 0.377531 0.377531
0.324468 0.476619 0.380474
0.133333 0.772549 0.368627
0.133333 0.772549 0.368627
0.382878 0.432992 0.401325
0.410750 0.410750 0.410750
0.417394 0.417394 0.417394
0.424037 0.424037 0.424037
0.430681 0.430681 0.430681
0.437325 0.437325 0.437325
0.662828 0.352847 0.709220
0.850980 0.274510 0.937255
0.850980 0.274510 0.937255
0.464726 0.463496 0.464910
0.470544 0.470544 0.470544
0.477187 0.477187 0.477187
0.483831 0.483831 0.483831
0.490475 0.490475 0.490475
0.497119 0.497119 0.497119
0.760312 0.626617 0.210948
0.917647 0.701961 0.031373
0.917647 0.701961 0.031373
0.523705 0.523699 0.523680
0.530338 0.530338 0.530338
0.536981 0.536981 0.536981
0.543625 0.543625 0.543625
0.550269 0.550269 0.550269
0.556912 0.556912 0.556912
0.563556 0.563556 0.563556
0.570200 0.570200 0.570200
0.379950 0.379950 0.379950
0.151934 0.744203 0.369947
0.133333 0.772549 0.368627
0.133333 0.772549 0.368627
0.406525 0.406525 0.406525
0.413169 0.413169 0.413169
0.419812 0.419812 0.419812
0.426456 0.426456 0.426456
0.433100 0.433100 0.433100
0.439744 0.439744 0.439744
0.850980 0.274510 0.937255
0.850980 0.274510 0.937255
0.843268 0.278159 0.927842
0.466319 0.466319 0.466319
0.472962 0.472962 0.472962
0.479606 0.479606 0.479606
0.486250 0.486250 0.486250
0.492894 0.492894 0.492894
0.499537 0.499537 0.499537
0.917647 0.701961 0.031373
0.917647 0.701961 0.031373
0.903331 0.695399 0.048922
0.526112 0.526112 0.526112
0.532756 0.532756 0.532756
0.539400 0.539400 0.539400
0.546044 0.546044 0.546044
0.552687 0.552687 0.552687
0.559331 0.559331 0.559331
0.565975 0.565975 0.565975
0.572619 0.572619 0.572619
0.579263 0.579263 0.579263
0.585906 0.585906 0.585906
0.592550 0.592550 0.592550
0.244606 0.619376 0.382558
0.408944 0.408944 0.408944
0.415587 0.415587 0.415587
0.422231 0.422231 0.422231
0.428875 0.428875 0.428875
0.435519 0.435519 0.435519
0.465400 0.432633 0.470304
0.850980 0.274510 0.937255
0.850980 0.274510 0.937255
0.603062 0.394096 0.634335
0.468738 0.468738 0.468738
0.475381 0.475381 0.475381
0.482025 0.482025 0.482025
0.488669 0.488669 0.488669
0.495312 0.495312 0.495312
0.546420 0.523350 0.451621
0.917647 0.701961 0.031373
0.917647 0.701961 0.031373
0.650212 0.580276 0.362838
0.528531 0.528531 0.528531
0.535175 0.535175 0.535175
0.541819 0.541819 0.541819
0.548462 0.548462 0.548462
0.555106 0.555106 0.555106
0.561750 0.561750 0.561750
0.568394 0.568394 0.568394
0.575037 0.575037 0.575037
0.581681 0.581681 0.581681
0.588325 0.588325 0.588325
0.594969 0.594969 0.594969
0.601612 0.601612 0.601612
0.608256 0.608256 0.608256
0.614900 0.614900 0.614900
0.424650 0.424650 0.424650
0.431294 0.431294 0.431294
0.437937 0.437937 0.437937
0.738772 0.321467 0.801226
0.850980 0.274510 0.937255
0.850980 0.274510 0.937255
0.464512 0.464512 0.464512
0.471156 0.471156 0.471156
0.477800 0.477800 0.477800
0.484444 0.484444 0.484444
0.491088 0.491088 0.491088
0.497731 0.497731 0.497731
0.832834 0.661412 0.128444
0.917647 0.701961 0.031373
0.917647 0.701961 0.031373
0.524306 0.524306 0.524306
0.530950 0.530950 0.530950
0.537594 0.537594 0.537594
0.544237 0.544237 0.544237
0.550881 0.550881 0.550881
0.557525 0.557525 0.557525
0.564169 0.564169 0.564169
0.570812 0.570812 0.570812
0.577456 0.577456 0.577456
0.584100 0.584100 0.584100
0.590744 0.590744 0.590744
0.597387 0.597387 0.597387
0.604031 0.604031 0.604031
0.610675 0.610675 0.610675
0.617319 0.617319 0.617319
0.623962 0.623962 0.623962
0.630606 0.630606 0.630606
0.637250 0.637250 0.637250
0.850980 0.274510 0.937255
0.850980 0.274510 0.937255
0.805598 0.296090 0.881850
0.466931 0.466931 0.466931
0.473575 0.473575 0.473575
0.480219 0.480219 0.480219
0.486862 0.486862 0.486862
0.493506 0.493506 0.493506
0.500150 0.500150 0.500150
0.917647 0.701961 0.031373
0.917647 0.701961 0.031373
0.859108 0.675180 0.103331
0.526725 0.526725 0.526725
0.533369 0.533369 0.533369
0.540013 0.540013 0.540013
0.546656 0.546656 0.546656
0.553300 0.553300 0.553300
0.559944 0.559944 0.559944
0.566588 0.566588 0.566588
0.573231 0.573231 0.573231
0.579875 0.579875 0.579875
0.586519 0.586519 0.586519
0.593162 0.593162 0.593162
0.599806 0.599806 0.599806
0.606450 0.606450 0.606450
0.613094 0.613094 0.613094
0.619737 0.619737 0.619737
0.626381 0.626381 0.626381
0.633025 0.633025 0.633025
0.639669 0.639669 0.639669
0.646312 0.646312 0.646312
0.652956 0.652956 0.652956
0.659600 0.659600 0.659600
0.469350 0.469350 0.469350
0.475994 0.475994 0.475994
0.482637 0.482637 0.482637
0.489281 0.489281 0.489281
0.495925 0.495925 0.495925
0.608943 0.553668 0.381813
0.917647 0.701961 0.031373
0.917647 0.701961 0.031373
0.585375 0.551055 0.444353
0.529144 0.529144 0.529144
0.535787 0.535787 0.535787
0.542431 0.542431 0.542431
0.549075 0.549075 0.549075
0.555719 0.555719 0.555719
0.562362 0.562362 0.562362
0.569006 0.569006 0.569006
0.575650 0.575650 0.575650
0.582294 0.582294 0.582294
0.588938 0.588938 0.588938
0.595581 0.595581 0.595581
0.602225 0.602225 0.602225
0.608869 0.608869 0.608869
0.615513 0.615513 0.615513
0.622156 0.622156 0.622156
0.628800 0.628800 0.628800
0.635444 0.635444 0.635444
0.642088 0.642088 0.642088
0.648731 0.648731 0.648731
0.655375 0.655375 0.655375
0.662019 0.662019 0.662019
0.668662 0.668662 0.668662
0.675306 0.675306 0.675306
0.681950 0.681950 0.681950
0.491700 0.491700 0.491700
0.498344 0.498344 0.498344
0.888210 0.687910 0.065158
0.917647 0.701961 0.031373
0.917647 0.701961 0.031373
0.524919 0.524919 0.524919
0.531562 0.531562 0.531562
0.538206 0.538206 0.538206
0.544850 0.544850 0.544850
0.551494 0.551494 0.551494
0.558137 0.558137 0.558137
0.564781 0.564781 0.564781
0.571425 0.571425 0.571425
0.578069 0.578069 0.578069
0.584712 0.584712 0.584712
0.591356 0.591356 0.591356
0.598000 0.598000 0.598000
0.604644 0.604644 0.604644
0.611287 0.611287 0.611287
0.617931 0.617931 0.617931
0.624575 0.624575 0.624575
0.631219 0.631219 0.631219
0.637862 0.637862 0.637862
0.644506 0.644506 0.644506
0.651150 0.651150 0.651150
0.657794 0.657794 0.657794
0.664438 0.664438 0.664438
0.671081 0.671081 0.671081
0.677725 0.677725 0.677725
0.684369 0.684369 0.684369
0.691013 0.691013 0.691013
0.697656 0.697656 0.697656
0.704300 0.704300 0.704300
0.917647 0.701961 0.031373
0.794873 0.645896 0.182716
0.527338 0.527338 0.527338
0.533981 0.533981 0.533981
0.540625 0.540625 0.540625
0.547269 0.547269 0.547269
0.553913 0.553913 0.553913
0.560556 0.560556 0.560556
0.567200 0.567200 0.567200
0.573844 0.573844 0.573844
0.580488 0.580488 0.580488
0.587131 0.587131 0.587131
0.593775 0.593775 0.593775
0.600419 0.600419 0.600419
0.607063 0.607063 0.607063
0.613706 0.613706 0.613706
0.620350 0.620350 0.620350
0.626994 0.626994 0.626994
0.633638 0.633638 0.633638
0.640281 0.640281 0.640281
0.646925 0.646925 0.646925
0.653569 0.653569 0.653569
0.660212 0.660212 0.660212
0.666856 0.666856 0.666856
0.673500 0.673500 0.673500
0.680144 0.680144 0.680144
0.686787 0.686787 0.686787
0.693431 0.693431 0.693431
0.700075 0.700075 0.700075
0.706719 0.706719 0.706719
0.713363 0.713363 0.713363
0.720006 0.720006 0.720006
0.726650 0.726650 0.726650
0.536400 0.536400 0.536400
0.543044 0.543044 0.543044
0.549687 0.549687 0.549687
0.556331 0.556331 0.556331
0.562975 0.562975 0.562975
0.569619 0.569619 0.569619
0.576263 0.576263 0.576263
0.582906 0.582906 0.582906
0.589550 0.589550 0.589550
0.596194 0.596194 0.596194
0.602838 0.602838 0.602838
0.609481 0.609481 0.609481
0.616125 0.616125 0.616125
0.622769 0.622769 0.622769
0.629412 0.629412 0.629412
0.636056 0.636056 0.636056
0.642700 0.642700 0.642700
0.649344 0.649344 0.649344
0.655987 0.655987 0.655987
0.662631 0.662631 0.662631
0.669275 0.669275 0.669275
0.675919 0.675919 0.675919
0.682562 0.682562 0.682562
0.689206 0.689206 0.689206
0.695850 0.695850 0.695850
0.702494 0.702494 0.702494
0.709137 0.709137 0.709137
0.715781 0.715781 0.715781
0.722425 0.722425 0.722425
0.729069 0.729069 0.729069
0.735712 0.735712 0.735712
0.742356 0.742356 0.742356
0.786457 0.653030 0.653030
0.558750 0.558750 0.558750
0.565394 0.565394 0.565394
0.572037 0.572037 0.572037
0.578681 0.578681 0.578681
0.585325 0.585325 0.585325
0.591969 0.591969 0.591969
0.598612 0.598612 0.598612
0.605256 0.605256 0.605256
0.611900 0.611900 0.611900
0.618544 0.618544 0.618544
0.625188 0.625188 0.625188
0.631831 0.631831 0.631831
0.638475 0.638475 0.638475
0.645119 0.645119 0.645119
0.651763 0.651763 0.651763
0.658406 0.658406 0.658406
0.665050 0.665050 0.665050
0.671694 0.671694 0.671694
0.678338 0.678338 0.678338
0.684981 0.684981 0.684981
0.691625 0.691625 0.691625
0.698269 0.698269 0.698269
0.704912 0.704912 0.704912
0.711556 0.711556 0.711556
0.718200 0.718200 0.718200
0.724844 0.724844 0.724844
0.731487 0.731487 0.731487
0.738131 0.738131 0.738131
0.744775 0.744775 0.744775
0.918493 0.315608 0.315608
0.937255 0.266667 0.266667
0.937255 0.266667 0.266667
0.937255 0.266667 0.266667
0.581100 0.581100 0.581100
0.587744 0.587744 0.587744
0.594387 0.594387 0.594387
0.601031 0.601031 0.601031
0.607675 0.607675 0.607675
