luts/FalseColor_bmpfilm5.cube
# False Color Exposure Monitor LUT
# Profile  : Blackmagic Film Gen 5
# Cameras  : Pocket 6K G2, 6K Pro, 6K G2, URSA Mini Pro 12K
# Generator: false_color_lut_generator.py
#
# Zone Reference:
#   #ef4444     white_clip      log 0.750 - 1.000
#   #eab308     +2 stops        log 0.503 - 0.521
#   #d946ef     +1 stops        log 0.444 - 0.462
#   #22c55e     +0 stops        log 0.385 - 0.403
#   #06b6d4     -1 stops        log 0.328 - 0.345
#   #3b82f6     -2 stops        log 0.273 - 0.289
#   #6366f1     black_clip      log 0.000 - 0.100
#   Grayscale   = between zones / untagged
#
TITLE "FalseColor Blackmagic Film Gen 5"
LUT_3D_SIZE 5
DOMAIN_MIN 0.0 0.0 0.0
DOMAIN_MAX 1.0 1.0 1.0
0.194118 0.200000 0.472549
0.388235 0.400000 0.945098
0.106300 0.106300 0.106300
0.159450 0.159450 0.159450
0.212600 0.212600 0.212600
0.178800 0.178800 0.178800
0.231950 0.231950 0.231950
0.231373 0.509804 0.964706
0.023529 0.713725 0.831373
0.133333 0.772549 0.368627
0.357600 0.357600 0.357600
0.410750 0.410750 0.410750
0.464726 0.463496 0.464910
0.917647 0.701961 0.031373
0.570200 0.570200 0.570200
0.536400 0.536400 0.536400
0.589550 0.589550 0.589550
0.642700 0.642700 0.642700
0.695850 0.695850 0.695850
0.786457 0.653030 0.653030
0.715200 0.715200 0.715200
0.937255 0.266667 0.266667
0.937255 0.266667 0.266667
0.937255 0.266667 0.266667
0.937255 0.266667 0.266667
0.388235 0.400000 0.945098
0.388235 0.400000 0.945098
0.124350 0.124350 0.124350
0.177500 0.177500 0.177500
0.230650 0.230650 0.230650
0.196850 0.196850 0.196850
0.250000 0.250000 0.250000
0.303150 0.303150 0.303150
0.356300 0.356300 0.356300
0.409450 0.409450 0.409450
0.375650 0.375650 0.375650
0.428800 0.428800 0.428800
0.481950 0.481950 0.481950
0.535100 0.535100 0.535100
0.588250 0.588250 0.588250
0.554450 0.554450 0.554450
0.607600 0.607600 0.607600
0.660750 0.660750 0.660750
0.713900 0.713900 0.713900
0.937255 0.266667 0.266667
0.733250 0.733250 0.733250
0.937255 0.266667 0.266667
0.937255 0.266667 0.266667
0.937255 0.266667 0.266667
0.937255 0.266667 0.266667
0.388235 0.400000 0.945098
0.388235 0.400000 0.945098
0.142400 0.142400 0.142400
0.195550 0.195550 0.195550
0.248700 0.248700 0.248700
0.214900 0.214900 0.214900
0.268050 0.268050 0.268050
0.321200 0.321200 0.321200
0.374350 0.374350 0.374350
0.427500 0.427500 0.427500
0.133333 0.772549 0.368627
0.850980 0.274510 0.937255
0.500000 0.500000 0.500000
0.553150 0.553150 0.553150
0.606300 0.606300 0.606300
0.572500 0.572500 0.572500
0.625650 0.625650 0.625650
0.678800 0.678800 0.678800
0.731950 0.731950 0.731950
0.937255 0.266667 0.266667
0.913793 0.327812 0.327812
0.937255 0.266667 0.266667
0.937255 0.266667 0.266667
0.937255 0.266667 0.266667
0.937255 0.266667 0.266667
0.388235 0.400000 0.945098
0.107300 0.107300 0.107300
0.160450 0.160450 0.160450
0.213600 0.213600 0.213600
0.266750 0.266750 0.266750
0.232950 0.232950 0.232950
0.231373 0.509804 0.964706
0.023529 0.713725 0.831373
0.133333 0.772549 0.368627
0.828819 0.283859 0.910378
0.411750 0.411750 0.411750
0.464900 0.464900 0.464900
0.917647 0.701961 0.031373
0.571200 0.571200 0.571200
0.624350 0.624350 0.624350
0.590550 0.590550 0.590550
0.643700 0.643700 0.643700
0.696850 0.696850 0.696850
0.843627 0.508333 0.508333
0.937255 0.266667 0.266667
0.937255 0.266667 0.266667
0.937255 0.266667 0.266667
0.937255 0.266667 0.266667
0.937255 0.266667 0.266667
0.937255 0.266667 0.266667
0.388235 0.400000 0.945098
0.125350 0.125350 0.125350
0.178500 0.178500 0.178500
0.231650 0.231650 0.231650
0.231373 0.509804 0.964706
0.251000 0.251000 0.251000
0.304150 0.304150 0.304150
0.357300 0.357300 0.357300
0.410450 0.410450 0.410450
0.472464 0.459273 0.474439
0.429800 0.429800 0.429800
0.482950 0.482950 0.482950
0.536100 0.536100 0.536100
0.589250 0.589250 0.589250
0.642400 0.642400 0.642400
0.608600 0.608600 0.608600
0.661750 0.661750 0.661750
0.714900 0.714900 0.714900
0.937255 0.266667 0.266667
0.937255 0.266667 0.266667
0.937255 0.266667 0.266667
0.937255 0.266667 0.266667
0.937255 0.266667 0.266667
0.937255 0.266667 0.266667
0.968627 0.633333 0.633333
