luts/FalseColor_vlog.cube
# False Color Exposure Monitor LUT
# Profile  : Panasonic V-Log L
# Cameras  : GH5, GH6, S5, S5II, S1, BGH1, AU-EVA1
# Generator: false_color_generator.py
#
# Zone Reference:
#   #ef4444     white_clip      log 0.800 - 1.010
#   #eab308     +2 stops        log 0.543 - 0.587
#   #d946ef     +1 stops        log 0.472 - 0.515
#   #22c55e     +0 stops        log 0.403 - 0.444
#   #06b6d4     -1 stops        log 0.336 - 0.375
#   #3b82f6     -2 stops        log 0.274 - 0.310
#   #6366f1     black_clip      log 0.000 - 0.100
#   Grayscale   = between zones / untagged
#
TITLE "FalseColor Panasonic V-Log L"
LUT_3D_SIZE 9
DOMAIN_MIN 0.0 0.0 0.0
DOMAIN_MAX 1.0 1.0 1.0
0.194118 0.200000 0.472549
0.388235 0.400000 0.945098
0.388235 0.400000 0.945098
0.388235 0.400000 0.945098
0.117890 0.118374 0.140783
0.132875 0.132875 0.132875
0.159450 0.159450 0.159450
0.186025 0.186025 0.186025
0.212600 0.212600 0.212600
0.388235 0.400000 0.945098
0.115975 0.115975 0.115975
0.142550 0.142550 0.142550
0.169125 0.169125 0.169125
0.195700 0.195700 0.195700
0.222275 0.222275 0.222275
0.248850 0.248850 0.248850
0.246250 0.430648 0.731918
0.231416 0.509677 0.964300
0.178800 0.178800 0.178800
0.205375 0.205375 0.205375
0.231950 0.231950 0.231950
0.258525 0.258525 0.258525
0.231373 0.509804 0.964706
0.282788 0.382948 0.546591
0.109983 0.610583 0.695913
0.023529 0.713725 0.831373
0.391400 0.391400 0.391400
0.265159 0.288147 0.325704
0.231373 0.509804 0.964706
0.321350 0.321350 0.321350
0.023529 0.713725 0.831373
0.170508 0.571666 0.640045
0.303902 0.535896 0.389299
0.133333 0.772549 0.368627
0.454225 0.454225 0.454225
0.850980 0.274510 0.937255
0.023529 0.713725 0.831373
0.384175 0.384175 0.384175
0.133455 0.772390 0.368646
0.139865 0.765346 0.370104
0.463900 0.463900 0.463900
0.850980 0.274510 0.937255
0.620958 0.441580 0.647803
0.735075 0.624672 0.281419
0.917647 0.701961 0.031373
0.366024 0.531044 0.426767
0.704515 0.351764 0.757308
0.850980 0.274510 0.937255
0.526725 0.526725 0.526725
0.917647 0.701961 0.031373
0.908671 0.698716 0.045949
0.606450 0.606450 0.606450
0.633025 0.633025 0.633025
0.659600 0.659600 0.659600
0.542444 0.539025 0.528393
0.917647 0.701961 0.031373
0.669862 0.617066 0.452918
0.616125 0.616125 0.616125
0.642700 0.642700 0.642700
0.669275 0.669275 0.669275
0.695850 0.695850 0.695850
0.722425 0.722425 0.722425
0.749000 0.749000 0.749000
0.625800 0.625800 0.625800
0.652375 0.652375 0.652375
0.678950 0.678950 0.678950
0.705525 0.705525 0.705525
0.732100 0.732100 0.732100
0.758675 0.758675 0.758675
0.785250 0.785250 0.785250
0.937255 0.266667 0.266667
0.937255 0.266667 0.266667
0.715200 0.715200 0.715200
0.741775 0.741775 0.741775
0.768350 0.768350 0.768350
0.809133 0.742193 0.742193
0.937255 0.266667 0.266667
0.937255 0.266667 0.266667
0.937255 0.266667 0.266667
0.937255 0.266667 0.266667
0.937255 0.266667 0.266667
0.388235 0.400000 0.945098
0.388235 0.400000 0.945098
0.388235 0.400000 0.945098
0.388235 0.400000 0.945098
0.115325 0.115325 0.115325
0.141900 0.141900 0.141900
0.168475 0.168475 0.168475
0.195050 0.195050 0.195050
0.221625 0.221625 0.221625
0.283907 0.291437 0.640306
0.125000 0.125000 0.125000
0.151575 0.151575 0.151575
0.178150 0.178150 0.178150
0.204725 0.204725 0.204725
0.231300 0.231300 0.231300
0.257875 0.257875 0.257875
0.231373 0.509804 0.964706
0.277821 0.393888 0.583518
0.187825 0.187825 0.187825
0.214400 0.214400 0.214400
0.240975 0.240975 0.240975
0.265683 0.280053 0.303532
0.231373 0.509804 0.964706
0.320700 0.320700 0.320700
0.023529 0.713725 0.831373
0.150207 0.590825 0.665931
0.318317 0.514822 0.390650
0.240260 0.464725 0.831457
0.234358 0.501312 0.937461
0.303347 0.364142 0.374504
0.023529 0.713725 0.831373
0.383342 0.383693 0.383752
0.135430 0.769803 0.368942
0.135381 0.770281 0.369087
0.463250 0.463250 0.463250
0.850980 0.274510 0.937255
0.023529 0.713725 0.831373
0.393200 0.393200 0.393200
0.133333 0.772549 0.368627
0.348850 0.547956 0.422141
0.682441 0.362965 0.730253
0.850980 0.274510 0.937255
0.526075 0.526075 0.526075
0.917647 0.701961 0.031373
0.914325 0.700756 0.036750
0.456025 0.456025 0.456025
0.850980 0.274510 0.937255
0.828511 0.289936 0.909114
0.537167 0.536367 0.533879
0.917647 0.701961 0.031373
0.686664 0.622522 0.423101
0.615475 0.615475 0.615475
0.642050 0.642050 0.642050
0.668625 0.668625 0.668625
0.795073 0.650413 0.200651
0.917647 0.701961 0.031373
0.598575 0.598575 0.598575
0.625150 0.625150 0.625150
0.651725 0.651725 0.651725
0.678300 0.678300 0.678300
0.704875 0.704875 0.704875
0.731450 0.731450 0.731450
0.758025 0.758025 0.758025
0.634825 0.634825 0.634825
0.661400 0.661400 0.661400
0.687975 0.687975 0.687975
0.714550 0.714550 0.714550
0.741125 0.741125 0.741125
0.767700 0.767700 0.767700
0.803699 0.759500 0.759500
0.937255 0.266667 0.266667
0.937255 0.266667 0.266667
0.724225 0.724225 0.724225
0.750800 0.750800 0.750800
0.777375 0.777375 0.777375
0.914430 0.358663 0.358663
0.937255 0.266667 0.266667
0.937255 0.266667 0.266667
0.937255 0.266667 0.266667
0.937255 0.266667 0.266667
0.937255 0.266667 0.266667
0.388235 0.400000 0.945098
0.388235 0.400000 0.945098
0.388235 0.400000 0.945098
0.299768 0.307949 0.687023
0.124350 0.124350 0.124350
0.150925 0.150925 0.150925
0.177500 0.177500 0.177500
0.204075 0.204075 0.204075
0.230650 0.230650 0.230650
0.109747 0.109843 0.114301
0.134025 0.134025 0.134025
0.160600 0.160600 0.160600
0.187175 0.187175 0.187175
0.213750 0.213750 0.213750
0.240325 0.240325 0.240325
0.265931 0.273525 0.285931
0.231373 0.509804 0.964706
0.320050 0.320050 0.320050
0.196850 0.196850 0.196850
0.223425 0.223425 0.223425
0.250000 0.250000 0.250000
0.242360 0.453115 0.797448
0.232785 0.505738 0.951690
0.312535 0.351284 0.357888
0.023529 0.713725 0.831373
0.380056 0.385471 0.386394
0.139656 0.764235 0.369562
0.231373 0.509804 0.964706
0.291376 0.364696 0.484488
0.082372 0.643993 0.739724
0.023529 0.713725 0.831373
0.392550 0.392550 0.392550
0.133333 0.772549 0.368627
0.331013 0.565704 0.417402
0.660041 0.374221 0.702816
0.850980 0.274510 0.937255
0.207305 0.537280 0.593526
0.277233 0.574367 0.386607
0.133333 0.772549 0.368627
0.455375 0.455375 0.455375
0.850980 0.274510 0.937255
0.837924 0.283432 0.920909
0.535100 0.535100 0.535100
0.917647 0.701961 0.031373
0.704366 0.628334 0.391945
0.469571 0.462818 0.470582
0.850980 0.274510 0.937255
0.591043 0.464858 0.609928
0.773876 0.641353 0.229329
0.917647 0.701961 0.031373
0.597925 0.597925 0.597925
0.624500 0.624500 0.624500
0.651075 0.651075 0.651075
0.677650 0.677650 0.677650
0.917647 0.701961 0.031373
0.892813 0.693039 0.071922
0.607600 0.607600 0.607600
0.634175 0.634175 0.634175
0.660750 0.660750 0.660750
0.687325 0.687325 0.687325
0.713900 0.713900 0.713900
0.740475 0.740475 0.740475
0.767050 0.767050 0.767050
0.643850 0.643850 0.643850
0.670425 0.670425 0.670425
0.697000 0.697000 0.697000
0.723575 0.723575 0.723575
0.750150 0.750150 0.750150
0.776725 0.776725 0.776725
0.907970 0.383984 0.383984
0.937255 0.266667 0.266667
0.937255 0.266667 0.266667
0.733250 0.733250 0.733250
0.759825 0.759825 0.759825
0.786400 0.786400 0.786400
0.937255 0.266667 0.266667
0.937255 0.266667 0.266667
0.937255 0.266667 0.266667
0.937255 0.266667 0.266667
0.937255 0.266667 0.266667
0.937255 0.266667 0.266667
0.388235 0.400000 0.945098
0.388235 0.400000 0.945098
0.388235 0.400000 0.945098
0.113529 0.113810 0.126844
0.133375 0.133375 0.133375
0.159950 0.159950 0.159950
0.186525 0.186525 0.186525
0.213100 0.213100 0.213100
0.239675 0.239675 0.239675
0.116475 0.116475 0.116475
0.143050 0.143050 0.143050
0.169625 0.169625 0.169625
0.196200 0.196200 0.196200
0.222775 0.222775 0.222775
0.249350 0.249350 0.249350
0.244541 0.440678 0.761127
0.231780 0.508617 0.960915
0.319696 0.340882 0.344494
0.205875 0.205875 0.205875
0.232450 0.232450 0.232450
0.259025 0.259025 0.259025
0.231373 0.509804 0.964706
0.286567 0.374808 0.518978
0.097587 0.625629 0.715636
0.023529 0.713725 0.831373
0.391900 0.391900 0.391900
0.133333 0.772549 0.368627
0.231373 0.509804 0.964706
0.321850 0.321850 0.321850
0.023529 0.713725 0.831373
0.186425 0.556737 0.619859
0.292447 0.552497 0.388171
0.133333 0.772549 0.368627
0.454725 0.454725 0.454725
0.850980 0.274510 0.937255
0.844979 0.278592 0.929744
0.384675 0.384675 0.384675
0.133333 0.772549 0.368627
0.144899 0.759835 0.371256
0.465106 0.464053 0.465264
0.850980 0.274510 0.937255
0.607547 0.451950 0.630834
0.752081 0.631999 0.258653
0.917647 0.701961 0.031373
0.597275 0.597275 0.597275
0.721107 0.343275 0.777654
0.850980 0.274510 0.937255
0.527225 0.527225 0.527225
0.917647 0.701961 0.031373
0.902637 0.696550 0.055805
0.606950 0.606950 0.606950
0.633525 0.633525 0.633525
0.660100 0.660100 0.660100
0.686675 0.686675 0.686675
0.917647 0.701961 0.031373
0.657695 0.613158 0.474690
0.616625 0.616625 0.616625
0.643200 0.643200 0.643200
0.669775 0.669775 0.669775
0.696350 0.696350 0.696350
0.722925 0.722925 0.722925
0.749500 0.749500 0.749500
0.776075 0.776075 0.776075
0.652875 0.652875 0.652875
0.679450 0.679450 0.679450
0.706025 0.706025 0.706025
0.732600 0.732600 0.732600
0.759175 0.759175 0.759175
0.785750 0.785750 0.785750
0.937255 0.266667 0.266667
0.937255 0.266667 0.266667
0.937255 0.266667 0.266667
0.742275 0.742275 0.742275
0.768850 0.768850 0.768850
0.813824 0.726833 0.726833
0.937255 0.266667 0.266667
0.937255 0.266667 0.266667
0.937255 0.266667 0.266667
0.937255 0.266667 0.266667
0.937255 0.266667 0.266667
0.937255 0.266667 0.266667
0.388235 0.400000 0.945098
0.388235 0.400000 0.945098
0.388235 0.400000 0.945098
0.115825 0.115825 0.115825
0.142400 0.142400 0.142400
0.168975 0.168975 0.168975
0.195550 0.195550 0.195550
0.222125 0.222125 0.222125
0.248700 0.248700 0.248700
0.125500 0.125500 0.125500
0.152075 0.152075 0.152075
0.178650 0.178650 0.178650
0.205225 0.205225 0.205225
0.231800 0.231800 0.231800
0.258375 0.258375 0.258375
0.231373 0.509804 0.964706
0.281645 0.385441 0.555023
0.113801 0.605933 0.689820
0.214900 0.214900 0.214900
0.241475 0.241475 0.241475
0.265304 0.286150 0.320208
0.231373 0.509804 0.964706
0.321200 0.321200 0.321200
0.023529 0.713725 0.831373
0.165776 0.576119 0.646064
0.307282 0.530974 0.389623
0.133333 0.772549 0.368627
0.235932 0.496955 0.923414
0.295030 0.375525 0.389246
0.023529 0.713725 0.831373
0.384025 0.384025 0.384025
0.133700 0.772071 0.368683
0.138618 0.766716 0.369820
0.463750 0.463750 0.463750
0.850980 0.274510 0.937255
0.625084 0.438407 0.653022
0.393700 0.393700 0.393700
0.133333 0.772549 0.368627
0.362131 0.534861 0.425713
0.699464 0.354336 0.751116
0.850980 0.274510 0.937255
0.526575 0.526575 0.526575
0.917647 0.701961 0.031373
0.910203 0.699268 0.043453
0.606300 0.606300 0.606300
0.850980 0.274510 0.937255
0.819826 0.295976 0.898226
0.540955 0.538294 0.530022
0.917647 0.701961 0.031373
0.673648 0.618290 0.446177
0.615975 0.615975 0.615975
0.642550 0.642550 0.642550
0.669125 0.669125 0.669125
0.695700 0.695700 0.695700
0.917647 0.701961 0.031373
0.599075 0.599075 0.599075
0.625650 0.625650 0.625650
0.652225 0.652225 0.652225
0.678800 0.678800 0.678800
0.705375 0.705375 0.705375
0.731950 0.731950 0.731950
0.758525 0.758525 0.758525
0.785100 0.785100 0.785100
0.661900 0.661900 0.661900
0.688475 0.688475 0.688475
0.715050 0.715050 0.715050
0.741625 0.741625 0.741625
0.768200 0.768200 0.768200
0.807809 0.746465 0.746465
0.937255 0.266667 0.266667
0.937255 0.266667 0.266667
0.937255 0.266667 0.266667
0.751300 0.751300 0.751300
0.777875 0.777875 0.777875
0.918971 0.340705 0.340705
0.937255 0.266667 0.266667
0.937255 0.266667 0.266667
0.937255 0.266667 0.266667
0.937255 0.266667 0.266667
0.937255 0.266667 0.266667
0.937255 0.266667 0.266667
0.388235 0.400000 0.945098
0.388235 0.400000 0.945098
0.287613 0.295295 0.651232
0.124850 0.124850 0.124850
0.151425 0.151425 0.151425
0.178000 0.178000 0.178000
0.204575 0.204575 0.204575
0.231150 0.231150 0.231150
0.257725 0.257725 0.257725
0.134525 0.134525 0.134525
0.161100 0.161100 0.161100
0.187675 0.187675 0.187675
0.214250 0.214250 0.214250
0.240825 0.240825 0.240825
0.265765 0.278401 0.299046
0.231373 0.509804 0.964706
0.320550 0.320550 0.320550
0.023529 0.713725 0.831373
0.223925 0.223925 0.223925
0.250500 0.250500 0.250500
0.240735 0.462127 0.823839
0.233947 0.502462 0.941163
0.305636 0.360971 0.370403
0.023529 0.713725 0.831373
0.382857 0.383850 0.384019
0.136213 0.768774 0.369058
0.134696 0.771039 0.368933
0.294959 0.357357 0.459303
0.071494 0.657050 0.756860
0.023529 0.713725 0.831373
0.393050 0.393050 0.393050
0.133333 0.772549 0.368627
0.344784 0.551986 0.421055
0.677290 0.365563 0.723944
0.850980 0.274510 0.937255
0.525925 0.525925 0.525925
0.265389 0.591261 0.385342
0.133333 0.772549 0.368627
0.455875 0.455875 0.455875
0.850980 0.274510 0.937255
0.830879 0.288296 0.912082
0.536396 0.535947 0.534549
0.917647 0.701961 0.031373
0.690677 0.623835 0.416016
0.615325 0.615325 0.615325
0.850980 0.274510 0.937255
0.579196 0.474242 0.594904
0.790248 0.648354 0.207193
0.917647 0.701961 0.031373
0.598425 0.598425 0.598425
0.625000 0.625000 0.625000
0.651575 0.651575 0.651575
0.678150 0.678150 0.678150
0.704725 0.704725 0.704725
0.883878 0.689861 0.086645
0.608100 0.608100 0.608100
0.634675 0.634675 0.634675
0.661250 0.661250 0.661250
0.687825 0.687825 0.687825
0.714400 0.714400 0.714400
0.740975 0.740975 0.740975
0.767550 0.767550 0.767550
0.802562 0.763032 0.763032
0.670925 0.670925 0.670925
0.697500 0.697500 0.697500
0.724075 0.724075 0.724075
0.750650 0.750650 0.750650
0.777225 0.777225 0.777225
0.912992 0.364320 0.364320
0.937255 0.266667 0.266667
0.937255 0.266667 0.266667
0.937255 0.266667 0.266667
0.760325 0.760325 0.760325
0.786900 0.786900 0.786900
0.937255 0.266667 0.266667
0.937255 0.266667 0.266667
0.937255 0.266667 0.266667
0.937255 0.266667 0.266667
0.937255 0.266667 0.266667
0.937255 0.266667 0.266667
0.937255 0.266667 0.266667
0.388235 0.400000 0.945098
0.388235 0.400000 0.945098
0.110422 0.110552 0.116609
0.133875 0.133875 0.133875
0.160450 0.160450 0.160450
0.187025 0.187025 0.187025
0.213600 0.213600 0.213600
0.240175 0.240175 0.240175
0.265948 0.272260 0.282572
0.143550 0.143550 0.143550
0.170125 0.170125 0.170125
0.196700 0.196700 0.196700
0.223275 0.223275 0.223275
0.249850 0.249850 0.249850
0.242857 0.450312 0.789253
0.232501 0.506546 0.954280
0.314374 0.348655 0.354498
0.023529 0.713725 0.831373
0.232950 0.232950 0.232950
0.259525 0.259525 0.259525
0.231373 0.509804 0.964706
0.290279 0.366977 0.492285
0.085783 0.639887 0.734336
0.023529 0.713725 0.831373
0.392400 0.392400 0.392400
0.133333 0.772549 0.368627
0.326827 0.569894 0.416299
0.322350 0.322350 0.322350
0.023529 0.713725 0.831373
0.202479 0.541764 0.599597
0.280768 0.569303 0.386977
0.133333 0.772549 0.368627
0.455225 0.455225 0.455225
0.850980 0.274510 0.937255
0.839771 0.282162 0.923222
0.534950 0.534950 0.534950
0.133333 0.772549 0.368627
0.151209 0.752960 0.372713
0.468259 0.463243 0.469010
0.850980 0.274510 0.937255
0.594748 0.461945 0.614624
0.768890 0.639217 0.236053
0.917647 0.701961 0.031373
0.597775 0.597775 0.597775
0.624350 0.624350 0.624350
0.850980 0.274510 0.937255
0.527725 0.527725 0.527725
0.917647 0.701961 0.031373
0.895268 0.693914 0.067888
0.607450 0.607450 0.607450
0.634025 0.634025 0.634025
0.660600 0.660600 0.660600
0.687175 0.687175 0.687175
0.713750 0.713750 0.713750
0.646298 0.609538 0.495248
0.617125 0.617125 0.617125
0.643700 0.643700 0.643700
0.670275 0.670275 0.670275
0.696850 0.696850 0.696850
0.723425 0.723425 0.723425
0.750000 0.750000 0.750000
0.776575 0.776575 0.776575
0.906398 0.390107 0.390107
0.679950 0.679950 0.679950
0.706525 0.706525 0.706525
0.733100 0.733100 0.733100
0.759675 0.759675 0.759675
0.786250 0.786250 0.786250
0.937255 0.266667 0.266667
0.937255 0.266667 0.266667
0.937255 0.266667 0.266667
0.937255 0.266667 0.266667
0.769350 0.769350 0.769350
0.818903 0.709875 0.709875
0.937255 0.266667 0.266667
0.937255 0.266667 0.266667
0.937255 0.266667 0.266667
0.937255 0.266667 0.266667
0.937255 0.266667 0.266667
0.937255 0.266667 0.266667
0.937255 0.266667 0.266667
0.388235 0.400000 0.945098
0.388235 0.400000 0.945098
0.116325 0.116325 0.116325
0.142900 0.142900 0.142900
0.169475 0.169475 0.169475
0.196050 0.196050 0.196050
0.222625 0.222625 0.222625
0.249200 0.249200 0.249200
0.245052 0.437707 0.752468
0.152575 0.152575 0.152575
0.179150 0.179150 0.179150
0.205725 0.205725 0.205725
0.232300 0.232300 0.232300
0.258875 0.258875 0.258875
0.231373 0.509804 0.964706
0.285439 0.377221 0.527175
0.101248 0.621193 0.709820
0.023529 0.713725 0.831373
0.241975 0.241975 0.241975
0.264769 0.293089 0.339359
0.231373 0.509804 0.964706
0.321700 0.321700 0.321700
0.023529 0.713725 0.831373
0.181630 0.561226 0.625929
0.295911 0.547489 0.388517
0.133333 0.772549 0.368627
0.454575 0.454575 0.454575
0.285731 0.388066 0.405509
0.023529 0.713725 0.831373
0.384525 0.384525 0.384525
0.133333 0.772549 0.368627
0.143251 0.761637 0.370877
0.464540 0.464108 0.464604
0.850980 0.274510 0.937255
0.611511 0.448875 0.635851
0.746994 0.629810 0.265473
0.133333 0.772549 0.368627
0.374917 0.522363 0.429191
0.716174 0.345806 0.771603
0.850980 0.274510 0.937255
0.527075 0.527075 0.527075
0.917647 0.701961 0.031373
0.904593 0.697251 0.052606
0.606800 0.606800 0.606800
0.633375 0.633375 0.633375
0.810014 0.302838 0.885918
0.546521 0.540988 0.523786
0.917647 0.701961 0.031373
0.661269 0.614302 0.468278
0.616475 0.616475 0.616475
0.643050 0.643050 0.643050
0.669625 0.669625 0.669625
0.696200 0.696200 0.696200
0.722775 0.722775 0.722775
0.599575 0.599575 0.599575
0.626150 0.626150 0.626150
0.652725 0.652725 0.652725
0.679300 0.679300 0.679300
0.705875 0.705875 0.705875
0.732450 0.732450 0.732450
0.759025 0.759025 0.759025
0.785600 0.785600 0.785600
0.937255 0.266667 0.266667
0.688975 0.688975 0.688975
0.715550 0.715550 0.715550
0.742125 0.742125 0.742125
0.768700 0.768700 0.768700
0.812373 0.731616 0.731616
0.937255 0.266667 0.266667
0.937255 0.266667 0.266667
0.937255 0.266667 0.266667
0.937255 0.266667 0.266667
0.778375 0.778375 0.778375
0.923098 0.324264 0.324264
0.937255 0.266667 0.266667
0.937255 0.266667 0.266667
0.937255 0.266667 0.266667
0.937255 0.266667 0.266667
0.937255 0.266667 0.266667
0.937255 0.266667 0.266667
0.937255 0.266667 0.266667
0.388235 0.400000 0.945098
0.275177 0.282346 0.614538
0.125350 0.125350 0.125350
0.151925 0.151925 0.151925
0.178500 0.178500 0.178500
0.205075 0.205075 0.205075
0.231650 0.231650 0.231650
0.258225 0.258225 0.258225
0.231373 0.509804 0.964706
0.161600 0.161600 0.161600
0.188175 0.188175 0.188175
0.214750 0.214750 0.214750
0.241325 0.241325 0.241325
0.265434 0.284229 0.314935
0.231373 0.509804 0.964706
0.321050 0.321050 0.321050
0.023529 0.713725 0.831373
0.161070 0.580556 0.652059
0.251000 0.251000 0.251000
0.239177 0.470578 0.848643
0.235428 0.498344 0.927896
0.297633 0.371983 0.384656
0.023529 0.713725 0.831373
0.383875 0.383875 0.383875
0.134073 0.771582 0.368739
0.137496 0.767950 0.369565
0.463600 0.463600 0.463600
0.061451 0.669048 0.772616
0.023529 0.713725 0.831373
0.393550 0.393550 0.393550
0.133333 0.772549 0.368627
0.358194 0.538731 0.424650
0.694384 0.356917 0.744890
0.850980 0.274510 0.937255
0.526425 0.526425 0.526425
0.917647 0.701961 0.031373
0.133333 0.772549 0.368627
0.456375 0.456375 0.456375
0.850980 0.274510 0.937255
0.822555 0.294074 0.901648
0.539626 0.537633 0.531436
0.917647 0.701961 0.031373
0.677490 0.619535 0.439349
0.615825 0.615825 0.615825
0.642400 0.642400 0.642400
0.568201 0.483061 0.580943
0.806149 0.655132 0.185606
0.917647 0.701961 0.031373
0.598925 0.598925 0.598925
0.625500 0.625500 0.625500
0.652075 0.652075 0.652075
0.678650 0.678650 0.678650
0.705225 0.705225 0.705225
0.731800 0.731800 0.731800
0.608600 0.608600 0.608600
0.635175 0.635175 0.635175
0.661750 0.661750 0.661750
0.688325 0.688325 0.688325
0.714900 0.714900 0.714900
0.741475 0.741475 0.741475
0.768050 0.768050 0.768050
0.806526 0.750573 0.750573
0.937255 0.266667 0.266667
0.698000 0.698000 0.698000
0.724575 0.724575 0.724575
0.751150 0.751150 0.751150
0.777725 0.777725 0.777725
0.917650 0.345942 0.345942
0.937255 0.266667 0.266667
0.937255 0.266667 0.266667
0.937255 0.266667 0.266667
0.937255 0.266667 0.266667
0.787400 0.787400 0.787400
0.937255 0.266667 0.266667
0.937255 0.266667 0.266667
0.937255 0.266667 0.266667
0.937255 0.266667 0.266667
0.937255 0.266667 0.266667
0.937255 0.266667 0.266667
0.937255 0.266667 0.266667
0.937255 0.266667 0.266667
