luts/FalseColor_vlog.cube
# False Color Exposure Monitor LUT
# Profile  : Panasonic V-Log L
# Cameras  : GH5, GH6, S5, S5II, S1, BGH1, AU-EVA1
# Generator: false_color_generator.py
#
# Zone Reference:
#   #ef4444     white_clip      log 0.800 - 1.010
#   #eab308     +2 stops        log 0.543 - 0.587
#   #d946ef     +1 stops        log 0.472 - 0.515
#   #22c55e     +0 stops        log 0.403 - 0.444
#   #06b6d4     -1 stops        log 0.336 - 0.375
#   #3b82f6     -2 stops        log 0.274 - 0.310
#   #6366f1     black_clip      log 0.000 - 0.100
#   Grayscale   = between zones / untagged
#
TITLE "FalseColor Panasonic V-Log L"
LUT_3D_SIZE 33
DOMAIN_MIN 0.0 0.0 0.0
DOMAIN_MAX 1.0 1.0 1.0
0.194118 0.200000 0.472549
0.377235 0.388661 0.918045
0.388235 0.400000 0.945098
0.388235 0.400000 0.945098
0.388235 0.400000 0.945098
0.388235 0.400000 0.945098
0.388235 0.400000 0.945098
0.388235 0.400000 0.945098
0.388235 0.400000 0.945098
0.388235 0.400000 0.945098
0.388235 0.400000 0.945098
0.388235 0.400000 0.945098
0.388235 0.400000 0.945098
0.388235 0.400000 0.945098
0.382751 0.394297 0.929268
0.252865 0.259111 0.548509
0.117890 0.118374 0.140783
0.112944 0.112944 0.112944
0.119588 0.119588 0.119588
0.126231 0.126231 0.126231
0.132875 0.132875 0.132875
0.139519 0.139519 0.139519
0.146163 0.146163 0.146163
0.152806 0.152806 0.152806
0.159450 0.159450 0.159450
0.166094 0.166094 0.166094
0.172738 0.172738 0.172738
0.179381 0.179381 0.179381
0.186025 0.186025 0.186025
0.192669 0.192669 0.192669
0.199313 0.199313 0.199313
0.205956 0.205956 0.205956
0.212600 0.212600 0.212600
0.388235 0.400000 0.945098
0.388235 0.400000 0.945098
0.388235 0.400000 0.945098
0.388235 0.400000 0.945098
0.388235 0.400000 0.945098
0.388235 0.400000 0.945098
0.388235 0.400000 0.945098
0.388235 0.400000 0.945098
0.388235 0.400000 0.945098
0.388235 0.400000 0.945098
0.388235 0.400000 0.945098
0.350137 0.360371 0.834542
0.192838 0.196569 0.369460
0.108719 0.108719 0.108719
0.115362 0.115362 0.115362
0.122006 0.122006 0.122006
0.128650 0.128650 0.128650
0.135294 0.135294 0.135294
0.141938 0.141938 0.141938
0.148581 0.148581 0.148581
0.155225 0.155225 0.155225
0.161869 0.161869 0.161869
0.168513 0.168513 0.168513
0.175156 0.175156 0.175156
0.181800 0.181800 0.181800
0.188444 0.188444 0.188444
0.195088 0.195088 0.195088
0.201731 0.201731 0.201731
0.208375 0.208375 0.208375
0.215019 0.215019 0.215019
0.221663 0.221663 0.221663
0.228306 0.228306 0.228306
0.234950 0.234950 0.234950
0.388235 0.400000 0.945098
0.388235 0.400000 0.945098
0.388235 0.400000 0.945098
0.388235 0.400000 0.945098
0.388235 0.400000 0.945098
0.388235 0.400000 0.945098
0.388235 0.400000 0.945098
0.388235 0.400000 0.945098
0.297966 0.306074 0.681723
0.142762 0.144349 0.217866
0.111138 0.111138 0.111138
0.117781 0.117781 0.117781
0.124425 0.124425 0.124425
0.131069 0.131069 0.131069
0.137712 0.137712 0.137712
0.144356 0.144356 0.144356
0.151000 0.151000 0.151000
0.157644 0.157644 0.157644
0.164288 0.164288 0.164288
0.170931 0.170931 0.170931
0.177575 0.177575 0.177575
0.184219 0.184219 0.184219
0.190862 0.190862 0.190862
0.197506 0.197506 0.197506
0.204150 0.204150 0.204150
0.210794 0.210794 0.210794
0.217438 0.217438 0.217438
0.224081 0.224081 0.224081
0.230725 0.230725 0.230725
0.237369 0.237369 0.237369
0.244012 0.244012 0.244012
0.250656 0.250656 0.250656
0.257300 0.257300 0.257300
0.388235 0.400000 0.945098
0.388235 0.400000 0.945098
0.388235 0.400000 0.945098
0.388235 0.400000 0.945098
0.376963 0.388277 0.912519
0.237292 0.242890 0.502264
0.112718 0.112960 0.124209
0.113556 0.113556 0.113556
0.120200 0.120200 0.120200
0.126844 0.126844 0.126844
0.133488 0.133488 0.133488
0.140131 0.140131 0.140131
0.146775 0.146775 0.146775
0.153419 0.153419 0.153419
0.160062 0.160062 0.160062
0.166706 0.166706 0.166706
0.173350 0.173350 0.173350
0.179994 0.179994 0.179994
0.186638 0.186638 0.186638
0.193281 0.193281 0.193281
0.199925 0.199925 0.199925
0.206569 0.206569 0.206569
0.213212 0.213212 0.213212
0.219856 0.219856 0.219856
0.226500 0.226500 0.226500
0.233144 0.233144 0.233144
0.239788 0.239788 0.239788
0.246431 0.246431 0.246431
0.253075 0.253075 0.253075
0.259719 0.259719 0.259719
0.265920 0.269441 0.275192
0.254379 0.378953 0.582482
0.233830 0.498087 0.929831
0.388235 0.400000 0.945098
0.338332 0.348087 0.800088
0.178812 0.181948 0.327266
0.109331 0.109331 0.109331
0.115975 0.115975 0.115975
0.122619 0.122619 0.122619
0.129263 0.129263 0.129263
0.135906 0.135906 0.135906
0.142550 0.142550 0.142550
0.149194 0.149194 0.149194
0.155838 0.155838 0.155838
0.162481 0.162481 0.162481
0.169125 0.169125 0.169125
0.175769 0.175769 0.175769
0.182412 0.182412 0.182412
0.189056 0.189056 0.189056
0.195700 0.195700 0.195700
0.202344 0.202344 0.202344
0.208987 0.208987 0.208987
0.215631 0.215631 0.215631
0.222275 0.222275 0.222275
0.228919 0.228919 0.228919
0.235563 0.235563 0.235563
0.242206 0.242206 0.242206
0.248850 0.248850 0.248850
0.255494 0.255494 0.255494
0.262138 0.262138 0.262138
0.264470 0.296560 0.348988
0.246250 0.430648 0.731918
0.231373 0.509804 0.964706
0.231373 0.509804 0.964706
0.231373 0.509804 0.964706
0.231416 0.509677 0.964300
0.111750 0.111750 0.111750
0.118394 0.118394 0.118394
0.125037 0.125037 0.125037
0.131681 0.131681 0.131681
0.138325 0.138325 0.138325
0.144969 0.144969 0.144969
0.151612 0.151612 0.151612
0.158256 0.158256 0.158256
0.164900 0.164900 0.164900
0.171544 0.171544 0.171544
0.178187 0.178187 0.178187
0.184831 0.184831 0.184831
0.191475 0.191475 0.191475
0.198119 0.198119 0.198119
0.204762 0.204762 0.204762
0.211406 0.211406 0.211406
0.218050 0.218050 0.218050
0.224694 0.224694 0.224694
0.231338 0.231338 0.231338
0.237981 0.237981 0.237981
0.244625 0.244625 0.244625
0.251269 0.251269 0.251269
0.257912 0.257912 0.257912
0.264556 0.264556 0.264556
0.259621 0.340569 0.472821
0.238373 0.474863 0.861242
0.231373 0.509804 0.964706
0.231373 0.509804 0.964706
0.231373 0.509804 0.964706
0.236350 0.495807 0.919709
0.278108 0.393248 0.581363
0.317228 0.318771 0.321291
0.324350 0.324350 0.324350
0.134100 0.134100 0.134100
0.140744 0.140744 0.140744
0.147388 0.147388 0.147388
0.154031 0.154031 0.154031
0.160675 0.160675 0.160675
0.167319 0.167319 0.167319
0.173962 0.173962 0.173962
0.180606 0.180606 0.180606
0.187250 0.187250 0.187250
0.193894 0.193894 0.193894
0.200538 0.200538 0.200538
0.207181 0.207181 0.207181
0.213825 0.213825 0.213825
0.220469 0.220469 0.220469
0.227112 0.227112 0.227112
0.233756 0.233756 0.233756
0.240400 0.240400 0.240400
0.247044 0.247044 0.247044
0.253688 0.253688 0.253688
0.260331 0.260331 0.260331
0.265917 0.274192 0.287712
0.252393 0.392286 0.620842
0.232739 0.503389 0.945578
0.231373 0.509804 0.964706
0.231373 0.509804 0.964706
0.231373 0.509804 0.964706
0.248103 0.464808 0.818861
0.296053 0.355152 0.451709
0.320125 0.320125 0.320125
0.326769 0.326769 0.326769
0.239680 0.448449 0.484034
0.068261 0.660919 0.761940
0.023529 0.713725 0.831373
0.156450 0.156450 0.156450
0.163094 0.163094 0.163094
0.169737 0.169737 0.169737
0.176381 0.176381 0.176381
0.183025 0.183025 0.183025
0.189669 0.189669 0.189669
0.196312 0.196312 0.196312
0.202956 0.202956 0.202956
0.209600 0.209600 0.209600
0.216244 0.216244 0.216244
0.222887 0.222887 0.222887
0.229531 0.229531 0.229531
0.236175 0.236175 0.236175
0.242819 0.242819 0.242819
0.249462 0.249462 0.249462
0.256106 0.256106 0.256106
0.262750 0.262750 0.262750
0.263529 0.306476 0.376643
0.244159 0.442882 0.767557
0.231373 0.509804 0.964706
0.231373 0.509804 0.964706
0.231373 0.509804 0.964706
0.231911 0.508237 0.959697
0.264443 0.424649 0.686393
0.310638 0.327971 0.356288
0.322544 0.322544 0.322544
0.318610 0.342494 0.346565
0.174944 0.530510 0.591118
0.031037 0.704986 0.819864
0.023529 0.713725 0.831373
0.023529 0.713725 0.831373
0.023529 0.713725 0.831373
0.036991 0.700297 0.813360
0.178800 0.178800 0.178800
0.185444 0.185444 0.185444
0.192087 0.192087 0.192087
0.198731 0.198731 0.198731
0.205375 0.205375 0.205375
0.212019 0.212019 0.212019
0.218662 0.218662 0.218662
0.225306 0.225306 0.225306
0.231950 0.231950 0.231950
0.238594 0.238594 0.238594
0.245237 0.245237 0.245237
0.251881 0.251881 0.251881
0.258525 0.258525 0.258525
0.265169 0.265169 0.265169
0.257968 0.353291 0.509031
0.236647 0.483887 0.887827
0.231373 0.509804 0.964706
0.231373 0.509804 0.964706
0.231373 0.509804 0.964706
0.238764 0.489256 0.898511
0.282788 0.382948 0.546591
0.318306 0.318346 0.318410
0.324962 0.324962 0.324962
0.281124 0.394221 0.413499
0.109983 0.610583 0.695913
0.023529 0.713725 0.831373
0.023529 0.713725 0.831373
0.023529 0.713725 0.831373
0.023529 0.713725 0.831373
0.083406 0.654827 0.752228
0.284116 0.467081 0.498268
0.384756 0.384756 0.384756
0.391400 0.391400 0.391400
0.201150 0.201150 0.201150
0.207794 0.207794 0.207794
0.214438 0.214438 0.214438
0.221081 0.221081 0.221081
0.227725 0.227725 0.227725
0.234369 0.234369 0.234369
0.241012 0.241012 0.241012
0.247656 0.247656 0.247656
0.254300 0.254300 0.254300
0.260944 0.260944 0.260944
0.265660 0.280479 0.304691
0.250341 0.405545 0.659118
0.231940 0.507179 0.956866
0.231373 0.509804 0.964706
0.231373 0.509804 0.964706
0.231373 0.509804 0.964706
0.251903 0.455197 0.787340
0.300198 0.346969 0.423382
0.320738 0.320738 0.320738
0.327371 0.327394 0.327398
0.223935 0.468652 0.510365
0.056434 0.675019 0.780460
0.023529 0.713725 0.831373
0.023529 0.713725 0.831373
0.023529 0.713725 0.831373
0.023641 0.713613 0.831222
0.151362 0.589731 0.664453
0.345896 0.412856 0.424270
0.387175 0.387175 0.387175
0.393819 0.393819 0.393819
0.317503 0.516018 0.390576
0.170320 0.723178 0.373826
0.133333 0.772549 0.368627
0.223500 0.223500 0.223500
0.230144 0.230144 0.230144
0.236787 0.236787 0.236787
0.243431 0.243431 0.243431
0.250075 0.250075 0.250075
0.256719 0.256719 0.256719
0.263362 0.263362 0.263362
0.262383 0.317322 0.407082
0.242112 0.454500 0.801499
0.231373 0.509804 0.964706
0.231373 0.509804 0.964706
0.231373 0.509804 0.964706
0.232938 0.505303 0.950294
0.269009 0.413942 0.650733
0.313382 0.323619 0.340343
0.323156 0.323156 0.323156
0.311574 0.352647 0.359648
0.158061 0.551520 0.618587
0.026291 0.710523 0.827154
0.023529 0.713725 0.831373
0.023529 0.713725 0.831373
0.023529 0.713725 0.831373
0.046033 0.691356 0.801354
0.228367 0.517805 0.567141
0.380589 0.385123 0.385895
0.389594 0.389594 0.389594
0.386213 0.410586 0.395185
0.261679 0.596532 0.384937
0.139060 0.765022 0.369475
0.133333 0.772549 0.368627
0.133333 0.772549 0.368627
0.133333 0.772549 0.368627
0.133503 0.772360 0.368665
0.245850 0.245850 0.245850
0.252494 0.252494 0.252494
0.259137 0.259137 0.259137
0.265681 0.266494 0.267824
0.256180 0.366360 0.546373
0.235100 0.491772 0.911125
0.231373 0.509804 0.964706
0.231373 0.509804 0.964706
0.231373 0.509804 0.964706
0.241582 0.481740 0.874110
0.287409 0.373017 0.512884
0.318931 0.318931 0.318931
0.325575 0.325575 0.325575
0.268076 0.411492 0.435938
0.094876 0.628910 0.719939
0.023529 0.713725 0.831373
0.023529 0.713725 0.831373
0.023529 0.713725 0.831373
0.023529 0.713725 0.831373
0.099065 0.639687 0.731838
0.301574 0.451489 0.477043
0.385369 0.385369 0.385369
0.392012 0.392012 0.392012
0.353408 0.462420 0.393535
0.205915 0.674538 0.378415
0.133333 0.772549 0.368627
0.133333 0.772549 0.368627
0.133333 0.772549 0.368627
0.133333 0.772549 0.368627
0.153978 0.749953 0.373355
0.315924 0.580849 0.413442
0.449991 0.453634 0.451332
0.458450 0.458450 0.458450
0.265159 0.288147 0.325704
0.248248 0.418591 0.696897
0.231476 0.509334 0.963300
0.231373 0.509804 0.964706
0.231373 0.509804 0.964706
0.231373 0.509804 0.964706
0.255959 0.445127 0.754191
0.304075 0.339597 0.397633
0.321350 0.321350 0.321350
0.326569 0.329799 0.330350
0.207632 0.489395 0.537423
0.046106 0.687263 0.796551
0.023529 0.713725 0.831373
0.023529 0.713725 0.831373
0.023529 0.713725 0.831373
0.025754 0.711490 0.828377
0.170508 0.571666 0.640045
0.357783 0.402870 0.410555
0.387788 0.387788 0.387788
0.394367 0.394524 0.394425
0.303902 0.535896 0.389299
0.160294 0.736701 0.372469
0.133333 0.772549 0.368627
0.133333 0.772549 0.368627
0.133333 0.772549 0.368627
0.133333 0.772549 0.368627
0.201283 0.699296 0.384601
0.380633 0.516813 0.430761
0.454225 0.454225 0.454225
0.460869 0.460869 0.460869
0.511740 0.445252 0.521691
0.723762 0.341912 0.780910
0.850980 0.274510 0.937255
0.231373 0.509804 0.964706
0.231373 0.509804 0.964706
0.234466 0.501012 0.936497
0.273659 0.403258 0.614996
0.315624 0.320499 0.328464
0.323769 0.323769 0.323769
0.302760 0.364952 0.375554
0.141350 0.572177 0.645614
0.023835 0.713373 0.830908
0.023529 0.713725 0.831373
0.023529 0.713725 0.831373
0.023529 0.713725 0.831373
0.057043 0.680531 0.786807
0.247779 0.499998 0.542990
0.383437 0.383677 0.383718
0.390206 0.390206 0.390206
0.379992 0.420884 0.395045
0.247160 0.617055 0.383318
0.135253 0.770036 0.368915
0.133333 0.772549 0.368627
0.133333 0.772549 0.368627
0.133333 0.772549 0.368627
0.135574 0.770069 0.369130
0.264686 0.633075 0.400289
0.430134 0.470235 0.444895
0.456644 0.456644 0.456644
0.463287 0.463287 0.463287
0.580757 0.413094 0.605849
0.794618 0.304929 0.867904
0.850980 0.274510 0.937255
0.850980 0.274510 0.937255
0.850980 0.274510 0.937255
0.850980 0.274510 0.937255
0.291921 0.363569 0.480629
0.319544 0.319544 0.319544
0.326187 0.326187 0.326187
0.253940 0.429984 0.459991
0.080692 0.646014 0.742376
0.023529 0.713725 0.831373
0.023529 0.713725 0.831373
0.023529 0.713725 0.831373
0.023529 0.713725 0.831373
0.115906 0.623500 0.710022
0.317944 0.437035 0.457334
0.385981 0.385981 0.385981
0.392625 0.392625 0.392625
0.342083 0.479538 0.392680
0.192998 0.692297 0.376789
0.133333 0.772549 0.368627
0.133333 0.772549 0.368627
0.133333 0.772549 0.368627
0.133333 0.772549 0.368627
0.163838 0.739289 0.375661
0.333098 0.563621 0.417953
0.452365 0.452473 0.452405
0.459062 0.459062 0.459062
0.477175 0.460015 0.479743
0.662633 0.372924 0.705991
0.840601 0.280215 0.924469
0.850980 0.274510 0.937255
0.850980 0.274510 0.937255
0.850980 0.274510 0.937255
0.850980 0.274510 0.937255
0.760768 0.337809 0.824067
0.575664 0.477062 0.590421
0.525500 0.525500 0.525500
0.190953 0.510449 0.564908
0.037476 0.697437 0.809930
0.023529 0.713725 0.831373
0.023529 0.713725 0.831373
0.023529 0.713725 0.831373
0.030405 0.706843 0.822145
0.190029 0.553368 0.615301
0.367711 0.394772 0.399384
0.388400 0.388400 0.388400
0.393445 0.397350 0.394882
0.289836 0.556265 0.387908
0.151587 0.748373 0.371263
0.133333 0.772549 0.368627
0.133333 0.772549 0.368627
0.133333 0.772549 0.368627
0.133333 0.772549 0.368627
0.216249 0.683505 0.388245
0.395077 0.502912 0.434771
0.454838 0.454838 0.454838
0.461481 0.461481 0.461481
0.527215 0.438243 0.540530
0.743324 0.331816 0.804910
0.850980 0.274510 0.937255
0.850980 0.274510 0.937255
0.850980 0.274510 0.937255
0.850980 0.274510 0.937255
0.843938 0.279304 0.928441
0.691046 0.388688 0.736296
0.533935 0.511800 0.537248
0.527919 0.527919 0.527919
0.534563 0.534563 0.534563
0.653921 0.589340 0.388551
0.864503 0.679813 0.105596
0.023529 0.713725 0.831373
0.023529 0.713725 0.831373
0.069822 0.668036 0.770004
0.266738 0.482751 0.519571
0.384175 0.384175 0.384175
0.390819 0.390819 0.390819
0.372261 0.433251 0.394711
0.232805 0.637198 0.381661
0.133455 0.772390 0.368646
0.133333 0.772549 0.368627
0.133333 0.772549 0.368627
0.133333 0.772549 0.368627
0.139865 0.765346 0.370104
0.281982 0.615313 0.404681
0.438827 0.462571 0.447567
0.457256 0.457256 0.457256
0.463900 0.463900 0.463900
0.600835 0.403406 0.630382
0.809136 0.297199 0.885753
0.850980 0.274510 0.937255
0.850980 0.274510 0.937255
0.850980 0.274510 0.937255
0.850980 0.274510 0.937255
0.805126 0.306270 0.879785
0.620958 0.441580 0.647803
0.523694 0.523694 0.523694
0.530338 0.530338 0.530338
0.549660 0.542476 0.520141
0.735075 0.624672 0.281419
0.908592 0.698222 0.044162
0.917647 0.701961 0.031373
0.917647 0.701961 0.031373
0.917647 0.701961 0.031373
0.333008 0.423909 0.439404
0.386594 0.386594 0.386594
0.393237 0.393237 0.393237
0.329837 0.497812 0.391668
0.180896 0.708824 0.375225
0.133333 0.772549 0.368627
0.133333 0.772549 0.368627
0.133333 0.772549 0.368627
0.133333 0.772549 0.368627
0.175248 0.727023 0.378356
0.349861 0.546956 0.422411
0.453031 0.453031 0.453031
0.459675 0.459675 0.459675
0.486816 0.456098 0.491413
0.683725 0.362316 0.731828
0.846733 0.276855 0.932021
0.850980 0.274510 0.937255
0.850980 0.274510 0.937255
0.850980 0.274510 0.937255
0.850980 0.274510 0.937255
0.743830 0.350024 0.802767
0.562680 0.487539 0.573925
0.526112 0.526112 0.526112
0.532756 0.532756 0.532756
0.600430 0.565629 0.457430
0.814459 0.658665 0.174289
0.917647 0.701961 0.031373
0.917647 0.701961 0.031373
0.917647 0.701961 0.031373
0.917647 0.701961 0.031373
0.914070 0.700664 0.037164
0.772097 0.651042 0.274672
0.610461 0.598578 0.561632
0.275461 0.576901 0.386421
0.144371 0.757987 0.370242
0.133333 0.772549 0.368627
0.133333 0.772549 0.368627
0.133333 0.772549 0.368627
0.133333 0.772549 0.368627
0.232070 0.666920 0.392138
0.408353 0.490320 0.438525
0.455450 0.455450 0.455450
0.462094 0.462094 0.462094
0.544199 0.430393 0.561232
0.761929 0.322135 0.827748
0.850980 0.274510 0.937255
0.850980 0.274510 0.937255
0.850980 0.274510 0.937255
0.850980 0.274510 0.937255
0.836953 0.284100 0.919693
0.672845 0.402239 0.713344
0.528033 0.517268 0.529645
0.528531 0.528531 0.528531
0.535176 0.535176 0.535173
0.673882 0.598091 0.362452
0.878560 0.685709 0.086119
0.917647 0.701961 0.031373
0.917647 0.701961 0.031373
0.917647 0.701961 0.031373
0.917647 0.701961 0.031373
0.880860 0.688791 0.091629
0.702285 0.627648 0.395595
0.594969 0.594969 0.594969
0.601612 0.601612 0.601612
0.608256 0.608256 0.608256
0.614900 0.614900 0.614900
0.133333 0.772549 0.368627
0.133333 0.772549 0.368627
0.146211 0.758403 0.371558
0.299417 0.597543 0.409157
0.445572 0.456939 0.449756
0.457869 0.457869 0.457869
0.465648 0.463954 0.465901
0.621506 0.393315 0.655657
0.821844 0.290382 0.901382
0.850980 0.274510 0.937255
0.850980 0.274510 0.937255
0.850980 0.274510 0.937255
0.850980 0.274510 0.937255
0.791219 0.316086 0.862327
0.604610 0.454235 0.627116
0.524306 0.524306 0.524306
0.530950 0.530950 0.530950
0.559581 0.547103 0.508308
0.755884 0.633634 0.253548
0.914223 0.700550 0.036223
0.917647 0.701961 0.031373
0.917647 0.701961 0.031373
0.917647 0.701961 0.031373
0.917647 0.701961 0.031373
0.823334 0.668635 0.187660
0.642111 0.608220 0.502848
0.597387 0.597387 0.597387
0.604031 0.604031 0.604031
0.610675 0.610675 0.610675
0.617319 0.617319 0.617319
0.623962 0.623962 0.623962
0.630606 0.630606 0.630606
0.637250 0.637250 0.637250
0.366024 0.531044 0.426767
0.453644 0.453644 0.453644
0.460287 0.460287 0.460287
0.498667 0.451031 0.505796
0.704515 0.351764 0.757308
0.850222 0.274931 0.936320
0.850980 0.274510 0.937255
0.850980 0.274510 0.937255
0.850980 0.274510 0.937255
0.850792 0.274637 0.937019
0.726273 0.362783 0.780673
0.551213 0.496977 0.559330
0.526725 0.526725 0.526725
0.533369 0.533369 0.533369
0.617450 0.573221 0.435711
0.832662 0.666384 0.149412
0.917647 0.701961 0.031373
0.917647 0.701961 0.031373
0.917647 0.701961 0.031373
0.917647 0.701961 0.031373
0.908671 0.698716 0.045949
0.754165 0.644966 0.305455
0.603274 0.596553 0.575655
0.599806 0.599806 0.599806
0.606450 0.606450 0.606450
0.613094 0.613094 0.613094
0.619737 0.619737 0.619737
0.626381 0.626381 0.626381
0.633025 0.633025 0.633025
0.639669 0.639669 0.639669
0.646312 0.646312 0.646312
0.652956 0.652956 0.652956
0.659600 0.659600 0.659600
0.562460 0.421813 0.583509
0.779360 0.312992 0.849156
0.850980 0.274510 0.937255
0.850980 0.274510 0.937255
0.850980 0.274510 0.937255
0.850980 0.274510 0.937255
0.827901 0.290359 0.908350
0.654822 0.415777 0.690598
0.524384 0.521078 0.524879
0.529144 0.529144 0.529144
0.537386 0.536483 0.533676
0.694389 0.607039 0.335459
0.890792 0.690821 0.069094
0.917647 0.701961 0.031373
0.917647 0.701961 0.031373
0.917647 0.701961 0.031373
0.917647 0.701961 0.031373
0.868085 0.684275 0.112793
0.685668 0.622197 0.424862
0.595581 0.595581 0.595581
0.602225 0.602225 0.602225
0.608869 0.608869 0.608869
0.615513 0.615513 0.615513
0.622156 0.622156 0.622156
0.628800 0.628800 0.628800
0.635444 0.635444 0.635444
0.642088 0.642088 0.642088
0.648731 0.648731 0.648731
0.655375 0.655375 0.655375
0.662019 0.662019 0.662019
0.668662 0.668662 0.668662
0.675306 0.675306 0.675306
0.681950 0.681950 0.681950
0.850980 0.274510 0.937255
0.850980 0.274510 0.937255
0.850980 0.274510 0.937255
0.776081 0.326846 0.843313
0.589216 0.466298 0.607612
0.524919 0.524919 0.524919
0.531562 0.531562 0.531562
0.571645 0.552637 0.493540
0.776357 0.642416 0.225980
0.917208 0.701780 0.031997
0.917647 0.701961 0.031373
0.917647 0.701961 0.031373
0.917647 0.701961 0.031373
0.917647 0.701961 0.031373
0.806427 0.662793 0.216221
0.629805 0.604389 0.525370
0.598000 0.598000 0.598000
0.604644 0.604644 0.604644
0.611287 0.611287 0.611287
0.617931 0.617931 0.617931
0.624575 0.624575 0.624575
0.631219 0.631219 0.631219
0.637862 0.637862 0.637862
0.644506 0.644506 0.644506
0.651150 0.651150 0.651150
0.657794 0.657794 0.657794
0.664438 0.664438 0.664438
0.671081 0.671081 0.671081
0.677725 0.677725 0.677725
0.684369 0.684369 0.684369
0.691013 0.691013 0.691013
0.697656 0.697656 0.697656
0.704300 0.704300 0.704300
0.708301 0.375948 0.758041
0.541451 0.505222 0.546874
0.527338 0.527338 0.527338
0.533981 0.533981 0.533981
0.635691 0.581306 0.412217
0.849667 0.673568 0.126061
0.917647 0.701961 0.031373
0.917647 0.701961 0.031373
0.917647 0.701961 0.031373
0.917647 0.701961 0.031373
0.901092 0.695996 0.058335
0.736277 0.638948 0.336344
0.598185 0.595248 0.586117
0.600419 0.600419 0.600419
0.607063 0.607063 0.607063
0.613706 0.613706 0.613706
0.620350 0.620350 0.620350
0.626994 0.626994 0.626994
0.633638 0.633638 0.633638
0.640281 0.640281 0.640281
0.646925 0.646925 0.646925
0.653569 0.653569 0.653569
0.660212 0.660212 0.660212
0.666856 0.666856 0.666856
0.673500 0.673500 0.673500
0.680144 0.680144 0.680144
0.686787 0.686787 0.686787
0.693431 0.693431 0.693431
0.700075 0.700075 0.700075
0.706719 0.706719 0.706719
0.713363 0.713363 0.713363
0.720006 0.720006 0.720006
0.726650 0.726650 0.726650
0.542444 0.539025 0.528393
0.715217 0.616084 0.307872
0.900988 0.695067 0.054839
0.917647 0.701961 0.031373
0.917647 0.701961 0.031373
0.917647 0.701961 0.031373
0.917647 0.701961 0.031373
0.853961 0.679310 0.136305
0.669862 0.617066 0.452918
0.596194 0.596194 0.596194
0.602838 0.602838 0.602838
0.609481 0.609481 0.609481
0.616125 0.616125 0.616125
0.622769 0.622769 0.622769
0.629412 0.629412 0.629412
0.636056 0.636056 0.636056
0.642700 0.642700 0.642700
0.649344 0.649344 0.649344
0.655987 0.655987 0.655987
0.662631 0.662631 0.662631
0.669275 0.669275 0.669275
0.675919 0.675919 0.675919
0.682562 0.682562 0.682562
0.689206 0.689206 0.689206
0.695850 0.695850 0.695850
0.702494 0.702494 0.702494
0.709137 0.709137 0.709137
0.715781 0.715781 0.715781
0.722425 0.722425 0.722425
0.729069 0.729069 0.729069
0.735712 0.735712 0.735712
0.742356 0.742356 0.742356
0.749000 0.749000 0.749000
0.917647 0.701961 0.031373
0.917647 0.701961 0.031373
0.917647 0.701961 0.031373
0.916985 0.701720 0.032441
0.788977 0.656801 0.245855
0.619055 0.601117 0.545344
0.598612 0.598612 0.598612
0.605256 0.605256 0.605256
0.611900 0.611900 0.611900
0.618544 0.618544 0.618544
0.625188 0.625188 0.625188
0.631831 0.631831 0.631831
0.638475 0.638475 0.638475
0.645119 0.645119 0.645119
0.651763 0.651763 0.651763
0.658406 0.658406 0.658406
0.665050 0.665050 0.665050
0.671694 0.671694 0.671694
0.678338 0.678338 0.678338
0.684981 0.684981 0.684981
0.691625 0.691625 0.691625
0.698269 0.698269 0.698269
0.704912 0.704912 0.704912
0.711556 0.711556 0.711556
0.718200 0.718200 0.718200
0.724844 0.724844 0.724844
0.731487 0.731487 0.731487
0.738131 0.738131 0.738131
0.744775 0.744775 0.744775
0.751419 0.751419 0.751419
0.758062 0.758062 0.758062
0.764706 0.764706 0.764706
0.771350 0.771350 0.771350
0.891546 0.692587 0.074007
0.718631 0.633059 0.367007
0.595374 0.594716 0.592670
0.601031 0.601031 0.601031
0.607675 0.607675 0.607675
0.614319 0.614319 0.614319
