luts/FalseColor_logc3.cube
# False Color Exposure Monitor LUT
# Profile  : ARRI LogC3 (EI800)
# Cameras  : Alexa Mini, Alexa Mini LF, Alexa 35, Amira
# Generator: false_color_generator.py
#
# Zone Reference:
#   #ef4444     white_clip      log 0.750 - 1.000
#   #eab308     +2 stops        log 0.514 - 0.558
#   #d946ef     +1 stops        log 0.441 - 0.485
#   #22c55e     +0 stops        log 0.370 - 0.412
#   #06b6d4     -1 stops        log 0.302 - 0.342
#   #3b82f6     -2 stops        log 0.239 - 0.276
#   #6366f1     black_clip      log 0.000 - 0.090
#   Grayscale   = between zones / untagged
#
TITLE "FalseColor ARRI LogC3 (EI800)"
LUT_3D_SIZE 9
DOMAIN_MIN 0.0 0.0 0.0
DOMAIN_MAX 1.0 1.0 1.0
0.194118 0.200000 0.472549
0.388235 0.400000 0.945098
0.388235 0.400000 0.945098
0.388235 0.400000 0.945098
0.106300 0.106300 0.106300
0.132875 0.132875 0.132875
0.159450 0.159450 0.159450
0.186025 0.186025 0.186025
0.212600 0.212600 0.212600
0.254607 0.261111 0.562460
0.115975 0.115975 0.115975
0.142550 0.142550 0.142550
0.169125 0.169125 0.169125
0.195700 0.195700 0.195700
0.222275 0.222275 0.222275
0.231373 0.509804 0.964706
0.251645 0.401945 0.647505
0.157844 0.515138 0.576040
0.178800 0.178800 0.178800
0.205375 0.205375 0.205375
0.231938 0.237837 0.247475
0.231373 0.509804 0.964706
0.285100 0.285100 0.285100
0.023529 0.713725 0.831373
0.079159 0.647357 0.744208
0.340517 0.407638 0.365224
0.133333 0.772549 0.368627
0.231625 0.508149 0.959934
0.288982 0.303722 0.306234
0.023529 0.713725 0.831373
0.324809 0.373992 0.382375
0.165746 0.719051 0.369417
0.133333 0.772549 0.368627
0.427650 0.427650 0.427650
0.850980 0.274510 0.937255
0.779796 0.314178 0.849481
0.357600 0.357600 0.357600
0.133333 0.772549 0.368627
0.233957 0.641318 0.383906
0.517672 0.405700 0.534430
0.850980 0.274510 0.937255
0.512445 0.477313 0.517703
0.828094 0.660624 0.139945
0.917647 0.701961 0.031373
0.570200 0.570200 0.570200
0.826853 0.284811 0.907975
0.850980 0.274510 0.937255
0.500150 0.500150 0.500150
0.917647 0.701961 0.031373
0.866987 0.681290 0.103944
0.579875 0.579875 0.579875
0.606450 0.606450 0.606450
0.633025 0.633025 0.633025
0.659600 0.659600 0.659600
0.917647 0.701961 0.031373
0.598746 0.576992 0.509360
0.589550 0.589550 0.589550
0.616125 0.616125 0.616125
0.642700 0.642700 0.642700
0.669275 0.669275 0.669275
0.695850 0.695850 0.695850
0.722425 0.722425 0.722425
0.826599 0.550181 0.550181
0.625800 0.625800 0.625800
0.652375 0.652375 0.652375
0.678950 0.678950 0.678950
0.705525 0.705525 0.705525
0.732100 0.732100 0.732100
0.937255 0.266667 0.266667
0.937255 0.266667 0.266667
0.937255 0.266667 0.266667
0.937255 0.266667 0.266667
0.715200 0.715200 0.715200
0.741930 0.741398 0.741398
0.937255 0.266667 0.266667
0.937255 0.266667 0.266667
0.937255 0.266667 0.266667
0.937255 0.266667 0.266667
0.937255 0.266667 0.266667
0.937255 0.266667 0.266667
0.937255 0.266667 0.266667
0.388235 0.400000 0.945098
0.388235 0.400000 0.945098
0.388235 0.400000 0.945098
0.271275 0.278445 0.610662
0.115325 0.115325 0.115325
0.141900 0.141900 0.141900
0.168475 0.168475 0.168475
0.195050 0.195050 0.195050
0.221625 0.221625 0.221625
0.098443 0.098444 0.098478
0.125000 0.125000 0.125000
0.151575 0.151575 0.151575
0.178150 0.178150 0.178150
0.204725 0.204725 0.204725
0.231300 0.233190 0.236278
0.231373 0.509804 0.964706
0.284450 0.284450 0.284450
0.023529 0.713725 0.831373
0.187825 0.187825 0.187825
0.214400 0.214400 0.214400
0.234516 0.421812 0.727818
0.231384 0.509726 0.964483
0.292262 0.297014 0.297824
0.023529 0.713725 0.831373
0.313143 0.385909 0.398312
0.175971 0.701870 0.369553
0.133333 0.772549 0.368627
0.259706 0.366087 0.539894
0.115126 0.579756 0.658955
0.023529 0.713725 0.831373
0.356950 0.356950 0.356950
0.133333 0.772549 0.368627
0.218653 0.660816 0.381412
0.498729 0.412386 0.511651
0.850980 0.274510 0.937255
0.523477 0.469762 0.531515
0.314195 0.457852 0.367075
0.133333 0.772549 0.368627
0.416620 0.423660 0.419212
0.813870 0.290270 0.892232
0.850980 0.274510 0.937255
0.499500 0.499500 0.499500
0.917647 0.701961 0.031373
0.881026 0.686980 0.083674
0.579225 0.579225 0.579225
0.850980 0.274510 0.937255
0.728340 0.343787 0.785892
0.564480 0.535277 0.444483
0.917647 0.701961 0.031373
0.611942 0.581824 0.488183
0.588900 0.588900 0.588900
0.615475 0.615475 0.615475
0.642050 0.642050 0.642050
0.668625 0.668625 0.668625
0.917647 0.701961 0.031373
0.572000 0.572000 0.572000
0.598575 0.598575 0.598575
0.625150 0.625150 0.625150
0.651725 0.651725 0.651725
0.678300 0.678300 0.678300
0.704875 0.704875 0.704875
0.731450 0.731450 0.731450
0.936838 0.267809 0.267809
0.634825 0.634825 0.634825
0.661400 0.661400 0.661400
0.687975 0.687975 0.687975
0.714550 0.714550 0.714550
0.741125 0.741125 0.741125
0.937255 0.266667 0.266667
0.937255 0.266667 0.266667
0.937255 0.266667 0.266667
0.937255 0.266667 0.266667
0.724225 0.724225 0.724225
0.857146 0.474672 0.474672
0.937255 0.266667 0.266667
0.937255 0.266667 0.266667
0.937255 0.266667 0.266667
0.937255 0.266667 0.266667
0.937255 0.266667 0.266667
0.937255 0.266667 0.266667
0.937255 0.266667 0.266667
0.388235 0.400000 0.945098
0.388235 0.400000 0.945098
0.388235 0.400000 0.945098
0.099326 0.099389 0.102299
0.124350 0.124350 0.124350
0.150925 0.150925 0.150925
0.177500 0.177500 0.177500
0.204075 0.204075 0.204075
0.230650 0.230735 0.230874
0.107450 0.107450 0.107450
0.134025 0.134025 0.134025
0.160600 0.160600 0.160600
0.187175 0.187175 0.187175
0.213750 0.213750 0.213750
0.234796 0.406752 0.687695
0.231373 0.509804 0.964706
0.293387 0.293613 0.293651
0.023529 0.713725 0.831373
0.196850 0.196850 0.196850
0.223425 0.223425 0.223425
0.231373 0.509804 0.964706
0.256752 0.378857 0.578354
0.130315 0.556930 0.629648
0.023529 0.713725 0.831373
0.356300 0.356300 0.356300
0.133333 0.772549 0.368627
0.204053 0.679551 0.379083
0.286250 0.286250 0.286250
0.023529 0.713725 0.831373
0.106311 0.615624 0.702439
0.324620 0.438249 0.366447
0.133333 0.772549 0.368627
0.411107 0.429040 0.417708
0.798620 0.296627 0.873748
0.850980 0.274510 0.937255
0.498850 0.498850 0.498850
0.150432 0.744543 0.369123
0.133333 0.772549 0.368627
0.428800 0.428800 0.428800
0.850980 0.274510 0.937255
0.747786 0.332517 0.809935
0.548263 0.527313 0.462179
0.917647 0.701961 0.031373
0.626843 0.587357 0.464592
0.588250 0.588250 0.588250
0.850980 0.274510 0.937255
0.498580 0.487423 0.500250
0.860393 0.675622 0.101151
0.917647 0.701961 0.031373
0.571350 0.571350 0.571350
0.597925 0.597925 0.597925
0.624500 0.624500 0.624500
0.651075 0.651075 0.651075
0.677650 0.677650 0.677650
0.838281 0.669726 0.145676
0.581025 0.581025 0.581025
0.607600 0.607600 0.607600
0.634175 0.634175 0.634175
0.660750 0.660750 0.660750
0.687325 0.687325 0.687325
0.713900 0.713900 0.713900
0.740475 0.740475 0.740475
0.937255 0.266667 0.266667
0.643850 0.643850 0.643850
0.670425 0.670425 0.670425
0.697000 0.697000 0.697000
0.723575 0.723575 0.723575
0.846178 0.502012 0.502012
0.937255 0.266667 0.266667
0.937255 0.266667 0.266667
0.937255 0.266667 0.266667
0.937255 0.266667 0.266667
0.733250 0.733250 0.733250
0.937255 0.266667 0.266667
0.937255 0.266667 0.266667
0.937255 0.266667 0.266667
0.937255 0.266667 0.266667
0.937255 0.266667 0.266667
0.937255 0.266667 0.266667
0.937255 0.266667 0.266667
0.937255 0.266667 0.266667
0.388235 0.400000 0.945098
0.388235 0.400000 0.945098
0.388235 0.400000 0.945098
0.106800 0.106800 0.106800
0.133375 0.133375 0.133375
0.159950 0.159950 0.159950
0.186525 0.186525 0.186525
0.213100 0.213100 0.213100
0.235016 0.391247 0.646496
0.116475 0.116475 0.116475
0.143050 0.143050 0.143050
0.169625 0.169625 0.169625
0.196200 0.196200 0.196200
0.222775 0.222775 0.222775
0.231373 0.509804 0.964706
0.253838 0.391869 0.617384
0.145820 0.533459 0.599534
0.023529 0.713725 0.831373
0.205875 0.205875 0.205875
0.232410 0.242776 0.259713
0.231373 0.509804 0.964706
0.285600 0.285600 0.285600
0.023529 0.713725 0.831373
0.090515 0.634041 0.726688
0.334043 0.420236 0.365770
0.133333 0.772549 0.368627
0.403617 0.436925 0.415878
0.285098 0.310946 0.315351
0.023529 0.713725 0.831373
0.332519 0.366309 0.372069
0.158613 0.730963 0.369294
0.133333 0.772549 0.368627
0.428150 0.428150 0.428150
0.850980 0.274510 0.937255
0.766320 0.321867 0.832837
0.534204 0.520345 0.477259
0.133333 0.772549 0.368627
0.246095 0.625956 0.385921
0.533291 0.400088 0.553226
0.850980 0.274510 0.937255
0.505478 0.482255 0.508953
0.842770 0.667449 0.122359
0.917647 0.701961 0.031373
0.570700 0.570700 0.570700
0.597275 0.597275 0.597275
0.850980 0.274510 0.937255
0.500650 0.500650 0.500650
0.917647 0.701961 0.031373
0.855056 0.676473 0.121244
0.580375 0.580375 0.580375
0.606950 0.606950 0.606950
0.633525 0.633525 0.633525
0.660100 0.660100 0.660100
0.686675 0.686675 0.686675
0.589898 0.573807 0.523778
0.590050 0.590050 0.590050
0.616625 0.616625 0.616625
0.643200 0.643200 0.643200
0.669775 0.669775 0.669775
0.696350 0.696350 0.696350
0.722925 0.722925 0.722925
0.835107 0.529353 0.529353
0.937255 0.266667 0.266667
0.652875 0.652875 0.652875
0.679450 0.679450 0.679450
0.706025 0.706025 0.706025
0.732600 0.732600 0.732600
0.937255 0.266667 0.266667
0.937255 0.266667 0.266667
0.937255 0.266667 0.266667
0.937255 0.266667 0.266667
0.937255 0.266667 0.266667
0.743462 0.739380 0.739380
0.937255 0.266667 0.266667
0.937255 0.266667 0.266667
0.937255 0.266667 0.266667
0.937255 0.266667 0.266667
0.937255 0.266667 0.266667
0.937255 0.266667 0.266667
0.937255 0.266667 0.266667
0.937255 0.266667 0.266667
0.388235 0.400000 0.945098
0.388235 0.400000 0.945098
0.258470 0.265129 0.573645
0.115825 0.115825 0.115825
0.142400 0.142400 0.142400
0.168975 0.168975 0.168975
0.195550 0.195550 0.195550
0.222125 0.222125 0.222125
0.231373 0.509804 0.964706
0.125500 0.125500 0.125500
0.152075 0.152075 0.152075
0.178650 0.178650 0.178650
0.205225 0.205225 0.205225
0.231793 0.236581 0.244404
0.231373 0.509804 0.964706
0.284950 0.284950 0.284950
0.023529 0.713725 0.831373
0.075903 0.651187 0.749247
0.214900 0.214900 0.214900
0.234265 0.432982 0.757647
0.231542 0.508688 0.961489
0.289922 0.301896 0.303937
0.023529 0.713725 0.831373
0.322275 0.376555 0.385807
0.168015 0.715249 0.369451
0.133333 0.772549 0.368627
0.427500 0.427500 0.427500
0.103777 0.596706 0.680729
0.023529 0.713725 0.831373
0.357450 0.357450 0.357450
0.133333 0.772549 0.368627
0.230373 0.645872 0.383317
0.513156 0.407307 0.528997
0.850980 0.274510 0.937255
0.514800 0.475679 0.520655
0.823521 0.658494 0.145412
0.133333 0.772549 0.368627
0.419387 0.421366 0.420115
0.824072 0.285985 0.904602
0.850980 0.274510 0.937255
0.500000 0.500000 0.500000
0.917647 0.701961 0.031373
0.870382 0.682664 0.099033
0.579725 0.579725 0.579725
0.606300 0.606300 0.606300
0.712918 0.352792 0.766814
0.578244 0.541993 0.429286
0.917647 0.701961 0.031373
0.601628 0.578041 0.504706
0.589400 0.589400 0.589400
0.615975 0.615975 0.615975
0.642550 0.642550 0.642550
0.669125 0.669125 0.669125
0.695700 0.695700 0.695700
0.572500 0.572500 0.572500
0.599075 0.599075 0.599075
0.625650 0.625650 0.625650
0.652225 0.652225 0.652225
0.678800 0.678800 0.678800
0.705375 0.705375 0.705375
0.731950 0.731950 0.731950
0.937255 0.266667 0.266667
0.937255 0.266667 0.266667
0.661900 0.661900 0.661900
0.688475 0.688475 0.688475
0.715050 0.715050 0.715050
0.741658 0.741545 0.741545
0.937255 0.266667 0.266667
0.937255 0.266667 0.266667
0.937255 0.266667 0.266667
0.937255 0.266667 0.266667
0.937255 0.266667 0.266667
0.865434 0.453845 0.453845
0.937255 0.266667 0.266667
0.937255 0.266667 0.266667
0.937255 0.266667 0.266667
0.937255 0.266667 0.266667
0.937255 0.266667 0.266667
0.937255 0.266667 0.266667
0.937255 0.266667 0.266667
0.937255 0.266667 0.266667
0.388235 0.400000 0.945098
0.388235 0.400000 0.945098
0.098430 0.098436 0.098727
0.124850 0.124850 0.124850
0.151425 0.151425 0.151425
0.178000 0.178000 0.178000
0.204575 0.204575 0.204575
0.231151 0.232422 0.234498
0.231373 0.509804 0.964706
0.134525 0.134525 0.134525
0.161100 0.161100 0.161100
0.187675 0.187675 0.187675
0.214250 0.214250 0.214250
0.234585 0.418386 0.718680
0.231373 0.509802 0.964701
0.292719 0.295925 0.296472
0.023529 0.713725 0.831373
0.310209 0.388947 0.402368
0.223925 0.223925 0.223925
0.231373 0.509804 0.964706
0.259022 0.369005 0.548695
0.118593 0.574560 0.652282
0.023529 0.713725 0.831373
0.356800 0.356800 0.356800
0.133333 0.772549 0.368627
0.215215 0.665216 0.380859
0.494603 0.413822 0.506693
0.023529 0.713725 0.831373
0.119137 0.600755 0.682848
0.316682 0.453202 0.366935
0.133333 0.772549 0.368627
0.415534 0.424668 0.418896
0.810542 0.291662 0.888198
0.850980 0.274510 0.937255
0.499350 0.499350 0.499350
0.917647 0.701961 0.031373
0.133333 0.772549 0.368627
0.429300 0.429300 0.429300
0.850980 0.274510 0.937255
0.732895 0.341138 0.791526
0.560561 0.533358 0.448783
0.917647 0.701961 0.031373
0.615238 0.583041 0.482940
0.588750 0.588750 0.588750
0.615325 0.615325 0.615325
0.495067 0.490341 0.495774
0.872679 0.681304 0.086303
0.917647 0.701961 0.031373
0.571850 0.571850 0.571850
0.598425 0.598425 0.598425
0.625000 0.625000 0.625000
0.651575 0.651575 0.651575
0.678150 0.678150 0.678150
0.704725 0.704725 0.704725
0.581525 0.581525 0.581525
0.608100 0.608100 0.608100
0.634675 0.634675 0.634675
0.661250 0.661250 0.661250
0.687825 0.687825 0.687825
0.714400 0.714400 0.714400
0.740975 0.740975 0.740975
0.937255 0.266667 0.266667
0.937255 0.266667 0.266667
0.670925 0.670925 0.670925
0.697500 0.697500 0.697500
0.724075 0.724075 0.724075
0.854630 0.480964 0.480964
0.937255 0.266667 0.266667
0.937255 0.266667 0.266667
0.937255 0.266667 0.266667
0.937255 0.266667 0.266667
0.937255 0.266667 0.266667
0.937255 0.266667 0.266667
0.937255 0.266667 0.266667
0.937255 0.266667 0.266667
0.937255 0.266667 0.266667
0.937255 0.266667 0.266667
0.937255 0.266667 0.266667
0.937255 0.266667 0.266667
0.937255 0.266667 0.266667
0.937255 0.266667 0.266667
0.388235 0.400000 0.945098
0.388235 0.400000 0.945098
0.107300 0.107300 0.107300
0.133875 0.133875 0.133875
0.160450 0.160450 0.160450
0.187025 0.187025 0.187025
0.213600 0.213600 0.213600
0.234853 0.403207 0.678266
0.231373 0.509804 0.964706
0.143550 0.143550 0.143550
0.170125 0.170125 0.170125
0.196700 0.196700 0.196700
0.223275 0.223275 0.223275
0.231373 0.509804 0.964706
0.256074 0.381844 0.587327
0.133872 0.551561 0.622758
0.023529 0.713725 0.831373
0.356150 0.356150 0.356150
0.232860 0.248802 0.274849
0.231373 0.509804 0.964706
0.286100 0.286100 0.286100
0.023529 0.713725 0.831373
0.102572 0.619974 0.708167
0.326889 0.433940 0.366294
0.133333 0.772549 0.368627
0.409547 0.430646 0.417313
0.794806 0.298208 0.869127
0.023529 0.713725 0.831373
0.339015 0.360035 0.363618
0.152202 0.741612 0.369163
0.133333 0.772549 0.368627
0.428650 0.428650 0.428650
0.850980 0.274510 0.937255
0.752154 0.330000 0.815333
0.544817 0.525612 0.465903
0.917647 0.701961 0.031373
0.258457 0.610401 0.388007
0.549679 0.394120 0.572960
0.850980 0.274510 0.937255
0.499945 0.486363 0.501977
0.856484 0.673811 0.105864
0.917647 0.701961 0.031373
0.571200 0.571200 0.571200
0.597775 0.597775 0.597775
0.624350 0.624350 0.624350
0.501150 0.501150 0.501150
0.917647 0.701961 0.031373
0.842267 0.671327 0.139859
0.580875 0.580875 0.580875
0.607450 0.607450 0.607450
0.634025 0.634025 0.634025
0.660600 0.660600 0.660600
0.687175 0.687175 0.687175
0.713750 0.713750 0.713750
0.590550 0.590550 0.590550
0.617125 0.617125 0.617125
0.643700 0.643700 0.643700
0.670275 0.670275 0.670275
0.696850 0.696850 0.696850
0.723425 0.723425 0.723425
0.843627 0.508333 0.508333
0.937255 0.266667 0.266667
0.937255 0.266667 0.266667
0.679950 0.679950 0.679950
0.706525 0.706525 0.706525
0.733100 0.733100 0.733100
0.937255 0.266667 0.266667
0.937255 0.266667 0.266667
0.937255 0.266667 0.266667
0.937255 0.266667 0.266667
0.937255 0.266667 0.266667
0.937255 0.266667 0.266667
0.937255 0.266667 0.266667
0.937255 0.266667 0.266667
0.937255 0.266667 0.266667
0.937255 0.266667 0.266667
0.937255 0.266667 0.266667
0.937255 0.266667 0.266667
0.937255 0.266667 0.266667
0.937255 0.266667 0.266667
0.937255 0.266667 0.266667
0.388235 0.400000 0.945098
0.245573 0.251714 0.536280
0.116325 0.116325 0.116325
0.142900 0.142900 0.142900
0.169475 0.169475 0.169475
0.196050 0.196050 0.196050
0.222625 0.222625 0.222625
0.231373 0.509804 0.964706
0.253175 0.394890 0.626423
0.152575 0.152575 0.152575
0.179150 0.179150 0.179150
0.205725 0.205725 0.205725
0.232270 0.241176 0.255727
0.231373 0.509804 0.964706
0.285450 0.285450 0.285450
0.023529 0.713725 0.831373
0.087031 0.638120 0.732056
0.336060 0.416334 0.365609
0.233989 0.443703 0.786335
0.231881 0.506501 0.955176
0.286383 0.308599 0.312386
0.023529 0.713725 0.831373
0.330329 0.368471 0.374972
0.160681 0.727517 0.369332
0.133333 0.772549 0.368627
0.428000 0.428000 0.428000
0.850980 0.274510 0.937255
0.023529 0.713725 0.831373
0.357950 0.357950 0.357950
0.133333 0.772549 0.368627
0.242426 0.630590 0.385308
0.528519 0.401812 0.547482
0.850980 0.274510 0.937255
0.507422 0.480857 0.511398
0.838463 0.665448 0.127527
0.917647 0.701961 0.031373
0.420767 0.420785 0.420774
0.832815 0.282289 0.915206
0.850980 0.274510 0.937255
0.500500 0.500500 0.500500
0.917647 0.701961 0.031373
0.858730 0.677955 0.115909
0.580225 0.580225 0.580225
0.606800 0.606800 0.606800
0.633375 0.633375 0.633375
0.592988 0.549153 0.412865
0.917647 0.701961 0.031373
0.592426 0.574711 0.519635
0.589900 0.589900 0.589900
0.616475 0.616475 0.616475
0.643050 0.643050 0.643050
0.669625 0.669625 0.669625
0.696200 0.696200 0.696200
0.722775 0.722775 0.722775
0.599575 0.599575 0.599575
0.626150 0.626150 0.626150
0.652725 0.652725 0.652725
0.679300 0.679300 0.679300
0.705875 0.705875 0.705875
0.732450 0.732450 0.732450
0.937255 0.266667 0.266667
0.937255 0.266667 0.266667
0.937255 0.266667 0.266667
0.688975 0.688975 0.688975
0.715550 0.715550 0.715550
0.742903 0.740228 0.740228
0.937255 0.266667 0.266667
0.937255 0.266667 0.266667
0.937255 0.266667 0.266667
0.937255 0.266667 0.266667
0.937255 0.266667 0.266667
0.937255 0.266667 0.266667
0.937255 0.266667 0.266667
0.937255 0.266667 0.266667
0.937255 0.266667 0.266667
0.937255 0.266667 0.266667
0.937255 0.266667 0.266667
0.937255 0.266667 0.266667
0.937255 0.266667 0.266667
0.937255 0.266667 0.266667
0.937255 0.266667 0.266667
0.388235 0.400000 0.945098
0.098775 0.098775 0.098775
0.125350 0.125350 0.125350
0.151925 0.151925 0.151925
0.178500 0.178500 0.178500
0.205075 0.205075 0.205075
0.231646 0.235433 0.241620
0.231373 0.509804 0.964706
0.284800 0.284800 0.284800
0.161600 0.161600 0.161600
0.188175 0.188175 0.188175
0.214750 0.214750 0.214750
0.234343 0.429675 0.748808
0.231475 0.509124 0.962746
0.290753 0.300234 0.301850
0.023529 0.713725 0.831373
0.319644 0.379233 0.389390
0.170340 0.711346 0.369484
0.231373 0.509804 0.964706
0.261303 0.359365 0.519581
0.107145 0.591686 0.674278
0.023529 0.713725 0.831373
0.357300 0.357300 0.357300
0.133333 0.772549 0.368627
0.226818 0.650396 0.382736
0.508723 0.408877 0.523667
0.850980 0.274510 0.937255
0.132448 0.585401 0.662609
0.308219 0.468969 0.367391
0.133333 0.772549 0.368627
0.418698 0.421879 0.419869
0.821159 0.287211 0.901070
0.850980 0.274510 0.937255
0.499850 0.499850 0.499850
0.917647 0.701961 0.031373
0.873686 0.684002 0.094259
0.429800 0.429800 0.429800
0.850980 0.274510 0.937255
0.717579 0.350064 0.772581
0.574006 0.539929 0.433980
0.917647 0.701961 0.031373
0.604610 0.579130 0.499909
0.589250 0.589250 0.589250
0.615825 0.615825 0.615825
0.642400 0.642400 0.642400
0.883731 0.686404 0.072897
0.917647 0.701961 0.031373
0.572350 0.572350 0.572350
0.598925 0.598925 0.598925
0.625500 0.625500 0.625500
0.652075 0.652075 0.652075
0.678650 0.678650 0.678650
0.705225 0.705225 0.705225
0.731800 0.731800 0.731800
0.608600 0.608600 0.608600
0.635175 0.635175 0.635175
0.661750 0.661750 0.661750
0.688325 0.688325 0.688325
0.714900 0.714900 0.714900
0.741475 0.741475 0.741475
0.937255 0.266667 0.266667
0.937255 0.266667 0.266667
0.937255 0.266667 0.266667
0.698000 0.698000 0.698000
0.724575 0.724575 0.724575
0.862965 0.460064 0.460064
0.937255 0.266667 0.266667
0.937255 0.266667 0.266667
0.937255 0.266667 0.266667
0.937255 0.266667 0.266667
0.937255 0.266667 0.266667
0.937255 0.266667 0.266667
0.937255 0.266667 0.266667
0.937255 0.266667 0.266667
0.937255 0.266667 0.266667
0.937255 0.266667 0.266667
0.937255 0.266667 0.266667
0.937255 0.266667 0.266667
0.937255 0.266667 0.266667
0.937255 0.266667 0.266667
0.968627 0.633333 0.633333
