luts/FalseColor_clog2.cube
# False Color Exposure Monitor LUT
# Profile  : Canon C-Log2
# Cameras  : C70, C300 III, C500 II, EOS R5 C, EOS C70
# Generator: false_color_generator.py
#
# Zone Reference:
#   #ef4444     white_clip      log 0.700 - 1.000
#   #eab308     +2 stops        log 0.557 - 0.607
#   #d946ef     +1 stops        log 0.474 - 0.523
#   #22c55e     +0 stops        log 0.394 - 0.442
#   #06b6d4     -1 stops        log 0.318 - 0.363
#   #3b82f6     -2 stops        log 0.248 - 0.289
#   #6366f1     black_clip      log 0.000 - 0.080
#   Grayscale   = between zones / untagged
#
TITLE "FalseColor Canon C-Log2"
LUT_3D_SIZE 5
DOMAIN_MIN 0.0 0.0 0.0
DOMAIN_MAX 1.0 1.0 1.0
0.194118 0.200000 0.472549
0.388235 0.400000 0.945098
0.106300 0.106300 0.106300
0.159450 0.159450 0.159450
0.212600 0.212600 0.212600
0.178800 0.178800 0.178800
0.231950 0.231950 0.231950
0.237611 0.483714 0.885798
0.023529 0.713725 0.831373
0.330742 0.480989 0.386047
0.033922 0.702647 0.816635
0.133333 0.772549 0.368627
0.463900 0.463900 0.463900
0.850971 0.274517 0.937243
0.917647 0.701961 0.031373
0.536400 0.536400 0.536400
0.917647 0.701961 0.031373
0.642700 0.642700 0.642700
0.715513 0.660891 0.660891
0.937255 0.266667 0.266667
0.937255 0.266667 0.266667
0.937255 0.266667 0.266667
0.937255 0.266667 0.266667
0.937255 0.266667 0.266667
0.937255 0.266667 0.266667
0.388235 0.400000 0.945098
0.388235 0.400000 0.945098
0.124350 0.124350 0.124350
0.177500 0.177500 0.177500
0.230650 0.230650 0.230650
0.196850 0.196850 0.196850
0.236960 0.431881 0.750343
0.303150 0.303150 0.303150
0.023545 0.713709 0.831351
0.133333 0.772549 0.368627
0.375650 0.375650 0.375650
0.133333 0.772549 0.368627
0.850980 0.274510 0.937255
0.535100 0.535100 0.535100
0.917647 0.701961 0.031373
0.648236 0.592541 0.419380
0.729931 0.644831 0.380246
0.660750 0.660750 0.660750
0.937255 0.266667 0.266667
0.937255 0.266667 0.266667
0.937255 0.266667 0.266667
0.937255 0.266667 0.266667
0.937255 0.266667 0.266667
0.937255 0.266667 0.266667
0.937255 0.266667 0.266667
0.388235 0.400000 0.945098
0.089250 0.089250 0.089250
0.142400 0.142400 0.142400
0.195550 0.195550 0.195550
0.239126 0.392974 0.644331
0.214900 0.214900 0.214900
0.231373 0.509804 0.964706
0.058024 0.668239 0.772252
0.374350 0.374350 0.374350
0.133333 0.772549 0.368627
0.265531 0.580193 0.381358
0.439741 0.454236 0.445076
0.850980 0.274510 0.937255
0.602458 0.573281 0.482566
0.776401 0.658563 0.292195
0.917647 0.701961 0.031373
0.625650 0.625650 0.625650
0.678800 0.678800 0.678800
0.937255 0.266667 0.266667
0.937255 0.266667 0.266667
0.937255 0.266667 0.266667
0.937255 0.266667 0.266667
0.937255 0.266667 0.266667
0.937255 0.266667 0.266667
0.937255 0.266667 0.266667
0.388235 0.400000 0.945098
0.107300 0.107300 0.107300
0.160450 0.160450 0.160450
0.213600 0.213600 0.213600
0.231373 0.509804 0.964706
0.232950 0.232950 0.232950
0.242549 0.464120 0.826124
0.023529 0.713725 0.831373
0.303759 0.522469 0.384266
0.415626 0.476890 0.438178
0.133333 0.772549 0.368627
0.464900 0.464900 0.464900
0.844728 0.279083 0.929383
0.917647 0.701961 0.031373
0.624350 0.624350 0.624350
0.917647 0.701961 0.031373
0.643700 0.643700 0.643700
0.735384 0.627896 0.627896
0.937255 0.266667 0.266667
0.937255 0.266667 0.266667
0.937255 0.266667 0.266667
0.937255 0.266667 0.266667
0.937255 0.266667 0.266667
0.937255 0.266667 0.266667
0.937255 0.266667 0.266667
0.388235 0.400000 0.945098
0.125350 0.125350 0.125350
0.178500 0.178500 0.178500
0.231650 0.231650 0.231650
0.236370 0.488759 0.901112
0.235246 0.458729 0.823856
0.304150 0.304150 0.304150
0.029916 0.706905 0.822301
0.133333 0.772549 0.368627
0.463600 0.463600 0.463600
0.133333 0.772549 0.368627
0.850980 0.274510 0.937255
0.536100 0.536100 0.536100
0.917647 0.701961 0.031373
0.642400 0.642400 0.642400
0.696097 0.635032 0.445177
0.661750 0.661750 0.661750
0.937255 0.266667 0.266667
0.937255 0.266667 0.266667
0.937255 0.266667 0.266667
0.937255 0.266667 0.266667
0.937255 0.266667 0.266667
0.937255 0.266667 0.266667
0.937255 0.266667 0.266667
0.968627 0.633333 0.633333
