luts/FalseColor_slog3.cube
# False Color Exposure Monitor LUT
# Profile  : Sony S-Log3
# Cameras  : A7S III, A7 IV, FX3, FX6, FX9, ZV-E1, Venice
# Generator: false_color_generator.py
#
# Zone Reference:
#   #ef4444     white_clip      log 0.760 - 1.000
#   #eab308     +2 stops        log 0.537 - 0.583
#   #d946ef     +1 stops        log 0.462 - 0.507
#   #22c55e     +0 stops        log 0.389 - 0.433
#   #06b6d4     -1 stops        log 0.319 - 0.360
#   #3b82f6     -2 stops        log 0.254 - 0.292
#   #6366f1     black_clip      log 0.000 - 0.100
#   Grayscale   = between zones / untagged
#
TITLE "FalseColor Sony S-Log3"
LUT_3D_SIZE 33
DOMAIN_MIN 0.0 0.0 0.0
DOMAIN_MAX 1.0 1.0 1.0
0.194118 0.200000 0.472549
0.372808 0.384097 0.907157
0.388235 0.400000 0.945098
0.388235 0.400000 0.945098
0.388235 0.400000 0.945098
0.388235 0.400000 0.945098
0.388235 0.400000 0.945098
0.388235 0.400000 0.945098
0.388235 0.400000 0.945098
0.388235 0.400000 0.945098
0.388235 0.400000 0.945098
0.388235 0.400000 0.945098
0.388235 0.400000 0.945098
0.388235 0.400000 0.945098
0.379733 0.391159 0.920558
0.252428 0.258656 0.547228
0.121470 0.122103 0.151433
0.112944 0.112944 0.112944
0.119588 0.119588 0.119588
0.126231 0.126231 0.126231
0.132875 0.132875 0.132875
0.139519 0.139519 0.139519
0.146163 0.146163 0.146163
0.152806 0.152806 0.152806
0.159450 0.159450 0.159450
0.166094 0.166094 0.166094
0.172738 0.172738 0.172738
0.179381 0.179381 0.179381
0.186025 0.186025 0.186025
0.192669 0.192669 0.192669
0.199313 0.199313 0.199313
0.205956 0.205956 0.205956
0.212600 0.212600 0.212600
0.388235 0.400000 0.945098
0.388235 0.400000 0.945098
0.388235 0.400000 0.945098
0.388235 0.400000 0.945098
0.388235 0.400000 0.945098
0.388235 0.400000 0.945098
0.388235 0.400000 0.945098
0.388235 0.400000 0.945098
0.388235 0.400000 0.945098
0.388235 0.400000 0.945098
0.388235 0.400000 0.945098
0.345919 0.355983 0.822303
0.195305 0.199138 0.376728
0.108725 0.108725 0.108737
0.115362 0.115362 0.115362
0.122006 0.122006 0.122006
0.128650 0.128650 0.128650
0.135294 0.135294 0.135294
0.141938 0.141938 0.141938
0.148581 0.148581 0.148581
0.155225 0.155225 0.155225
0.161869 0.161869 0.161869
0.168513 0.168513 0.168513
0.175156 0.175156 0.175156
0.181800 0.181800 0.181800
0.188444 0.188444 0.188444
0.195088 0.195088 0.195088
0.201731 0.201731 0.201731
0.208375 0.208375 0.208375
0.215019 0.215019 0.215019
0.221663 0.221663 0.221663
0.228306 0.228306 0.228306
0.234950 0.234950 0.234950
0.388235 0.400000 0.945098
0.388235 0.400000 0.945098
0.388235 0.400000 0.945098
0.388235 0.400000 0.945098
0.388235 0.400000 0.945098
0.388235 0.400000 0.945098
0.388235 0.400000 0.945098
0.388235 0.400000 0.945098
0.295384 0.303387 0.674189
0.146835 0.148590 0.229932
0.111138 0.111138 0.111138
0.117781 0.117781 0.117781
0.124425 0.124425 0.124425
0.131069 0.131069 0.131069
0.137712 0.137712 0.137712
0.144356 0.144356 0.144356
0.151000 0.151000 0.151000
0.157644 0.157644 0.157644
0.164288 0.164288 0.164288
0.170931 0.170931 0.170931
0.177575 0.177575 0.177575
0.184219 0.184219 0.184219
0.190862 0.190862 0.190862
0.197506 0.197506 0.197506
0.204150 0.204150 0.204150
0.210794 0.210794 0.210794
0.217438 0.217438 0.217438
0.224081 0.224081 0.224081
0.230725 0.230725 0.230725
0.237369 0.237369 0.237369
0.244012 0.244012 0.244012
0.246840 0.301938 0.391956
0.238175 0.443555 0.779104
0.388235 0.400000 0.945098
0.388235 0.400000 0.945098
0.388235 0.400000 0.945098
0.388235 0.400000 0.945098
0.373286 0.384454 0.901892
0.237633 0.243245 0.503265
0.115685 0.116052 0.133050
0.113556 0.113556 0.113556
0.120200 0.120200 0.120200
0.126844 0.126844 0.126844
0.133488 0.133488 0.133488
0.140131 0.140131 0.140131
0.146775 0.146775 0.146775
0.153419 0.153419 0.153419
0.160062 0.160062 0.160062
0.166706 0.166706 0.166706
0.173350 0.173350 0.173350
0.179994 0.179994 0.179994
0.186638 0.186638 0.186638
0.193281 0.193281 0.193281
0.199925 0.199925 0.199925
0.206569 0.206569 0.206569
0.213212 0.213212 0.213212
0.219856 0.219856 0.219856
0.226500 0.226500 0.226500
0.233144 0.233144 0.233144
0.239788 0.239788 0.239788
0.246345 0.247946 0.250562
0.244699 0.352160 0.527730
0.234258 0.484343 0.892931
0.231373 0.509804 0.964706
0.231373 0.509804 0.964706
0.231373 0.509804 0.964706
0.388235 0.400000 0.945098
0.334322 0.343916 0.788437
0.181865 0.185127 0.336273
0.109331 0.109331 0.109331
0.115975 0.115975 0.115975
0.122619 0.122619 0.122619
0.129263 0.129263 0.129263
0.135906 0.135906 0.135906
0.142550 0.142550 0.142550
0.149194 0.149194 0.149194
0.155838 0.155838 0.155838
0.162481 0.162481 0.162481
0.169125 0.169125 0.169125
0.175769 0.175769 0.175769
0.182412 0.182412 0.182412
0.189056 0.189056 0.189056
0.195700 0.195700 0.195700
0.202344 0.202344 0.202344
0.208987 0.208987 0.208987
0.215631 0.215631 0.215631
0.222275 0.222275 0.222275
0.228919 0.228919 0.228919
0.235563 0.235563 0.235563
0.242206 0.242206 0.242206
0.247318 0.271728 0.311609
0.241226 0.405923 0.675006
0.231689 0.507256 0.957479
0.231373 0.509804 0.964706
0.231373 0.509804 0.964706
0.231373 0.509804 0.964706
0.243993 0.461143 0.815925
0.280074 0.346577 0.455229
0.302000 0.302000 0.302000
0.111750 0.111750 0.111750
0.118394 0.118394 0.118394
0.125037 0.125037 0.125037
0.131681 0.131681 0.131681
0.138325 0.138325 0.138325
0.144969 0.144969 0.144969
0.151612 0.151612 0.151612
0.158256 0.158256 0.158256
0.164900 0.164900 0.164900
0.171544 0.171544 0.171544
0.178187 0.178187 0.178187
0.184831 0.184831 0.184831
0.191475 0.191475 0.191475
0.198119 0.198119 0.198119
0.204762 0.204762 0.204762
0.211406 0.211406 0.211406
0.218050 0.218050 0.218050
0.224694 0.224694 0.224694
0.231338 0.231338 0.231338
0.237981 0.237981 0.237981
0.244625 0.244625 0.244625
0.246451 0.313865 0.424006
0.237130 0.455164 0.811390
0.231373 0.509804 0.964706
0.231373 0.509804 0.964706
0.231373 0.509804 0.964706
0.231965 0.507292 0.957122
0.256005 0.419669 0.687064
0.292102 0.315890 0.354755
0.304419 0.304419 0.304419
0.307952 0.315419 0.316692
0.196861 0.480388 0.528716
0.049483 0.680132 0.787629
0.134100 0.134100 0.134100
0.140744 0.140744 0.140744
0.147388 0.147388 0.147388
0.154031 0.154031 0.154031
0.160675 0.160675 0.160675
0.167319 0.167319 0.167319
0.173962 0.173962 0.173962
0.180606 0.180606 0.180606
0.187250 0.187250 0.187250
0.193894 0.193894 0.193894
0.200538 0.200538 0.200538
0.207181 0.207181 0.207181
0.213825 0.213825 0.213825
0.220469 0.220469 0.220469
0.227112 0.227112 0.227112
0.233756 0.233756 0.233756
0.240400 0.240400 0.240400
0.246763 0.251748 0.259892
0.243923 0.365763 0.564827
0.233425 0.492126 0.914792
0.231373 0.509804 0.964706
0.231373 0.509804 0.964706
0.231373 0.509804 0.964706
0.237160 0.486576 0.894072
0.269781 0.376219 0.550118
0.299841 0.301269 0.303601
0.306837 0.306837 0.306837
0.283528 0.354828 0.366981
0.137322 0.562716 0.635226
0.025154 0.711652 0.828669
0.023529 0.713725 0.831373
0.023529 0.713725 0.831373
0.023529 0.713725 0.831373
0.156450 0.156450 0.156450
0.163094 0.163094 0.163094
0.169737 0.169737 0.169737
0.176381 0.176381 0.176381
0.183025 0.183025 0.183025
0.189669 0.189669 0.189669
0.196312 0.196312 0.196312
0.202956 0.202956 0.202956
0.209600 0.209600 0.209600
0.216244 0.216244 0.216244
0.222887 0.222887 0.222887
0.229531 0.229531 0.229531
0.236175 0.236175 0.236175
0.242819 0.242819 0.242819
0.247271 0.281007 0.336127
0.240212 0.419131 0.711450
0.231430 0.509355 0.963430
0.231373 0.509804 0.964706
0.231373 0.509804 0.964706
0.231373 0.509804 0.964706
0.246772 0.451215 0.785235
0.283384 0.337629 0.426253
0.302612 0.302612 0.302612
0.309256 0.309256 0.309256
0.238579 0.421110 0.452224
0.082129 0.637064 0.731655
0.023529 0.713725 0.831373
0.023529 0.713725 0.831373
0.023529 0.713725 0.831373
0.023529 0.713725 0.831373
0.072552 0.660906 0.761193
0.253327 0.475490 0.513359
0.369050 0.369050 0.369050
0.178800 0.178800 0.178800
0.185444 0.185444 0.185444
0.192087 0.192087 0.192087
0.198731 0.198731 0.198731
0.205375 0.205375 0.205375
0.212019 0.212019 0.212019
0.218662 0.218662 0.218662
0.225306 0.225306 0.225306
0.231950 0.231950 0.231950
0.238594 0.238594 0.238594
0.245237 0.245237 0.245237
0.245955 0.326417 0.457877
0.236108 0.465985 0.841558
0.231373 0.509804 0.964706
0.231373 0.509804 0.964706
0.231373 0.509804 0.964706
0.232797 0.503848 0.946691
0.259398 0.408578 0.652308
0.294571 0.310426 0.336330
0.305031 0.305031 0.305031
0.304180 0.322133 0.325193
0.181891 0.501312 0.555758
0.040907 0.691314 0.802179
0.023529 0.713725 0.831373
0.023529 0.713725 0.831373
0.023529 0.713725 0.831373
0.023531 0.713724 0.831370
0.131842 0.598651 0.678221
0.314936 0.415826 0.433023
0.371469 0.371469 0.371469
0.378112 0.378112 0.378112
0.340105 0.453626 0.381892
0.206944 0.663831 0.375123
0.201150 0.201150 0.201150
0.207794 0.207794 0.207794
0.214438 0.214438 0.214438
0.221081 0.221081 0.221081
0.227725 0.227725 0.227725
0.234369 0.234369 0.234369
0.241012 0.241012 0.241012
0.247067 0.257150 0.273624
0.243069 0.379459 0.602294
0.232699 0.498642 0.933141
0.231373 0.509804 0.964706
0.231373 0.509804 0.964706
0.231373 0.509804 0.964706
0.239227 0.478710 0.869978
0.273325 0.365724 0.516686
0.300796 0.300837 0.300903
0.307450 0.307450 0.307450
0.273745 0.369588 0.385925
0.122560 0.582781 0.661228
0.023587 0.713653 0.831278
0.023529 0.713725 0.831373
0.023529 0.713725 0.831373
0.023529 0.713725 0.831373
0.040948 0.694760 0.806206
0.201209 0.527583 0.583215
0.357059 0.377511 0.380997
0.373888 0.373888 0.373888
0.379978 0.381408 0.380505
0.295448 0.526431 0.380473
0.164173 0.727710 0.371610
0.133333 0.772549 0.368627
0.133333 0.772549 0.368627
0.133333 0.772549 0.368627
0.223500 0.223500 0.223500
0.230144 0.230144 0.230144
0.236787 0.236787 0.236787
0.243431 0.243431 0.243431
0.247105 0.291321 0.363562
0.239172 0.431921 0.746833
0.231373 0.509804 0.964706
0.231373 0.509804 0.964706
0.231373 0.509804 0.964706
0.231373 0.509804 0.964706
0.249747 0.440822 0.753001
0.286541 0.329412 0.399456
0.303225 0.303225 0.303225
0.309869 0.309869 0.309869
0.224980 0.440609 0.477364
0.069982 0.653174 0.752581
0.023529 0.713725 0.831373
0.023529 0.713725 0.831373
0.023529 0.713725 0.831373
0.023529 0.713725 0.831373
0.086047 0.646605 0.742155
0.270158 0.458948 0.491128
0.369663 0.369663 0.369663
0.376306 0.376306 0.376306
0.364700 0.411434 0.381903
0.244430 0.606527 0.377717
0.137730 0.766256 0.369089
0.133333 0.772549 0.368627
0.133333 0.772549 0.368627
0.133333 0.772549 0.368627
0.133333 0.772549 0.368627
0.206503 0.687774 0.383658
0.371869 0.507477 0.421786
0.245845 0.245950 0.246123
0.245355 0.339457 0.493201
0.235129 0.475893 0.869255
0.231373 0.509804 0.964706
0.231373 0.509804 0.964706
0.231373 0.509804 0.964706
0.233968 0.499100 0.932274
0.262876 0.397474 0.617381
0.296724 0.306093 0.321401
0.305644 0.305644 0.305644
0.298683 0.331201 0.336744
0.166751 0.522315 0.582923
0.033862 0.700448 0.814070
0.023529 0.713725 0.831373
0.023529 0.713725 0.831373
0.023529 0.713725 0.831373
0.024787 0.712342 0.829539
0.148864 0.581038 0.654704
0.327887 0.403689 0.416609
0.372081 0.372081 0.372081
0.378725 0.378725 0.378725
0.329827 0.470693 0.381679
0.195044 0.681769 0.374206
0.133333 0.772549 0.368627
0.133333 0.772549 0.368627
0.133333 0.772549 0.368627
0.133333 0.772549 0.368627
0.139055 0.765741 0.369737
0.265662 0.621545 0.396662
0.417831 0.461162 0.433781
0.445163 0.445163 0.445163
0.451806 0.451806 0.451806
0.537768 0.421282 0.555201
0.231373 0.509804 0.964706
0.231373 0.509804 0.964706
0.231373 0.509804 0.964706
0.241557 0.470028 0.843304
0.276826 0.355650 0.484435
0.301419 0.301419 0.301419
0.308063 0.308063 0.308063
0.262784 0.385859 0.406837
0.108229 0.602135 0.686324
0.023529 0.713725 0.831373
0.023529 0.713725 0.831373
0.023529 0.713725 0.831373
0.023529 0.713725 0.831373
0.050139 0.684856 0.793046
0.219130 0.509535 0.559035
0.363290 0.372443 0.374003
0.374500 0.374500 0.374500
0.378362 0.385538 0.381003
0.282820 0.546510 0.379884
0.155589 0.740319 0.370827
0.133333 0.772549 0.368627
0.133333 0.772549 0.368627
0.133333 0.772549 0.368627
0.133333 0.772549 0.368627
0.170142 0.729415 0.376009
0.328376 0.553337 0.411184
0.440535 0.441371 0.440843
0.447581 0.447581 0.447581
0.456863 0.453030 0.457437
0.613381 0.388012 0.647110
0.813174 0.293538 0.890943
0.850980 0.274510 0.937255
0.850980 0.274510 0.937255
0.252890 0.430080 0.719574
0.289505 0.322031 0.375172
0.303837 0.303837 0.303837
0.309811 0.311423 0.311698
0.210772 0.460791 0.503407
0.058889 0.667800 0.771591
0.023529 0.713725 0.831373
0.023529 0.713725 0.831373
0.023529 0.713725 0.831373
0.023529 0.713725 0.831373
0.100679 0.631190 0.721618
0.286271 0.443264 0.470024
0.370275 0.370275 0.370275
0.376919 0.376919 0.376919
0.357433 0.424182 0.382003
0.231447 0.626512 0.376870
0.134671 0.770642 0.368771
0.133333 0.772549 0.368627
0.133333 0.772549 0.368627
0.133333 0.772549 0.368627
0.133333 0.772549 0.368627
0.220637 0.671787 0.386704
0.385149 0.493792 0.425141
0.443356 0.443356 0.443356
0.450000 0.450000 0.450000
0.492426 0.440117 0.500254
0.694565 0.350673 0.746031
0.847487 0.276302 0.932970
0.850980 0.274510 0.937255
0.850980 0.274510 0.937255
0.850980 0.274510 0.937255
0.850980 0.274510 0.937255
0.785850 0.317322 0.855970
0.291596 0.342409 0.351070
0.151590 0.543196 0.609947
0.028512 0.707345 0.823055
0.023529 0.713725 0.831373
0.023529 0.713725 0.831373
0.023529 0.713725 0.831373
0.028284 0.708513 0.824461
0.166366 0.563046 0.630662
0.339409 0.393092 0.402243
0.372694 0.372694 0.372694
0.379337 0.379337 0.379337
0.318769 0.488821 0.381365
0.183779 0.698634 0.373296
0.133333 0.772549 0.368627
0.133333 0.772549 0.368627
0.133333 0.772549 0.368627
0.133333 0.772549 0.368627
0.144610 0.759183 0.370833
0.281577 0.604034 0.400273
0.426182 0.453250 0.436146
0.445775 0.445775 0.445775
0.452419 0.452419 0.452419
0.555703 0.413555 0.576976
0.769058 0.315165 0.836988
0.850980 0.274510 0.937255
0.850980 0.274510 0.937255
0.850980 0.274510 0.937255
0.850980 0.274510 0.937255
0.849669 0.275346 0.935622
0.722095 0.360726 0.776178
0.549579 0.485994 0.559095
0.518856 0.518856 0.518856
0.525500 0.525500 0.525500
0.023529 0.713725 0.831373
0.023529 0.713725 0.831373
0.023529 0.713725 0.831373
0.060947 0.673274 0.777647
0.236852 0.491824 0.535285
0.367359 0.369580 0.369958
0.375113 0.375113 0.375113
0.375142 0.392161 0.381407
0.269910 0.566855 0.379215
0.148193 0.751115 0.370127
0.133333 0.772549 0.368627
0.133333 0.772549 0.368627
0.133333 0.772549 0.368627
0.133333 0.772549 0.368627
0.181442 0.716389 0.378355
0.343696 0.537025 0.414860
0.441550 0.441550 0.441550
0.448194 0.448194 0.448194
0.462533 0.451335 0.464209
0.633902 0.378714 0.672094
0.824908 0.287695 0.905307
0.850980 0.274510 0.937255
0.850980 0.274510 0.937255
0.850980 0.274510 0.937255
0.850980 0.274510 0.937255
0.823021 0.292649 0.902397
0.652550 0.409583 0.688912
0.519154 0.511402 0.520314
0.521275 0.521275 0.521275
0.527919 0.527919 0.527919
0.640746 0.580962 0.395088
0.848155 0.672285 0.125489
0.917647 0.701961 0.031373
0.116284 0.614847 0.699829
0.301488 0.428615 0.450284
0.370887 0.370887 0.370887
0.377531 0.377531 0.377531
0.349026 0.438596 0.381996
0.218700 0.645990 0.375985
0.133370 0.772498 0.368631
0.133333 0.772549 0.368627
0.133333 0.772549 0.368627
0.133333 0.772549 0.368627
0.133530 0.772313 0.368665
0.235442 0.655153 0.389937
0.397422 0.481328 0.428308
0.443969 0.443969 0.443969
0.450612 0.450612 0.450612
0.506339 0.434474 0.517095
0.714538 0.341268 0.770402
0.850464 0.274776 0.936622
0.850980 0.274510 0.937255
0.850980 0.274510 0.937255
0.850980 0.274510 0.937255
0.850980 0.274510 0.937255
0.770863 0.327408 0.837231
0.588085 0.456603 0.607762
0.517050 0.517050 0.517050
0.523694 0.523694 0.523694
0.542399 0.535682 0.514799
0.718522 0.615661 0.295855
0.898648 0.693918 0.057393
0.917647 0.701961 0.031373
0.917647 0.701961 0.031373
0.917647 0.701961 0.031373
0.917647 0.701961 0.031373
0.379950 0.379950 0.379950
0.307056 0.507805 0.380951
0.173287 0.714239 0.372411
0.133333 0.772549 0.368627
0.133333 0.772549 0.368627
0.133333 0.772549 0.368627
0.133333 0.772549 0.368627
0.151828 0.750712 0.372276
0.297569 0.586572 0.403951
0.432877 0.447202 0.438150
0.446387 0.446387 0.446387
0.453031 0.453031 0.453031
0.574592 0.405296 0.599929
0.785429 0.307197 0.857001
0.850980 0.274510 0.937255
0.850980 0.274510 0.937255
0.850980 0.274510 0.937255
0.850980 0.274510 0.937255
0.845972 0.277717 0.931017
0.704597 0.372865 0.754244
0.539266 0.494191 0.546012
0.519469 0.519469 0.519469
0.526112 0.526112 0.526112
0.590159 0.557992 0.457979
0.796662 0.649965 0.193868
0.917647 0.701961 0.031373
0.917647 0.701961 0.031373
0.917647 0.701961 0.031373
0.917647 0.701961 0.031373
0.917647 0.701961 0.031373
0.844921 0.675590 0.149126
0.666915 0.614246 0.450493
0.592550 0.592550 0.592550
0.133333 0.772549 0.368627
0.133333 0.772549 0.368627
0.133333 0.772549 0.368627
0.133333 0.772549 0.368627
0.193845 0.702182 0.380963
0.358480 0.521441 0.418466
0.442163 0.442163 0.442163
0.448806 0.448806 0.448806
0.470603 0.448518 0.473908
0.654578 0.369247 0.697280
0.834697 0.282784 0.917296
0.850980 0.274510 0.937255
0.850980 0.274510 0.937255
0.850980 0.274510 0.937255
0.850980 0.274510 0.937255
0.811770 0.300062 0.888352
0.635322 0.421958 0.667254
0.516355 0.514447 0.516641
0.521888 0.521888 0.521888
0.528539 0.528535 0.528521
0.659742 0.589495 0.371092
0.863301 0.678804 0.105185
0.917647 0.701961 0.031373
0.917647 0.701961 0.031373
0.917647 0.701961 0.031373
0.917647 0.701961 0.031373
0.914304 0.700722 0.036678
0.781197 0.653110 0.254876
0.617665 0.598449 0.538705
0.594969 0.594969 0.594969
0.601612 0.601612 0.601612
0.608256 0.608256 0.608256
0.614900 0.614900 0.614900
0.135447 0.770025 0.369034
0.250769 0.638049 0.393326
0.408525 0.470248 0.431245
0.444581 0.444581 0.444581
0.451225 0.451225 0.451225
0.521819 0.428040 0.535854
0.733886 0.332078 0.794020
0.850980 0.274510 0.937255
0.850980 0.274510 0.937255
0.850980 0.274510 0.937255
0.850980 0.274510 0.937255
0.850980 0.274510 0.937255
0.754973 0.338181 0.817350
0.573832 0.467320 0.589773
0.517662 0.517662 0.517662
0.524306 0.524306 0.524306
0.551736 0.540142 0.504097
0.738749 0.624590 0.269660
0.906878 0.697412 0.046164
0.917647 0.701961 0.031373
0.917647 0.701961 0.031373
0.917647 0.701961 0.031373
0.917647 0.701961 0.031373
0.883524 0.689472 0.086149
0.713608 0.629862 0.369490
0.592758 0.591429 0.587297
0.597387 0.597387 0.597387
0.604031 0.604031 0.604031
0.610675 0.610675 0.610675
0.617319 0.617319 0.617319
0.623962 0.623962 0.623962
0.630606 0.630606 0.630606
0.637250 0.637250 0.637250
0.447000 0.447000 0.447000
0.453899 0.453529 0.453954
0.594233 0.396595 0.623812
0.800412 0.299846 0.875327
0.850980 0.274510 0.937255
0.850980 0.274510 0.937255
0.850980 0.274510 0.937255
0.850980 0.274510 0.937255
0.840083 0.281519 0.923677
0.686908 0.385239 0.732055
0.530616 0.501278 0.535007
0.520081 0.520081 0.520081
0.526725 0.526725 0.526725
0.606212 0.565327 0.438212
0.815087 0.657978 0.169512
0.917647 0.701961 0.031373
0.917647 0.701961 0.031373
0.917647 0.701961 0.031373
0.917647 0.701961 0.031373
0.917647 0.701961 0.031373
0.829741 0.670188 0.174121
0.652687 0.609587 0.475585
0.593162 0.593162 0.593162
0.599806 0.599806 0.599806
0.606450 0.606450 0.606450
0.613094 0.613094 0.613094
0.619737 0.619737 0.619737
0.626381 0.626381 0.626381
0.633025 0.633025 0.633025
0.639669 0.639669 0.639669
0.646312 0.646312 0.646312
0.652956 0.652956 0.652956
0.659600 0.659600 0.659600
0.842356 0.278913 0.926681
0.850980 0.274510 0.937255
0.850980 0.274510 0.937255
0.850980 0.274510 0.937255
0.850980 0.274510 0.937255
0.799071 0.308488 0.872491
0.618596 0.434096 0.646208
0.515856 0.515856 0.515856
0.522500 0.522500 0.522500
0.530749 0.529858 0.527087
0.679341 0.598257 0.346161
0.876966 0.684665 0.086781
0.917647 0.701961 0.031373
0.917647 0.701961 0.031373
0.917647 0.701961 0.031373
0.917647 0.701961 0.031373
0.909305 0.698880 0.044649
0.764026 0.647143 0.283743
0.608668 0.595722 0.555470
0.595581 0.595581 0.595581
0.602225 0.602225 0.602225
0.608869 0.608869 0.608869
0.615513 0.615513 0.615513
0.622156 0.622156 0.622156
0.628800 0.628800 0.628800
0.635444 0.635444 0.635444
0.642088 0.642088 0.642088
0.648731 0.648731 0.648731
0.655375 0.655375 0.655375
0.662019 0.662019 0.662019
0.668662 0.668662 0.668662
0.675306 0.675306 0.675306
0.681950 0.681950 0.681950
0.850980 0.274510 0.937255
0.850974 0.274514 0.937247
0.738362 0.349529 0.796554
0.560753 0.477307 0.573242
0.518275 0.518275 0.518275
0.524919 0.524919 0.524919
0.563077 0.545471 0.490734
0.758803 0.633409 0.243546
0.912905 0.699962 0.037904
0.917647 0.701961 0.031373
0.917647 0.701961 0.031373
0.917647 0.701961 0.031373
0.917647 0.701961 0.031373
0.871637 0.685174 0.105446
0.697141 0.624306 0.397856
0.591476 0.591397 0.591151
0.598000 0.598000 0.598000
0.604644 0.604644 0.604644
0.611287 0.611287 0.611287
0.617931 0.617931 0.617931
0.624575 0.624575 0.624575
0.631219 0.631219 0.631219
0.637862 0.637862 0.637862
0.644506 0.644506 0.644506
0.651150 0.651150 0.651150
0.657794 0.657794 0.657794
0.664438 0.664438 0.664438
0.671081 0.671081 0.671081
0.677725 0.677725 0.677725
0.684369 0.684369 0.684369
0.691013 0.691013 0.691013
0.697656 0.697656 0.697656
0.704300 0.704300 0.704300
0.523793 0.507123 0.526287
0.520694 0.520694 0.520694
0.527338 0.527338 0.527338
0.623458 0.573157 0.416765
0.832582 0.665560 0.146272
0.917647 0.701961 0.031373
0.917647 0.701961 0.031373
0.917647 0.701961 0.031373
0.917647 0.701961 0.031373
0.917647 0.701961 0.031373
0.813798 0.664546 0.200506
0.639545 0.605341 0.498998
0.593775 0.593775 0.593775
0.600419 0.600419 0.600419
0.607063 0.607063 0.607063
0.613706 0.613706 0.613706
0.620350 0.620350 0.620350
0.626994 0.626994 0.626994
0.633638 0.633638 0.633638
0.640281 0.640281 0.640281
0.646925 0.646925 0.646925
0.653569 0.653569 0.653569
0.660212 0.660212 0.660212
0.666856 0.666856 0.666856
0.673500 0.673500 0.673500
0.680144 0.680144 0.680144
0.686787 0.686787 0.686787
0.693431 0.693431 0.693431
0.700075 0.700075 0.700075
0.706719 0.706719 0.706719
0.713363 0.713363 0.713363
0.720006 0.720006 0.720006
0.726650 0.726650 0.726650
0.699344 0.607160 0.320552
0.888967 0.689794 0.070547
0.917647 0.701961 0.031373
0.917647 0.701961 0.031373
0.917647 0.701961 0.031373
0.917647 0.701961 0.031373
0.902290 0.696306 0.055884
0.746781 0.641190 0.312899
0.601392 0.593607 0.569403
0.596194 0.596194 0.596194
0.602838 0.602838 0.602838
0.609481 0.609481 0.609481
0.616125 0.616125 0.616125
0.622769 0.622769 0.622769
0.629412 0.629412 0.629412
0.636056 0.636056 0.636056
0.642700 0.642700 0.642700
0.649344 0.649344 0.649344
0.655987 0.655987 0.655987
0.662631 0.662631 0.662631
0.669275 0.669275 0.669275
0.675919 0.675919 0.675919
0.682562 0.682562 0.682562
0.689206 0.689206 0.689206
0.695850 0.695850 0.695850
0.702494 0.702494 0.702494
0.709137 0.709137 0.709137
0.715781 0.715781 0.715781
0.722425 0.722425 0.722425
0.729069 0.729069 0.729069
0.735712 0.735712 0.735712
0.742356 0.742356 0.742356
0.749000 0.749000 0.749000
0.917647 0.701961 0.031373
0.917647 0.701961 0.031373
0.917647 0.701961 0.031373
0.858458 0.680434 0.126942
0.681271 0.618999 0.425391
0.591969 0.591969 0.591969
0.598612 0.598612 0.598612
0.605256 0.605256 0.605256
0.611900 0.611900 0.611900
0.618544 0.618544 0.618544
0.625188 0.625188 0.625188
0.631831 0.631831 0.631831
0.638475 0.638475 0.638475
0.645119 0.645119 0.645119
0.651763 0.651763 0.651763
0.658406 0.658406 0.658406
0.665050 0.665050 0.665050
0.671694 0.671694 0.671694
0.678338 0.678338 0.678338
0.684981 0.684981 0.684981
0.691625 0.691625 0.691625
0.698269 0.698269 0.698269
0.704912 0.704912 0.704912
0.711556 0.711556 0.711556
0.718200 0.718200 0.718200
0.724844 0.724844 0.724844
0.731487 0.731487 0.731487
0.738131 0.738131 0.738131
0.744775 0.744775 0.744775
0.751481 0.751257 0.751257
0.818440 0.592490 0.592490
0.913780 0.334425 0.334425
0.937255 0.266667 0.266667
0.797268 0.658730 0.228004
0.627651 0.601560 0.520442
0.594387 0.594387 0.594387
0.601031 0.601031 0.601031
0.607675 0.607675 0.607675
0.614319 0.614319 0.614319
