luts/FalseColor_flog2.cube
# False Color Exposure Monitor LUT
# Profile  : Fuji F-Log2
# Cameras  : X-H2S, X-H2, GFX100S II
# Generator: false_color_generator.py
#
# Zone Reference:
#   #ef4444     white_clip      log 0.600 - 1.000
#   #eab308     +2 stops        log 0.497 - 0.529
#   #d946ef     +1 stops        log 0.396 - 0.425
#   #22c55e     +0 stops        log 0.306 - 0.331
#   #06b6d4     -1 stops        log 0.232 - 0.252
#   #3b82f6     -2 stops        log 0.178 - 0.192
#   #6366f1     black_clip      log 0.000 - 0.100
#   Grayscale   = between zones / untagged
#
TITLE "FalseColor Fuji F-Log2"
LUT_3D_SIZE 9
DOMAIN_MIN 0.0 0.0 0.0
DOMAIN_MAX 1.0 1.0 1.0
0.194118 0.200000 0.472549
0.388235 0.400000 0.945098
0.388235 0.400000 0.945098
0.388235 0.400000 0.945098
0.106300 0.106300 0.106300
0.132875 0.132875 0.132875
0.159450 0.159450 0.159450
0.231373 0.509804 0.964706
0.212600 0.212600 0.212600
0.388235 0.400000 0.945098
0.115975 0.115975 0.115975
0.142550 0.142550 0.142550
0.169125 0.169125 0.169125
0.195700 0.195700 0.195700
0.222275 0.222275 0.222275
0.023529 0.713725 0.831373
0.275425 0.275425 0.275425
0.302000 0.302000 0.302000
0.217385 0.421738 0.755609
0.205375 0.205375 0.205375
0.134437 0.457357 0.512401
0.258525 0.258525 0.258525
0.285100 0.285100 0.285100
0.133333 0.772549 0.368627
0.338250 0.338250 0.338250
0.364825 0.364825 0.364825
0.391400 0.391400 0.391400
0.268200 0.268200 0.268200
0.294775 0.294775 0.294775
0.133333 0.772549 0.368627
0.347925 0.347925 0.347925
0.374500 0.374500 0.374500
0.850980 0.274510 0.937255
0.463909 0.414533 0.471299
0.454225 0.454225 0.454225
0.480800 0.480800 0.480800
0.357600 0.357600 0.357600
0.384175 0.384175 0.384175
0.850980 0.274510 0.937255
0.437325 0.437325 0.437325
0.463900 0.463900 0.463900
0.490475 0.490475 0.490475
0.917647 0.701961 0.031373
0.543625 0.543625 0.543625
0.570200 0.570200 0.570200
0.447000 0.447000 0.447000
0.473575 0.473575 0.473575
0.909014 0.697788 0.041066
0.896845 0.692636 0.057732
0.553300 0.553300 0.553300
0.579875 0.579875 0.579875
0.937255 0.266667 0.266667
0.937255 0.266667 0.266667
0.937255 0.266667 0.266667
0.536400 0.536400 0.536400
0.562975 0.562975 0.562975
0.589550 0.589550 0.589550
0.937255 0.266667 0.266667
0.937255 0.266667 0.266667
0.937255 0.266667 0.266667
0.937255 0.266667 0.266667
0.937255 0.266667 0.266667
0.937255 0.266667 0.266667
0.937255 0.266667 0.266667
0.937255 0.266667 0.266667
0.937255 0.266667 0.266667
0.937255 0.266667 0.266667
0.937255 0.266667 0.266667
0.937255 0.266667 0.266667
0.937255 0.266667 0.266667
0.937255 0.266667 0.266667
0.937255 0.266667 0.266667
0.937255 0.266667 0.266667
0.937255 0.266667 0.266667
0.937255 0.266667 0.266667
0.937255 0.266667 0.266667
0.937255 0.266667 0.266667
0.937255 0.266667 0.266667
0.937255 0.266667 0.266667
0.937255 0.266667 0.266667
0.937255 0.266667 0.266667
0.388235 0.400000 0.945098
0.388235 0.400000 0.945098
0.388235 0.400000 0.945098
0.388235 0.400000 0.945098
0.115325 0.115325 0.115325
0.141900 0.141900 0.141900
0.168475 0.168475 0.168475
0.195257 0.196844 0.199436
0.221625 0.221625 0.221625
0.336389 0.346049 0.793630
0.125000 0.125000 0.125000
0.151575 0.151575 0.151575
0.210040 0.376871 0.649440
0.204725 0.204725 0.204725
0.163068 0.389729 0.428365
0.257875 0.257875 0.257875
0.284450 0.284450 0.284450
0.133333 0.772549 0.368627
0.231373 0.509804 0.964706
0.214400 0.214400 0.214400
0.023529 0.713725 0.831373
0.267550 0.267550 0.267550
0.294125 0.294125 0.294125
0.133333 0.772549 0.368627
0.347275 0.347275 0.347275
0.373850 0.373850 0.373850
0.850980 0.274510 0.937255
0.277225 0.277225 0.277225
0.288301 0.346418 0.309694
0.185520 0.655439 0.358496
0.356950 0.356950 0.356950
0.383525 0.383525 0.383525
0.850980 0.274510 0.937255
0.436675 0.436675 0.436675
0.463250 0.463250 0.463250
0.489825 0.489825 0.489825
0.366625 0.366625 0.366625
0.402925 0.390679 0.404758
0.850980 0.274510 0.937255
0.446350 0.446350 0.446350
0.472925 0.472925 0.472925
0.881670 0.684541 0.071650
0.915361 0.700934 0.034261
0.552650 0.552650 0.552650
0.579225 0.579225 0.579225
0.456025 0.456025 0.456025
0.482600 0.482600 0.482600
0.917647 0.701961 0.031373
0.535750 0.535750 0.535750
0.562325 0.562325 0.562325
0.588900 0.588900 0.588900
0.937255 0.266667 0.266667
0.937255 0.266667 0.266667
0.937255 0.266667 0.266667
0.545425 0.545425 0.545425
0.572000 0.572000 0.572000
0.668162 0.530379 0.530379
0.937255 0.266667 0.266667
0.937255 0.266667 0.266667
0.937255 0.266667 0.266667
0.937255 0.266667 0.266667
0.937255 0.266667 0.266667
0.937255 0.266667 0.266667
0.937255 0.266667 0.266667
0.937255 0.266667 0.266667
0.937255 0.266667 0.266667
0.937255 0.266667 0.266667
0.937255 0.266667 0.266667
0.937255 0.266667 0.266667
0.937255 0.266667 0.266667
0.937255 0.266667 0.266667
0.937255 0.266667 0.266667
0.937255 0.266667 0.266667
0.937255 0.266667 0.266667
0.937255 0.266667 0.266667
0.937255 0.266667 0.266667
0.937255 0.266667 0.266667
0.937255 0.266667 0.266667
0.937255 0.266667 0.266667
0.937255 0.266667 0.266667
0.937255 0.266667 0.266667
0.388235 0.400000 0.945098
0.388235 0.400000 0.945098
0.388235 0.400000 0.945098
0.364774 0.375588 0.876656
0.124350 0.124350 0.124350
0.150925 0.150925 0.150925
0.202131 0.329432 0.537417
0.204075 0.204075 0.204075
0.188900 0.328025 0.351739
0.107450 0.107450 0.107450
0.134025 0.134025 0.134025
0.160600 0.160600 0.160600
0.231373 0.509804 0.964706
0.213750 0.213750 0.213750
0.023529 0.713725 0.831373
0.266900 0.266900 0.266900
0.293475 0.293475 0.293475
0.133333 0.772549 0.368627
0.196850 0.196850 0.196850
0.223425 0.223425 0.223425
0.039976 0.680050 0.789154
0.276575 0.276575 0.276575
0.299193 0.314087 0.304676
0.162366 0.707085 0.362876
0.356300 0.356300 0.356300
0.382875 0.382875 0.382875
0.850980 0.274510 0.937255
0.286250 0.286250 0.286250
0.133333 0.772549 0.368627
0.339400 0.339400 0.339400
0.365975 0.365975 0.365975
0.392550 0.392550 0.392550
0.850980 0.274510 0.937255
0.445700 0.445700 0.445700
0.472275 0.472275 0.472275
0.839731 0.664173 0.118346
0.375650 0.375650 0.375650
0.850980 0.274510 0.937255
0.428979 0.428735 0.429015
0.455375 0.455375 0.455375
0.481950 0.481950 0.481950
0.917647 0.701961 0.031373
0.535100 0.535100 0.535100
0.561675 0.561675 0.561675
0.588250 0.588250 0.588250
0.465050 0.465050 0.465050
0.491625 0.491625 0.491625
0.917647 0.701961 0.031373
0.544775 0.544775 0.544775
0.571350 0.571350 0.571350
0.632082 0.564580 0.564580
0.937255 0.266667 0.266667
0.937255 0.266667 0.266667
0.937255 0.266667 0.266667
0.554450 0.554450 0.554450
0.581025 0.581025 0.581025
0.937255 0.266667 0.266667
0.937255 0.266667 0.266667
0.937255 0.266667 0.266667
0.937255 0.266667 0.266667
0.937255 0.266667 0.266667
0.937255 0.266667 0.266667
0.937255 0.266667 0.266667
0.937255 0.266667 0.266667
0.937255 0.266667 0.266667
0.937255 0.266667 0.266667
0.937255 0.266667 0.266667
0.937255 0.266667 0.266667
0.937255 0.266667 0.266667
0.937255 0.266667 0.266667
0.937255 0.266667 0.266667
0.937255 0.266667 0.266667
0.937255 0.266667 0.266667
0.937255 0.266667 0.266667
0.937255 0.266667 0.266667
0.937255 0.266667 0.266667
0.937255 0.266667 0.266667
0.937255 0.266667 0.266667
0.937255 0.266667 0.266667
0.937255 0.266667 0.266667
0.937255 0.266667 0.266667
0.388235 0.400000 0.945098
0.388235 0.400000 0.945098
0.388235 0.400000 0.945098
0.106800 0.106800 0.106800
0.133375 0.133375 0.133375
0.159950 0.159950 0.159950
0.231373 0.509804 0.964706
0.213100 0.213100 0.213100
0.023529 0.713725 0.831373
0.116475 0.116475 0.116475
0.143050 0.143050 0.143050
0.169625 0.169625 0.169625
0.196200 0.196200 0.196200
0.222775 0.222775 0.222775
0.026680 0.707247 0.823252
0.275925 0.275925 0.275925
0.302500 0.302500 0.302500
0.144833 0.746495 0.366304
0.205875 0.205875 0.205875
0.111846 0.510277 0.578191
0.259025 0.259025 0.259025
0.285600 0.285600 0.285600
0.133333 0.772549 0.368627
0.338750 0.338750 0.338750
0.365325 0.365325 0.365325
0.391900 0.391900 0.391900
0.850980 0.274510 0.937255
0.295275 0.295275 0.295275
0.133333 0.772549 0.368627
0.348425 0.348425 0.348425
0.375000 0.375000 0.375000
0.850980 0.274510 0.937255
0.441637 0.423249 0.444388
0.454725 0.454725 0.454725
0.481300 0.481300 0.481300
0.917647 0.701961 0.031373
0.384675 0.384675 0.384675
0.850980 0.274510 0.937255
0.437825 0.437825 0.437825
0.464400 0.464400 0.464400
0.490975 0.490975 0.490975
0.917647 0.701961 0.031373
0.544125 0.544125 0.544125
0.570700 0.570700 0.570700
0.607058 0.587762 0.587762
0.474075 0.474075 0.474075
0.917457 0.701869 0.031586
0.872055 0.681556 0.089276
0.553800 0.553800 0.553800
0.580375 0.580375 0.580375
0.937255 0.266667 0.266667
0.937255 0.266667 0.266667
0.937255 0.266667 0.266667
0.937255 0.266667 0.266667
0.563475 0.563475 0.563475
0.590050 0.590050 0.590050
0.937255 0.266667 0.266667
0.937255 0.266667 0.266667
0.937255 0.266667 0.266667
0.937255 0.266667 0.266667
0.937255 0.266667 0.266667
0.937255 0.266667 0.266667
0.937255 0.266667 0.266667
0.937255 0.266667 0.266667
0.937255 0.266667 0.266667
0.937255 0.266667 0.266667
0.937255 0.266667 0.266667
0.937255 0.266667 0.266667
0.937255 0.266667 0.266667
0.937255 0.266667 0.266667
0.937255 0.266667 0.266667
0.937255 0.266667 0.266667
0.937255 0.266667 0.266667
0.937255 0.266667 0.266667
0.937255 0.266667 0.266667
0.937255 0.266667 0.266667
0.937255 0.266667 0.266667
0.937255 0.266667 0.266667
0.937255 0.266667 0.266667
0.937255 0.266667 0.266667
0.937255 0.266667 0.266667
0.388235 0.400000 0.945098
0.388235 0.400000 0.945098
0.388235 0.400000 0.945098
0.115825 0.115825 0.115825
0.142400 0.142400 0.142400
0.168975 0.168975 0.168975
0.195550 0.195550 0.195550
0.222125 0.222125 0.222125
0.023529 0.713725 0.831373
0.125500 0.125500 0.125500
0.152075 0.152075 0.152075
0.215768 0.411790 0.732052
0.205225 0.205225 0.205225
0.141181 0.441487 0.492675
0.258375 0.258375 0.258375
0.284950 0.284950 0.284950
0.133333 0.772549 0.368627
0.338100 0.338100 0.338100
0.214900 0.214900 0.214900
0.023529 0.713725 0.831373
0.268050 0.268050 0.268050
0.294625 0.294625 0.294625
0.133333 0.772549 0.368627
0.347775 0.347775 0.347775
0.374350 0.374350 0.374350
0.850980 0.274510 0.937255
0.472387 0.411284 0.481532
0.275809 0.382333 0.315020
0.205909 0.610280 0.354757
0.357450 0.357450 0.357450
0.384025 0.384025 0.384025
0.850980 0.274510 0.937255
0.437175 0.437175 0.437175
0.463750 0.463750 0.463750
0.490325 0.490325 0.490325
0.917647 0.701961 0.031373
0.425009 0.385539 0.430916
0.850980 0.274510 0.937255
0.446850 0.446850 0.446850
0.473425 0.473425 0.473425
0.904221 0.695469 0.046437
0.902615 0.695219 0.050407
0.553150 0.553150 0.553150
0.579725 0.579725 0.579725
0.937255 0.266667 0.266667
0.483100 0.483100 0.483100
0.917647 0.701961 0.031373
0.536250 0.536250 0.536250
0.562825 0.562825 0.562825
0.589400 0.589400 0.589400
0.937255 0.266667 0.266667
0.937255 0.266667 0.266667
0.937255 0.266667 0.266667
0.937255 0.266667 0.266667
0.572500 0.572500 0.572500
0.701208 0.498685 0.498685
0.937255 0.266667 0.266667
0.937255 0.266667 0.266667
0.937255 0.266667 0.266667
0.937255 0.266667 0.266667
0.937255 0.266667 0.266667
0.937255 0.266667 0.266667
0.937255 0.266667 0.266667
0.937255 0.266667 0.266667
0.937255 0.266667 0.266667
0.937255 0.266667 0.266667
0.937255 0.266667 0.266667
0.937255 0.266667 0.266667
0.937255 0.266667 0.266667
0.937255 0.266667 0.266667
0.937255 0.266667 0.266667
0.937255 0.266667 0.266667
0.937255 0.266667 0.266667
0.937255 0.266667 0.266667
0.937255 0.266667 0.266667
0.937255 0.266667 0.266667
0.937255 0.266667 0.266667
0.937255 0.266667 0.266667
0.937255 0.266667 0.266667
0.937255 0.266667 0.266667
0.937255 0.266667 0.266667
0.388235 0.400000 0.945098
0.388235 0.400000 0.945098
0.343680 0.353637 0.814975
0.124850 0.124850 0.124850
0.151425 0.151425 0.151425
0.208245 0.366028 0.623814
0.204575 0.204575 0.204575
0.169355 0.374782 0.409798
0.257725 0.257725 0.257725
0.134525 0.134525 0.134525
0.161100 0.161100 0.161100
0.231373 0.509804 0.964706
0.214250 0.214250 0.214250
0.023529 0.713725 0.831373
0.267400 0.267400 0.267400
0.293975 0.293975 0.293975
0.133333 0.772549 0.368627
0.347125 0.347125 0.347125
0.223925 0.223925 0.223925
0.055991 0.647475 0.748296
0.277075 0.277075 0.277075
0.291401 0.337371 0.308323
0.179781 0.668202 0.359568
0.356800 0.356800 0.356800
0.383375 0.383375 0.383375
0.850980 0.274510 0.937255
0.436525 0.436525 0.436525
0.133333 0.772549 0.368627
0.339900 0.339900 0.339900
0.366475 0.366475 0.366475
0.398562 0.391623 0.399600
0.850980 0.274510 0.937255
0.446200 0.446200 0.446200
0.472775 0.472775 0.472775
0.873133 0.680399 0.081174
0.917043 0.701689 0.032135
0.850980 0.274510 0.937255
0.429300 0.429300 0.429300
0.455875 0.455875 0.455875
0.482450 0.482450 0.482450
0.917647 0.701961 0.031373
0.535600 0.535600 0.535600
0.562175 0.562175 0.562175
0.588750 0.588750 0.588750
0.937255 0.266667 0.266667
0.492125 0.492125 0.492125
0.917647 0.701961 0.031373
0.545275 0.545275 0.545275
0.571850 0.571850 0.571850
0.659041 0.539074 0.539074
0.937255 0.266667 0.266667
0.937255 0.266667 0.266667
0.937255 0.266667 0.266667
0.937255 0.266667 0.266667
0.581525 0.581525 0.581525
0.937255 0.266667 0.266667
0.937255 0.266667 0.266667
0.937255 0.266667 0.266667
0.937255 0.266667 0.266667
0.937255 0.266667 0.266667
0.937255 0.266667 0.266667
0.937255 0.266667 0.266667
0.937255 0.266667 0.266667
0.937255 0.266667 0.266667
0.937255 0.266667 0.266667
0.937255 0.266667 0.266667
0.937255 0.266667 0.266667
0.937255 0.266667 0.266667
0.937255 0.266667 0.266667
0.937255 0.266667 0.266667
0.937255 0.266667 0.266667
0.937255 0.266667 0.266667
0.937255 0.266667 0.266667
0.937255 0.266667 0.266667
0.937255 0.266667 0.266667
0.937255 0.266667 0.266667
0.937255 0.266667 0.266667
0.937255 0.266667 0.266667
0.937255 0.266667 0.266667
0.937255 0.266667 0.266667
0.937255 0.266667 0.266667
0.388235 0.400000 0.945098
0.388235 0.400000 0.945098
0.107300 0.107300 0.107300
0.133875 0.133875 0.133875
0.160450 0.160450 0.160450
0.231373 0.509804 0.964706
0.213600 0.213600 0.213600
0.023529 0.713725 0.831373
0.266750 0.266750 0.266750
0.143550 0.143550 0.143550
0.170125 0.170125 0.170125
0.196700 0.196700 0.196700
0.223275 0.223275 0.223275
0.036085 0.687990 0.799110
0.276425 0.276425 0.276425
0.300689 0.309396 0.303894
0.157750 0.717434 0.363769
0.356150 0.356150 0.356150
0.089841 0.561491 0.641886
0.259525 0.259525 0.259525
0.286100 0.286100 0.286100
0.133333 0.772549 0.368627
0.339250 0.339250 0.339250
0.365825 0.365825 0.365825
0.392400 0.392400 0.392400
0.850980 0.274510 0.937255
0.445550 0.445550 0.445550
0.133333 0.772549 0.368627
0.348925 0.348925 0.348925
0.375500 0.375500 0.375500
0.850980 0.274510 0.937255
0.430070 0.428132 0.430360
0.455225 0.455225 0.455225
0.481800 0.481800 0.481800
0.917647 0.701961 0.031373
0.534950 0.534950 0.534950
0.850980 0.274510 0.937255
0.438325 0.438325 0.438325
0.464900 0.464900 0.464900
0.491475 0.491475 0.491475
0.917647 0.701961 0.031373
0.544625 0.544625 0.544625
0.571200 0.571200 0.571200
0.625196 0.571030 0.571030
0.937255 0.266667 0.266667
0.917647 0.701961 0.031373
0.840146 0.667330 0.130027
0.554300 0.554300 0.554300
0.580875 0.580875 0.580875
0.937255 0.266667 0.266667
0.937255 0.266667 0.266667
0.937255 0.266667 0.266667
0.937255 0.266667 0.266667
0.937255 0.266667 0.266667
0.590550 0.590550 0.590550
0.937255 0.266667 0.266667
0.937255 0.266667 0.266667
0.937255 0.266667 0.266667
0.937255 0.266667 0.266667
0.937255 0.266667 0.266667
0.937255 0.266667 0.266667
0.937255 0.266667 0.266667
0.937255 0.266667 0.266667
0.937255 0.266667 0.266667
0.937255 0.266667 0.266667
0.937255 0.266667 0.266667
0.937255 0.266667 0.266667
0.937255 0.266667 0.266667
0.937255 0.266667 0.266667
0.937255 0.266667 0.266667
0.937255 0.266667 0.266667
0.937255 0.266667 0.266667
0.937255 0.266667 0.266667
0.937255 0.266667 0.266667
0.937255 0.266667 0.266667
0.937255 0.266667 0.266667
0.937255 0.266667 0.266667
0.937255 0.266667 0.266667
0.937255 0.266667 0.266667
0.937255 0.266667 0.266667
0.937255 0.266667 0.266667
0.388235 0.400000 0.945098
0.388235 0.400000 0.945098
0.116325 0.116325 0.116325
0.142900 0.142900 0.142900
0.169475 0.169475 0.169475
0.196050 0.196050 0.196050
0.222625 0.222625 0.222625
0.025033 0.710630 0.827493
0.275775 0.275775 0.275775
0.152575 0.152575 0.152575
0.220923 0.443641 0.807518
0.205725 0.205725 0.205725
0.118607 0.494477 0.558546
0.258875 0.258875 0.258875
0.285450 0.285450 0.285450
0.133333 0.772549 0.368627
0.338600 0.338600 0.338600
0.365175 0.365175 0.365175
0.023529 0.713725 0.831373
0.268550 0.268550 0.268550
0.295125 0.295125 0.295125
0.133333 0.772549 0.368627
0.348275 0.348275 0.348275
0.374850 0.374850 0.374850
0.850980 0.274510 0.937255
0.447283 0.421003 0.451216
0.454575 0.454575 0.454575
0.227537 0.562692 0.350907
0.357950 0.357950 0.357950
0.384525 0.384525 0.384525
0.850980 0.274510 0.937255
0.437675 0.437675 0.437675
0.464250 0.464250 0.464250
0.490825 0.490825 0.490825
0.917647 0.701961 0.031373
0.543975 0.543975 0.543975
0.850980 0.274510 0.937255
0.447350 0.447350 0.447350
0.473925 0.473925 0.473925
0.916208 0.701266 0.032991
0.880324 0.685249 0.078742
0.553650 0.553650 0.553650
0.580225 0.580225 0.580225
0.937255 0.266667 0.266667
0.937255 0.266667 0.266667
0.917647 0.701961 0.031373
0.536750 0.536750 0.536750
0.563325 0.563325 0.563325
0.589900 0.589900 0.589900
0.937255 0.266667 0.266667
0.937255 0.266667 0.266667
0.937255 0.266667 0.266667
0.937255 0.266667 0.266667
0.937255 0.266667 0.266667
0.737090 0.464003 0.464003
0.937255 0.266667 0.266667
0.937255 0.266667 0.266667
0.937255 0.266667 0.266667
0.937255 0.266667 0.266667
0.937255 0.266667 0.266667
0.937255 0.266667 0.266667
0.937255 0.266667 0.266667
0.937255 0.266667 0.266667
0.937255 0.266667 0.266667
0.937255 0.266667 0.266667
0.937255 0.266667 0.266667
0.937255 0.266667 0.266667
0.937255 0.266667 0.266667
0.937255 0.266667 0.266667
0.937255 0.266667 0.266667
0.937255 0.266667 0.266667
0.937255 0.266667 0.266667
0.937255 0.266667 0.266667
0.937255 0.266667 0.266667
0.937255 0.266667 0.266667
0.937255 0.266667 0.266667
0.937255 0.266667 0.266667
0.937255 0.266667 0.266667
0.937255 0.266667 0.266667
0.937255 0.266667 0.266667
0.937255 0.266667 0.266667
0.388235 0.400000 0.945098
0.317971 0.326880 0.739661
0.125350 0.125350 0.125350
0.151925 0.151925 0.151925
0.214099 0.401567 0.707852
0.205075 0.205075 0.205075
0.147864 0.425727 0.473090
0.258225 0.258225 0.258225
0.284800 0.284800 0.284800
0.161600 0.161600 0.161600
0.231373 0.509804 0.964706
0.214750 0.214750 0.214750
0.023529 0.713725 0.831373
0.267900 0.267900 0.267900
0.294475 0.294475 0.294475
0.133333 0.772549 0.368627
0.347625 0.347625 0.347625
0.374200 0.374200 0.374200
0.075901 0.607191 0.697751
0.277575 0.277575 0.277575
0.279878 0.370706 0.313312
0.199621 0.624177 0.355899
0.357300 0.357300 0.357300
0.383875 0.383875 0.383875
0.850980 0.274510 0.937255
0.437025 0.437025 0.437025
0.463600 0.463600 0.463600
0.340400 0.340400 0.340400
0.366975 0.366975 0.366975
0.417243 0.387384 0.421711
0.850980 0.274510 0.937255
0.446700 0.446700 0.446700
0.473275 0.473275 0.473275
0.898478 0.692688 0.052867
0.907526 0.697420 0.044180
0.553000 0.553000 0.553000
0.429800 0.429800 0.429800
0.456375 0.456375 0.456375
0.482950 0.482950 0.482950
0.917647 0.701961 0.031373
0.536100 0.536100 0.536100
0.562675 0.562675 0.562675
0.589250 0.589250 0.589250
0.937255 0.266667 0.266667
0.937255 0.266667 0.266667
0.917647 0.701961 0.031373
0.545775 0.545775 0.545775
0.572350 0.572350 0.572350
0.690924 0.508577 0.508577
0.937255 0.266667 0.266667
0.937255 0.266667 0.266667
0.937255 0.266667 0.266667
0.937255 0.266667 0.266667
0.937255 0.266667 0.266667
0.937255 0.266667 0.266667
0.937255 0.266667 0.266667
0.937255 0.266667 0.266667
0.937255 0.266667 0.266667
0.937255 0.266667 0.266667
0.937255 0.266667 0.266667
0.937255 0.266667 0.266667
0.937255 0.266667 0.266667
0.937255 0.266667 0.266667
0.937255 0.266667 0.266667
0.937255 0.266667 0.266667
0.937255 0.266667 0.266667
0.937255 0.266667 0.266667
0.937255 0.266667 0.266667
0.937255 0.266667 0.266667
0.937255 0.266667 0.266667
0.937255 0.266667 0.266667
0.937255 0.266667 0.266667
0.937255 0.266667 0.266667
0.937255 0.266667 0.266667
0.937255 0.266667 0.266667
0.937255 0.266667 0.266667
0.937255 0.266667 0.266667
0.937255 0.266667 0.266667
0.937255 0.266667 0.266667
0.937255 0.266667 0.266667
0.968627 0.633333 0.633333
