luts/FalseColor_vlog.cube
# False Color Exposure Monitor LUT
# Profile  : Panasonic V-Log L
# Cameras  : GH5, GH6, S5, S5II, S1, BGH1, AU-EVA1
# Generator: false_color_generator.py
#
# Zone Reference:
#   #ef4444     white_clip      log 0.800 - 1.010
#   #eab308     +2 stops        log 0.543 - 0.587
#   #d946ef     +1 stops        log 0.472 - 0.515
#   #22c55e     +0 stops        log 0.403 - 0.444
#   #06b6d4     -1 stops        log 0.336 - 0.375
#   #3b82f6     -2 stops        log 0.274 - 0.310
#   #6366f1     black_clip      log 0.000 - 0.100
#   Grayscale   = between zones / untagged
#
TITLE "FalseColor Panasonic V-Log L"
LUT_3D_SIZE 5
DOMAIN_MIN 0.0 0.0 0.0
DOMAIN_MAX 1.0 1.0 1.0
0.194118 0.200000 0.472549
0.388235 0.400000 0.945098
0.117890 0.118374 0.140783
0.159450 0.159450 0.159450
0.212600 0.212600 0.212600
0.178800 0.178800 0.178800
0.231950 0.231950 0.231950
0.231373 0.509804 0.964706
0.109983 0.610583 0.695913
0.391400 0.391400 0.391400
0.023529 0.713725 0.831373
0.133455 0.772390 0.368646
0.463900 0.463900 0.463900
0.620958 0.441580 0.647803
0.917647 0.701961 0.031373
0.542444 0.539025 0.528393
0.669862 0.617066 0.452918
0.642700 0.642700 0.642700
0.695850 0.695850 0.695850
0.749000 0.749000 0.749000
0.715200 0.715200 0.715200
0.768350 0.768350 0.768350
0.937255 0.266667 0.266667
0.937255 0.266667 0.266667
0.937255 0.266667 0.266667
0.388235 0.400000 0.945098
0.388235 0.400000 0.945098
0.124350 0.124350 0.124350
0.177500 0.177500 0.177500
0.230650 0.230650 0.230650
0.196850 0.196850 0.196850
0.250000 0.250000 0.250000
0.232785 0.505738 0.951690
0.023529 0.713725 0.831373
0.139656 0.764235 0.369562
0.207305 0.537280 0.593526
0.133333 0.772549 0.368627
0.850980 0.274510 0.937255
0.535100 0.535100 0.535100
0.704366 0.628334 0.391945
0.917647 0.701961 0.031373
0.607600 0.607600 0.607600
0.660750 0.660750 0.660750
0.713900 0.713900 0.713900
0.767050 0.767050 0.767050
0.733250 0.733250 0.733250
0.786400 0.786400 0.786400
0.937255 0.266667 0.266667
0.937255 0.266667 0.266667
0.937255 0.266667 0.266667
0.388235 0.400000 0.945098
0.388235 0.400000 0.945098
0.142400 0.142400 0.142400
0.195550 0.195550 0.195550
0.248700 0.248700 0.248700
0.214900 0.214900 0.214900
0.265304 0.286150 0.320208
0.321200 0.321200 0.321200
0.165776 0.576119 0.646064
0.133333 0.772549 0.368627
0.393700 0.393700 0.393700
0.362131 0.534861 0.425713
0.850980 0.274510 0.937255
0.917647 0.701961 0.031373
0.606300 0.606300 0.606300
0.917647 0.701961 0.031373
0.625650 0.625650 0.625650
0.678800 0.678800 0.678800
0.731950 0.731950 0.731950
0.785100 0.785100 0.785100
0.751300 0.751300 0.751300
0.918971 0.340705 0.340705
0.937255 0.266667 0.266667
0.937255 0.266667 0.266667
0.937255 0.266667 0.266667
0.388235 0.400000 0.945098
0.110422 0.110552 0.116609
0.160450 0.160450 0.160450
0.213600 0.213600 0.213600
0.265948 0.272260 0.282572
0.232950 0.232950 0.232950
0.231373 0.509804 0.964706
0.085783 0.639887 0.734336
0.392400 0.392400 0.392400
0.326827 0.569894 0.416299
0.133333 0.772549 0.368627
0.468259 0.463243 0.469010
0.594748 0.461945 0.614624
0.917647 0.701961 0.031373
0.624350 0.624350 0.624350
0.646298 0.609538 0.495248
0.643700 0.643700 0.643700
0.696850 0.696850 0.696850
0.750000 0.750000 0.750000
0.906398 0.390107 0.390107
0.769350 0.769350 0.769350
0.937255 0.266667 0.266667
0.937255 0.266667 0.266667
0.937255 0.266667 0.266667
0.937255 0.266667 0.266667
0.388235 0.400000 0.945098
0.125350 0.125350 0.125350
0.178500 0.178500 0.178500
0.231650 0.231650 0.231650
0.231373 0.509804 0.964706
0.251000 0.251000 0.251000
0.235428 0.498344 0.927896
0.023529 0.713725 0.831373
0.134073 0.771582 0.368739
0.463600 0.463600 0.463600
0.133333 0.772549 0.368627
0.850980 0.274510 0.937255
0.539626 0.537633 0.531436
0.677490 0.619535 0.439349
0.642400 0.642400 0.642400
0.608600 0.608600 0.608600
0.661750 0.661750 0.661750
0.714900 0.714900 0.714900
0.768050 0.768050 0.768050
0.937255 0.266667 0.266667
0.787400 0.787400 0.787400
0.937255 0.266667 0.266667
0.937255 0.266667 0.266667
0.937255 0.266667 0.266667
0.937255 0.266667 0.266667
