luts/FalseColor_bmpfilm5.cube
# False Color Exposure Monitor LUT
# Profile  : Blackmagic Film Gen 5
# Cameras  : Pocket 6K G2, 6K Pro, 6K G2, URSA Mini Pro 12K
# Generator: false_color_lut_generator.py
#
# Zone Reference:
#   #ef4444     white_clip      log 0.750 - 1.000
#   #eab308     +2 stops        log 0.503 - 0.521
#   #d946ef     +1 stops        log 0.444 - 0.462
#   #22c55e     +0 stops        log 0.385 - 0.403
#   #06b6d4     -1 stops        log 0.328 - 0.345
#   #3b82f6     -2 stops        log 0.273 - 0.289
#   #6366f1     black_clip      log 0.000 - 0.100
#   Grayscale   = between zones / untagged
#
TITLE "FalseColor Blackmagic Film Gen 5"
LUT_3D_SIZE 9
DOMAIN_MIN 0.0 0.0 0.0
DOMAIN_MAX 1.0 1.0 1.0
0.194118 0.200000 0.472549
0.388235 0.400000 0.945098
0.388235 0.400000 0.945098
0.388235 0.400000 0.945098
0.106300 0.106300 0.106300
0.132875 0.132875 0.132875
0.159450 0.159450 0.159450
0.186025 0.186025 0.186025
0.212600 0.212600 0.212600
0.388235 0.400000 0.945098
0.115975 0.115975 0.115975
0.142550 0.142550 0.142550
0.169125 0.169125 0.169125
0.195700 0.195700 0.195700
0.222275 0.222275 0.222275
0.248850 0.248850 0.248850
0.231373 0.509804 0.964706
0.302000 0.302000 0.302000
0.178800 0.178800 0.178800
0.205375 0.205375 0.205375
0.231950 0.231950 0.231950
0.258525 0.258525 0.258525
0.231373 0.509804 0.964706
0.311675 0.311675 0.311675
0.023529 0.713725 0.831373
0.364825 0.364825 0.364825
0.133333 0.772549 0.368627
0.268200 0.268200 0.268200
0.294775 0.294775 0.294775
0.321350 0.321350 0.321350
0.347925 0.347925 0.347925
0.374500 0.374500 0.374500
0.156337 0.740633 0.371415
0.427650 0.427650 0.427650
0.850980 0.274510 0.937255
0.480800 0.480800 0.480800
0.357600 0.357600 0.357600
0.324468 0.476619 0.380474
0.410750 0.410750 0.410750
0.437325 0.437325 0.437325
0.464726 0.463496 0.464910
0.490475 0.490475 0.490475
0.917647 0.701961 0.031373
0.543625 0.543625 0.543625
0.570200 0.570200 0.570200
0.850980 0.274510 0.937255
0.473575 0.473575 0.473575
0.500150 0.500150 0.500150
0.526725 0.526725 0.526725
0.553300 0.553300 0.553300
0.579875 0.579875 0.579875
0.606450 0.606450 0.606450
0.633025 0.633025 0.633025
0.659600 0.659600 0.659600
0.536400 0.536400 0.536400
0.562975 0.562975 0.562975
0.589550 0.589550 0.589550
0.616125 0.616125 0.616125
0.642700 0.642700 0.642700
0.669275 0.669275 0.669275
0.695850 0.695850 0.695850
0.722425 0.722425 0.722425
0.786457 0.653030 0.653030
0.625800 0.625800 0.625800
0.652375 0.652375 0.652375
0.678950 0.678950 0.678950
0.705525 0.705525 0.705525
0.732100 0.732100 0.732100
0.937255 0.266667 0.266667
0.937255 0.266667 0.266667
0.937255 0.266667 0.266667
0.937255 0.266667 0.266667
0.715200 0.715200 0.715200
0.741775 0.741775 0.741775
0.937255 0.266667 0.266667
0.937255 0.266667 0.266667
0.937255 0.266667 0.266667
0.937255 0.266667 0.266667
0.937255 0.266667 0.266667
0.937255 0.266667 0.266667
0.937255 0.266667 0.266667
0.388235 0.400000 0.945098
0.388235 0.400000 0.945098
0.388235 0.400000 0.945098
0.388235 0.400000 0.945098
0.115325 0.115325 0.115325
0.141900 0.141900 0.141900
0.168475 0.168475 0.168475
0.195050 0.195050 0.195050
0.221625 0.221625 0.221625
0.367545 0.378470 0.884651
0.125000 0.125000 0.125000
0.151575 0.151575 0.151575
0.178150 0.178150 0.178150
0.204725 0.204725 0.204725
0.231300 0.231300 0.231300
0.257875 0.257875 0.257875
0.231373 0.509804 0.964706
0.311025 0.311025 0.311025
0.187825 0.187825 0.187825
0.214400 0.214400 0.214400
0.240975 0.240975 0.240975
0.267550 0.267550 0.267550
0.294125 0.294125 0.294125
0.320700 0.320700 0.320700
0.347275 0.347275 0.347275
0.373850 0.373850 0.373850
0.134677 0.770677 0.368787
0.231373 0.509804 0.964706
0.303800 0.303800 0.303800
0.023529 0.713725 0.831373
0.356950 0.356950 0.356950
0.362499 0.416219 0.382273
0.410100 0.410100 0.410100
0.436675 0.436675 0.436675
0.491046 0.449719 0.497231
0.489825 0.489825 0.489825
0.366625 0.366625 0.366625
0.133333 0.772549 0.368627
0.419775 0.419775 0.419775
0.850980 0.274510 0.937255
0.472925 0.472925 0.472925
0.499500 0.499500 0.499500
0.526075 0.526075 0.526075
0.552650 0.552650 0.552650
0.579225 0.579225 0.579225
0.850980 0.274510 0.937255
0.482600 0.482600 0.482600
0.917647 0.701961 0.031373
0.535750 0.535750 0.535750
0.562325 0.562325 0.562325
0.588900 0.588900 0.588900
0.615475 0.615475 0.615475
0.642050 0.642050 0.642050
0.668625 0.668625 0.668625
0.545425 0.545425 0.545425
0.572000 0.572000 0.572000
0.598575 0.598575 0.598575
0.625150 0.625150 0.625150
0.651725 0.651725 0.651725
0.678300 0.678300 0.678300
0.704875 0.704875 0.704875
0.731450 0.731450 0.731450
0.937255 0.266667 0.266667
0.634825 0.634825 0.634825
0.661400 0.661400 0.661400
0.687975 0.687975 0.687975
0.714550 0.714550 0.714550
0.741125 0.741125 0.741125
0.937255 0.266667 0.266667
0.937255 0.266667 0.266667
0.937255 0.266667 0.266667
0.937255 0.266667 0.266667
0.724225 0.724225 0.724225
0.889978 0.389421 0.389421
0.937255 0.266667 0.266667
0.937255 0.266667 0.266667
0.937255 0.266667 0.266667
0.937255 0.266667 0.266667
0.937255 0.266667 0.266667
0.937255 0.266667 0.266667
0.937255 0.266667 0.266667
0.388235 0.400000 0.945098
0.388235 0.400000 0.945098
0.388235 0.400000 0.945098
0.387720 0.399464 0.943595
0.124350 0.124350 0.124350
0.150925 0.150925 0.150925
0.177500 0.177500 0.177500
0.204075 0.204075 0.204075
0.230650 0.230650 0.230650
0.107450 0.107450 0.107450
0.134025 0.134025 0.134025
0.160600 0.160600 0.160600
0.187175 0.187175 0.187175
0.213750 0.213750 0.213750
0.240325 0.240325 0.240325
0.266900 0.266900 0.266900
0.293475 0.293475 0.293475
0.320050 0.320050 0.320050
0.196850 0.196850 0.196850
0.223425 0.223425 0.223425
0.250000 0.250000 0.250000
0.231373 0.509804 0.964706
0.303150 0.303150 0.303150
0.024224 0.712855 0.830235
0.356300 0.356300 0.356300
0.381743 0.384642 0.382810
0.409450 0.409450 0.409450
0.231373 0.509804 0.964706
0.312825 0.312825 0.312825
0.023529 0.713725 0.831373
0.365975 0.365975 0.365975
0.133333 0.772549 0.368627
0.419125 0.419125 0.419125
0.837283 0.280295 0.920642
0.472275 0.472275 0.472275
0.498850 0.498850 0.498850
0.375650 0.375650 0.375650
0.238223 0.628093 0.381733
0.428800 0.428800 0.428800
0.850980 0.274510 0.937255
0.481950 0.481950 0.481950
0.917647 0.701961 0.031373
0.535100 0.535100 0.535100
0.561675 0.561675 0.561675
0.588250 0.588250 0.588250
0.465050 0.465050 0.465050
0.491625 0.491625 0.491625
0.917647 0.701961 0.031373
0.544775 0.544775 0.544775
0.571350 0.571350 0.571350
0.597925 0.597925 0.597925
0.624500 0.624500 0.624500
0.651075 0.651075 0.651075
0.677650 0.677650 0.677650
0.554450 0.554450 0.554450
0.581025 0.581025 0.581025
0.607600 0.607600 0.607600
0.634175 0.634175 0.634175
0.660750 0.660750 0.660750
0.687325 0.687325 0.687325
0.713900 0.713900 0.713900
0.740475 0.740475 0.740475
0.937255 0.266667 0.266667
0.643850 0.643850 0.643850
0.670425 0.670425 0.670425
0.697000 0.697000 0.697000
0.723575 0.723575 0.723575
0.852687 0.485193 0.485193
0.937255 0.266667 0.266667
0.937255 0.266667 0.266667
0.937255 0.266667 0.266667
0.937255 0.266667 0.266667
0.733250 0.733250 0.733250
0.937255 0.266667 0.266667
0.937255 0.266667 0.266667
0.937255 0.266667 0.266667
0.937255 0.266667 0.266667
0.937255 0.266667 0.266667
0.937255 0.266667 0.266667
0.937255 0.266667 0.266667
0.937255 0.266667 0.266667
0.388235 0.400000 0.945098
0.388235 0.400000 0.945098
0.388235 0.400000 0.945098
0.106800 0.106800 0.106800
0.133375 0.133375 0.133375
0.159950 0.159950 0.159950
0.186525 0.186525 0.186525
0.213100 0.213100 0.213100
0.239675 0.239675 0.239675
0.116475 0.116475 0.116475
0.143050 0.143050 0.143050
0.169625 0.169625 0.169625
0.196200 0.196200 0.196200
0.222775 0.222775 0.222775
0.249350 0.249350 0.249350
0.231373 0.509804 0.964706
0.302500 0.302500 0.302500
0.047204 0.683922 0.792454
0.205875 0.205875 0.205875
0.232450 0.232450 0.232450
0.259025 0.259025 0.259025
0.231373 0.509804 0.964706
0.312175 0.312175 0.312175
0.023529 0.713725 0.831373
0.365325 0.365325 0.365325
0.133333 0.772549 0.368627
0.418475 0.418475 0.418475
0.295275 0.295275 0.295275
0.321850 0.321850 0.321850
0.348425 0.348425 0.348425
0.375000 0.375000 0.375000
0.187027 0.698291 0.375223
0.428150 0.428150 0.428150
0.850980 0.274510 0.937255
0.481300 0.481300 0.481300
0.917647 0.701961 0.031373
0.287415 0.534768 0.378465
0.411250 0.411250 0.411250
0.437825 0.437825 0.437825
0.464400 0.464400 0.464400
0.490975 0.490975 0.490975
0.917647 0.701961 0.031373
0.544125 0.544125 0.544125
0.570700 0.570700 0.570700
0.597275 0.597275 0.597275
0.474075 0.474075 0.474075
0.500650 0.500650 0.500650
0.527225 0.527225 0.527225
0.553800 0.553800 0.553800
0.580375 0.580375 0.580375
0.606950 0.606950 0.606950
0.633525 0.633525 0.633525
0.660100 0.660100 0.660100
0.686675 0.686675 0.686675
0.563475 0.563475 0.563475
0.590050 0.590050 0.590050
0.616625 0.616625 0.616625
0.643200 0.643200 0.643200
0.669775 0.669775 0.669775
0.696350 0.696350 0.696350
0.722925 0.722925 0.722925
0.813743 0.584291 0.584291
0.937255 0.266667 0.266667
0.652875 0.652875 0.652875
0.679450 0.679450 0.679450
0.706025 0.706025 0.706025
0.732600 0.732600 0.732600
0.937255 0.266667 0.266667
0.937255 0.266667 0.266667
0.937255 0.266667 0.266667
0.937255 0.266667 0.266667
0.937255 0.266667 0.266667
0.742275 0.742275 0.742275
0.937255 0.266667 0.266667
0.937255 0.266667 0.266667
0.937255 0.266667 0.266667
0.937255 0.266667 0.266667
0.937255 0.266667 0.266667
0.937255 0.266667 0.266667
0.937255 0.266667 0.266667
0.937255 0.266667 0.266667
0.388235 0.400000 0.945098
0.388235 0.400000 0.945098
0.388235 0.400000 0.945098
0.115825 0.115825 0.115825
0.142400 0.142400 0.142400
0.168975 0.168975 0.168975
0.195550 0.195550 0.195550
0.222125 0.222125 0.222125
0.248700 0.248700 0.248700
0.125500 0.125500 0.125500
0.152075 0.152075 0.152075
0.178650 0.178650 0.178650
0.205225 0.205225 0.205225
0.231800 0.231800 0.231800
0.258375 0.258375 0.258375
0.231373 0.509804 0.964706
0.311525 0.311525 0.311525
0.023529 0.713725 0.831373
0.214900 0.214900 0.214900
0.241475 0.241475 0.241475
0.268050 0.268050 0.268050
0.294625 0.294625 0.294625
0.321200 0.321200 0.321200
0.347775 0.347775 0.347775
0.374350 0.374350 0.374350
0.149258 0.750433 0.370550
0.427500 0.427500 0.427500
0.304300 0.304300 0.304300
0.023529 0.713725 0.831373
0.357450 0.357450 0.357450
0.334497 0.460784 0.380983
0.410600 0.410600 0.410600
0.437175 0.437175 0.437175
0.467570 0.461883 0.468421
0.490325 0.490325 0.490325
0.917647 0.701961 0.031373
0.133333 0.772549 0.368627
0.420275 0.420275 0.420275
0.850980 0.274510 0.937255
0.473425 0.473425 0.473425
0.500000 0.500000 0.500000
0.526575 0.526575 0.526575
0.553150 0.553150 0.553150
0.579725 0.579725 0.579725
0.606300 0.606300 0.606300
0.483100 0.483100 0.483100
0.917647 0.701961 0.031373
0.536250 0.536250 0.536250
0.562825 0.562825 0.562825
0.589400 0.589400 0.589400
0.615975 0.615975 0.615975
0.642550 0.642550 0.642550
0.669125 0.669125 0.669125
0.695700 0.695700 0.695700
0.572500 0.572500 0.572500
0.599075 0.599075 0.599075
0.625650 0.625650 0.625650
0.652225 0.652225 0.652225
0.678800 0.678800 0.678800
0.705375 0.705375 0.705375
0.731950 0.731950 0.731950
0.937255 0.266667 0.266667
0.937255 0.266667 0.266667
0.661900 0.661900 0.661900
0.688475 0.688475 0.688475
0.715050 0.715050 0.715050
0.741625 0.741625 0.741625
0.937255 0.266667 0.266667
0.937255 0.266667 0.266667
0.937255 0.266667 0.266667
0.937255 0.266667 0.266667
0.937255 0.266667 0.266667
0.913793 0.327812 0.327812
0.937255 0.266667 0.266667
0.937255 0.266667 0.266667
0.937255 0.266667 0.266667
0.937255 0.266667 0.266667
0.937255 0.266667 0.266667
0.937255 0.266667 0.266667
0.937255 0.266667 0.266667
0.937255 0.266667 0.266667
0.388235 0.400000 0.945098
0.388235 0.400000 0.945098
0.374538 0.385747 0.905094
0.124850 0.124850 0.124850
0.151425 0.151425 0.151425
0.178000 0.178000 0.178000
0.204575 0.204575 0.204575
0.231150 0.231150 0.231150
0.257725 0.257725 0.257725
0.134525 0.134525 0.134525
0.161100 0.161100 0.161100
0.187675 0.187675 0.187675
0.214250 0.214250 0.214250
0.240825 0.240825 0.240825
0.267400 0.267400 0.267400
0.293975 0.293975 0.293975
0.320550 0.320550 0.320550
0.347125 0.347125 0.347125
0.223925 0.223925 0.223925
0.250500 0.250500 0.250500
0.231373 0.509804 0.964706
0.303650 0.303650 0.303650
0.023529 0.713725 0.831373
0.356800 0.356800 0.356800
0.368895 0.405912 0.382521
0.409950 0.409950 0.409950
0.436525 0.436525 0.436525
0.313325 0.313325 0.313325
0.023529 0.713725 0.831373
0.366475 0.366475 0.366475
0.133333 0.772549 0.368627
0.419625 0.419625 0.419625
0.850950 0.274523 0.937218
0.472775 0.472775 0.472775
0.499350 0.499350 0.499350
0.525925 0.525925 0.525925
0.281358 0.569339 0.387363
0.429300 0.429300 0.429300
0.850980 0.274510 0.937255
0.482450 0.482450 0.482450
0.917647 0.701961 0.031373
0.535600 0.535600 0.535600
0.562175 0.562175 0.562175
0.588750 0.588750 0.588750
0.615325 0.615325 0.615325
0.492125 0.492125 0.492125
0.917647 0.701961 0.031373
0.545275 0.545275 0.545275
0.571850 0.571850 0.571850
0.598425 0.598425 0.598425
0.625000 0.625000 0.625000
0.651575 0.651575 0.651575
0.678150 0.678150 0.678150
0.704725 0.704725 0.704725
0.581525 0.581525 0.581525
0.608100 0.608100 0.608100
0.634675 0.634675 0.634675
0.661250 0.661250 0.661250
0.687825 0.687825 0.687825
0.714400 0.714400 0.714400
0.740975 0.740975 0.740975
0.937255 0.266667 0.266667
0.937255 0.266667 0.266667
0.670925 0.670925 0.670925
0.697500 0.697500 0.697500
0.724075 0.724075 0.724075
0.881833 0.410412 0.410412
0.937255 0.266667 0.266667
0.937255 0.266667 0.266667
0.937255 0.266667 0.266667
0.937255 0.266667 0.266667
0.937255 0.266667 0.266667
0.937255 0.266667 0.266667
0.937255 0.266667 0.266667
0.937255 0.266667 0.266667
0.937255 0.266667 0.266667
0.937255 0.266667 0.266667
0.937255 0.266667 0.266667
0.937255 0.266667 0.266667
0.937255 0.266667 0.266667
0.937255 0.266667 0.266667
0.388235 0.400000 0.945098
0.388235 0.400000 0.945098
0.107300 0.107300 0.107300
0.133875 0.133875 0.133875
0.160450 0.160450 0.160450
0.187025 0.187025 0.187025
0.213600 0.213600 0.213600
0.240175 0.240175 0.240175
0.266750 0.266750 0.266750
0.143550 0.143550 0.143550
0.170125 0.170125 0.170125
0.196700 0.196700 0.196700
0.223275 0.223275 0.223275
0.249850 0.249850 0.249850
0.231373 0.509804 0.964706
0.303000 0.303000 0.303000
0.026780 0.709645 0.826043
0.356150 0.356150 0.356150
0.232950 0.232950 0.232950
0.259525 0.259525 0.259525
0.231373 0.509804 0.964706
0.312675 0.312675 0.312675
0.023529 0.713725 0.831373
0.365825 0.365825 0.365825
0.133333 0.772549 0.368627
0.418975 0.418975 0.418975
0.828819 0.283859 0.910378
0.322350 0.322350 0.322350
0.348925 0.348925 0.348925
0.375500 0.375500 0.375500
0.225664 0.645266 0.380119
0.428650 0.428650 0.428650
0.850980 0.274510 0.937255
0.481800 0.481800 0.481800
0.917647 0.701961 0.031373
0.534950 0.534950 0.534950
0.411750 0.411750 0.411750
0.438325 0.438325 0.438325
0.464900 0.464900 0.464900
0.491475 0.491475 0.491475
0.917647 0.701961 0.031373
0.544625 0.544625 0.544625
0.571200 0.571200 0.571200
0.597775 0.597775 0.597775
0.624350 0.624350 0.624350
0.502607 0.501853 0.499506
0.527725 0.527725 0.527725
0.554300 0.554300 0.554300
0.580875 0.580875 0.580875
0.607450 0.607450 0.607450
0.634025 0.634025 0.634025
0.660600 0.660600 0.660600
0.687175 0.687175 0.687175
0.713750 0.713750 0.713750
0.590550 0.590550 0.590550
0.617125 0.617125 0.617125
0.643700 0.643700 0.643700
0.670275 0.670275 0.670275
0.696850 0.696850 0.696850
0.723425 0.723425 0.723425
0.843627 0.508333 0.508333
0.937255 0.266667 0.266667
0.937255 0.266667 0.266667
0.679950 0.679950 0.679950
0.706525 0.706525 0.706525
0.733100 0.733100 0.733100
0.937255 0.266667 0.266667
0.937255 0.266667 0.266667
0.937255 0.266667 0.266667
0.937255 0.266667 0.266667
0.937255 0.266667 0.266667
0.937255 0.266667 0.266667
0.937255 0.266667 0.266667
0.937255 0.266667 0.266667
0.937255 0.266667 0.266667
0.937255 0.266667 0.266667
0.937255 0.266667 0.266667
0.937255 0.266667 0.266667
0.937255 0.266667 0.266667
0.937255 0.266667 0.266667
0.937255 0.266667 0.266667
0.388235 0.400000 0.945098
0.388235 0.400000 0.945098
0.116325 0.116325 0.116325
0.142900 0.142900 0.142900
0.169475 0.169475 0.169475
0.196050 0.196050 0.196050
0.222625 0.222625 0.222625
0.249200 0.249200 0.249200
0.231373 0.509804 0.964706
0.152575 0.152575 0.152575
0.179150 0.179150 0.179150
0.205725 0.205725 0.205725
0.232300 0.232300 0.232300
0.258875 0.258875 0.258875
0.231373 0.509804 0.964706
0.312025 0.312025 0.312025
0.023529 0.713725 0.831373
0.365175 0.365175 0.365175
0.241975 0.241975 0.241975
0.268550 0.268550 0.268550
0.295125 0.295125 0.295125
0.321700 0.321700 0.321700
0.348275 0.348275 0.348275
0.374850 0.374850 0.374850
0.176809 0.712364 0.373946
0.428000 0.428000 0.428000
0.850980 0.274510 0.937255
0.023529 0.713725 0.831373
0.357950 0.357950 0.357950
0.298988 0.516656 0.379112
0.411100 0.411100 0.411100
0.437675 0.437675 0.437675
0.464250 0.464250 0.464250
0.490825 0.490825 0.490825
0.917647 0.701961 0.031373
0.543975 0.543975 0.543975
0.420775 0.420775 0.420775
0.850980 0.274510 0.937255
0.473925 0.473925 0.473925
0.500500 0.500500 0.500500
0.527075 0.527075 0.527075
0.553650 0.553650 0.553650
0.580225 0.580225 0.580225
0.606800 0.606800 0.606800
0.633375 0.633375 0.633375
0.917647 0.701961 0.031373
0.536750 0.536750 0.536750
0.563325 0.563325 0.563325
0.589900 0.589900 0.589900
0.616475 0.616475 0.616475
0.643050 0.643050 0.643050
0.669625 0.669625 0.669625
0.696200 0.696200 0.696200
0.722775 0.722775 0.722775
0.599575 0.599575 0.599575
0.626150 0.626150 0.626150
0.652725 0.652725 0.652725
0.679300 0.679300 0.679300
0.705875 0.705875 0.705875
0.732450 0.732450 0.732450
0.937255 0.266667 0.266667
0.937255 0.266667 0.266667
0.937255 0.266667 0.266667
0.688975 0.688975 0.688975
0.715550 0.715550 0.715550
0.742125 0.742125 0.742125
0.937255 0.266667 0.266667
0.937255 0.266667 0.266667
0.937255 0.266667 0.266667
0.937255 0.266667 0.266667
0.937255 0.266667 0.266667
0.937255 0.266667 0.266667
0.937255 0.266667 0.266667
0.937255 0.266667 0.266667
0.937255 0.266667 0.266667
0.937255 0.266667 0.266667
0.937255 0.266667 0.266667
0.937255 0.266667 0.266667
0.937255 0.266667 0.266667
0.937255 0.266667 0.266667
0.937255 0.266667 0.266667
0.388235 0.400000 0.945098
0.346782 0.356862 0.823898
0.125350 0.125350 0.125350
0.151925 0.151925 0.151925
0.178500 0.178500 0.178500
0.205075 0.205075 0.205075
0.231650 0.231650 0.231650
0.258225 0.258225 0.258225
0.231373 0.509804 0.964706
0.161600 0.161600 0.161600
0.188175 0.188175 0.188175
0.214750 0.214750 0.214750
0.241325 0.241325 0.241325
0.267900 0.267900 0.267900
0.294475 0.294475 0.294475
0.321050 0.321050 0.321050
0.347625 0.347625 0.347625
0.374200 0.374200 0.374200
0.251000 0.251000 0.251000
0.231373 0.509804 0.964706
0.304150 0.304150 0.304150
0.023529 0.713725 0.831373
0.357300 0.357300 0.357300
0.343851 0.445966 0.381439
0.410450 0.410450 0.410450
0.437025 0.437025 0.437025
0.472464 0.459273 0.474439
0.023529 0.713725 0.831373
0.366975 0.366975 0.366975
0.133333 0.772549 0.368627
0.420125 0.420125 0.420125
0.850980 0.274510 0.937255
0.473275 0.473275 0.473275
0.499850 0.499850 0.499850
0.526425 0.526425 0.526425
0.553000 0.553000 0.553000
0.429800 0.429800 0.429800
0.850980 0.274510 0.937255
0.482950 0.482950 0.482950
0.917647 0.701961 0.031373
0.536100 0.536100 0.536100
0.562675 0.562675 0.562675
0.589250 0.589250 0.589250
0.615825 0.615825 0.615825
0.642400 0.642400 0.642400
0.913819 0.700205 0.036059
0.545775 0.545775 0.545775
0.572350 0.572350 0.572350
0.598925 0.598925 0.598925
0.625500 0.625500 0.625500
0.652075 0.652075 0.652075
0.678650 0.678650 0.678650
0.705225 0.705225 0.705225
0.731800 0.731800 0.731800
0.608600 0.608600 0.608600
0.635175 0.635175 0.635175
0.661750 0.661750 0.661750
0.688325 0.688325 0.688325
0.714900 0.714900 0.714900
0.741475 0.741475 0.741475
0.937255 0.266667 0.266667
0.937255 0.266667 0.266667
0.937255 0.266667 0.266667
0.698000 0.698000 0.698000
0.724575 0.724575 0.724575
0.907282 0.344695 0.344695
0.937255 0.266667 0.266667
0.937255 0.266667 0.266667
0.937255 0.266667 0.266667
0.937255 0.266667 0.266667
0.937255 0.266667 0.266667
0.937255 0.266667 0.266667
0.937255 0.266667 0.266667
0.937255 0.266667 0.266667
0.937255 0.266667 0.266667
0.937255 0.266667 0.266667
0.937255 0.266667 0.266667
0.937255 0.266667 0.266667
0.937255 0.266667 0.266667
0.937255 0.266667 0.266667
0.968627 0.633333 0.633333
