luts/FalseColor_flog2.cube
# False Color Exposure Monitor LUT
# Profile  : Fuji F-Log2
# Cameras  : X-H2S, X-H2, GFX100S II
# Generator: false_color_generator.py
#
# Zone Reference:
#   #ef4444     white_clip      log 0.600 - 1.000
#   #eab308     +2 stops        log 0.497 - 0.529
#   #d946ef     +1 stops        log 0.396 - 0.425
#   #22c55e     +0 stops        log 0.306 - 0.331
#   #06b6d4     -1 stops        log 0.232 - 0.252
#   #3b82f6     -2 stops        log 0.178 - 0.192
#   #6366f1     black_clip      log 0.000 - 0.100
#   Grayscale   = between zones / untagged
#
TITLE "FalseColor Fuji F-Log2"
LUT_3D_SIZE 5
DOMAIN_MIN 0.0 0.0 0.0
DOMAIN_MAX 1.0 1.0 1.0
0.194118 0.200000 0.472549
0.388235 0.400000 0.945098
0.106300 0.106300 0.106300
0.159450 0.159450 0.159450
0.212600 0.212600 0.212600
0.217385 0.421738 0.755609
0.134437 0.457357 0.512401
0.285100 0.285100 0.285100
0.338250 0.338250 0.338250
0.391400 0.391400 0.391400
0.357600 0.357600 0.357600
0.850980 0.274510 0.937255
0.463900 0.463900 0.463900
0.917647 0.701961 0.031373
0.570200 0.570200 0.570200
0.536400 0.536400 0.536400
0.589550 0.589550 0.589550
0.937255 0.266667 0.266667
0.937255 0.266667 0.266667
0.937255 0.266667 0.266667
0.937255 0.266667 0.266667
0.937255 0.266667 0.266667
0.937255 0.266667 0.266667
0.937255 0.266667 0.266667
0.937255 0.266667 0.266667
0.388235 0.400000 0.945098
0.388235 0.400000 0.945098
0.124350 0.124350 0.124350
0.202131 0.329432 0.537417
0.188900 0.328025 0.351739
0.196850 0.196850 0.196850
0.039976 0.680050 0.789154
0.299193 0.314087 0.304676
0.356300 0.356300 0.356300
0.850980 0.274510 0.937255
0.375650 0.375650 0.375650
0.428979 0.428735 0.429015
0.481950 0.481950 0.481950
0.535100 0.535100 0.535100
0.588250 0.588250 0.588250
0.554450 0.554450 0.554450
0.937255 0.266667 0.266667
0.937255 0.266667 0.266667
0.937255 0.266667 0.266667
0.937255 0.266667 0.266667
0.937255 0.266667 0.266667
0.937255 0.266667 0.266667
0.937255 0.266667 0.266667
0.937255 0.266667 0.266667
0.937255 0.266667 0.266667
0.388235 0.400000 0.945098
0.388235 0.400000 0.945098
0.142400 0.142400 0.142400
0.195550 0.195550 0.195550
0.023529 0.713725 0.831373
0.214900 0.214900 0.214900
0.268050 0.268050 0.268050
0.133333 0.772549 0.368627
0.374350 0.374350 0.374350
0.472387 0.411284 0.481532
0.425009 0.385539 0.430916
0.446850 0.446850 0.446850
0.904221 0.695469 0.046437
0.553150 0.553150 0.553150
0.937255 0.266667 0.266667
0.572500 0.572500 0.572500
0.937255 0.266667 0.266667
0.937255 0.266667 0.266667
0.937255 0.266667 0.266667
0.937255 0.266667 0.266667
0.937255 0.266667 0.266667
0.937255 0.266667 0.266667
0.937255 0.266667 0.266667
0.937255 0.266667 0.266667
0.937255 0.266667 0.266667
0.388235 0.400000 0.945098
0.107300 0.107300 0.107300
0.160450 0.160450 0.160450
0.213600 0.213600 0.213600
0.266750 0.266750 0.266750
0.089841 0.561491 0.641886
0.286100 0.286100 0.286100
0.339250 0.339250 0.339250
0.392400 0.392400 0.392400
0.445550 0.445550 0.445550
0.850980 0.274510 0.937255
0.464900 0.464900 0.464900
0.917647 0.701961 0.031373
0.571200 0.571200 0.571200
0.937255 0.266667 0.266667
0.590550 0.590550 0.590550
0.937255 0.266667 0.266667
0.937255 0.266667 0.266667
0.937255 0.266667 0.266667
0.937255 0.266667 0.266667
0.937255 0.266667 0.266667
0.937255 0.266667 0.266667
0.937255 0.266667 0.266667
0.937255 0.266667 0.266667
0.937255 0.266667 0.266667
0.388235 0.400000 0.945098
0.125350 0.125350 0.125350
0.214099 0.401567 0.707852
0.147864 0.425727 0.473090
0.284800 0.284800 0.284800
0.075901 0.607191 0.697751
0.279878 0.370706 0.313312
0.357300 0.357300 0.357300
0.850980 0.274510 0.937255
0.463600 0.463600 0.463600
0.429800 0.429800 0.429800
0.482950 0.482950 0.482950
0.536100 0.536100 0.536100
0.589250 0.589250 0.589250
0.937255 0.266667 0.266667
0.937255 0.266667 0.266667
0.937255 0.266667 0.266667
0.937255 0.266667 0.266667
0.937255 0.266667 0.266667
0.937255 0.266667 0.266667
0.937255 0.266667 0.266667
0.937255 0.266667 0.266667
0.937255 0.266667 0.266667
0.937255 0.266667 0.266667
0.968627 0.633333 0.633333
