luts/FalseColor_slog3.cube
# False Color Exposure Monitor LUT
# Profile  : Sony S-Log3
# Cameras  : A7S III, A7 IV, FX3, FX6, FX9, ZV-E1, Venice
# Generator: false_color_generator.py
#
# Zone Reference:
#   #ef4444     white_clip      log 0.760 - 1.000
#   #eab308     +2 stops        log 0.537 - 0.583
#   #d946ef     +1 stops        log 0.462 - 0.507
#   #22c55e     +0 stops        log 0.389 - 0.433
#   #06b6d4     -1 stops        log 0.319 - 0.360
#   #3b82f6     -2 stops        log 0.254 - 0.292
#   #6366f1     black_clip      log 0.000 - 0.100
#   Grayscale   = between zones / untagged
#
TITLE "FalseColor Sony S-Log3"
LUT_3D_SIZE 5
DOMAIN_MIN 0.0 0.0 0.0
DOMAIN_MAX 1.0 1.0 1.0
0.194118 0.200000 0.472549
0.388235 0.400000 0.945098
0.121470 0.122103 0.151433
0.159450 0.159450 0.159450
0.212600 0.212600 0.212600
0.178800 0.178800 0.178800
0.231950 0.231950 0.231950
0.232797 0.503848 0.946691
0.023529 0.713725 0.831373
0.206944 0.663831 0.375123
0.116284 0.614847 0.699829
0.133333 0.772549 0.368627
0.714538 0.341268 0.770402
0.517050 0.517050 0.517050
0.917647 0.701961 0.031373
0.699344 0.607160 0.320552
0.601392 0.593607 0.569403
0.642700 0.642700 0.642700
0.695850 0.695850 0.695850
0.749000 0.749000 0.749000
0.715200 0.715200 0.715200
0.936973 0.267503 0.267503
0.937255 0.266667 0.266667
0.937255 0.266667 0.266667
0.937255 0.266667 0.266667
0.388235 0.400000 0.945098
0.388235 0.400000 0.945098
0.124350 0.124350 0.124350
0.177500 0.177500 0.177500
0.230650 0.230650 0.230650
0.196850 0.196850 0.196850
0.247132 0.290007 0.360058
0.303150 0.303150 0.303150
0.084330 0.648420 0.744572
0.133333 0.772549 0.368627
0.375650 0.375650 0.375650
0.192272 0.703979 0.380630
0.850980 0.274510 0.937255
0.657380 0.588436 0.374085
0.618877 0.598823 0.536471
0.917647 0.701961 0.031373
0.607600 0.607600 0.607600
0.660750 0.660750 0.660750
0.713900 0.713900 0.713900
0.932680 0.280117 0.280117
0.733250 0.733250 0.733250
0.937255 0.266667 0.266667
0.937255 0.266667 0.266667
0.937255 0.266667 0.266667
0.937255 0.266667 0.266667
0.388235 0.400000 0.945098
0.388235 0.400000 0.945098
0.142400 0.142400 0.142400
0.195550 0.195550 0.195550
0.247311 0.269629 0.306092
0.214900 0.214900 0.214900
0.231373 0.509804 0.964706
0.111690 0.597472 0.680276
0.374350 0.374350 0.374350
0.167559 0.732404 0.375477
0.165962 0.725072 0.371770
0.446850 0.446850 0.446850
0.841717 0.280461 0.925715
0.917647 0.701961 0.031373
0.606300 0.606300 0.606300
0.917647 0.701961 0.031373
0.625650 0.625650 0.625650
0.678800 0.678800 0.678800
0.731950 0.731950 0.731950
0.937255 0.266667 0.266667
0.751308 0.751279 0.751279
0.937255 0.266667 0.266667
0.937255 0.266667 0.266667
0.937255 0.266667 0.266667
0.937255 0.266667 0.266667
0.388235 0.400000 0.945098
0.112868 0.113101 0.123906
0.160450 0.160450 0.160450
0.213600 0.213600 0.213600
0.231373 0.509804 0.964706
0.232950 0.232950 0.232950
0.234877 0.495481 0.921257
0.023529 0.713725 0.831373
0.187834 0.692575 0.373629
0.445550 0.445550 0.445550
0.133333 0.772549 0.368627
0.745714 0.326420 0.808466
0.518050 0.518050 0.518050
0.917647 0.701961 0.031373
0.624350 0.624350 0.624350
0.593625 0.591598 0.585292
0.643700 0.643700 0.643700
0.696850 0.696850 0.696850
0.750000 0.750000 0.750000
0.937255 0.266667 0.266667
0.937255 0.266667 0.266667
0.937255 0.266667 0.266667
0.937255 0.266667 0.266667
0.937255 0.266667 0.266667
0.937255 0.266667 0.266667
0.388235 0.400000 0.945098
0.125350 0.125350 0.125350
0.178500 0.178500 0.178500
0.231650 0.231650 0.231650
0.232346 0.505705 0.952321
0.246636 0.308547 0.409697
0.304150 0.304150 0.304150
0.108530 0.622956 0.710642
0.133333 0.772549 0.368627
0.704821 0.345854 0.758545
0.214344 0.678892 0.385343
0.850980 0.274510 0.937255
0.689509 0.602788 0.333164
0.604731 0.594563 0.562951
0.642400 0.642400 0.642400
0.608600 0.608600 0.608600
0.661750 0.661750 0.661750
0.714900 0.714900 0.714900
0.936430 0.269111 0.269111
0.937255 0.266667 0.266667
0.937255 0.266667 0.266667
0.937255 0.266667 0.266667
0.937255 0.266667 0.266667
0.937255 0.266667 0.266667
0.968627 0.633333 0.633333
