luts/FalseColor_nlog.cube
# False Color Exposure Monitor LUT
# Profile  : Nikon N-Log  [approximate]
# Cameras  : Z6, Z7, Z6II, Z7II, Z8, Z9
# Generator: false_color_generator.py
#
# Zone Reference:
#   #ef4444     white_clip      log 0.720 - 1.000
#   #eab308     +2 stops        log 0.552 - 0.628
#   #d946ef     +1 stops        log 0.436 - 0.504
#   #22c55e     +0 stops        log 0.335 - 0.393
#   #06b6d4     -1 stops        log 0.256 - 0.301
#   #3b82f6     -2 stops        log 0.201 - 0.231
#   #6366f1     black_clip      log 0.000 - 0.130
#   Grayscale   = between zones / untagged
#
TITLE "FalseColor Nikon N-Log  [approximate]"
LUT_3D_SIZE 9
DOMAIN_MIN 0.0 0.0 0.0
DOMAIN_MAX 1.0 1.0 1.0
0.194118 0.200000 0.472549
0.388235 0.400000 0.945098
0.388235 0.400000 0.945098
0.388235 0.400000 0.945098
0.388235 0.400000 0.945098
0.214694 0.218464 0.393118
0.159450 0.159450 0.159450
0.186025 0.186025 0.186025
0.231372 0.509795 0.964683
0.388235 0.400000 0.945098
0.388235 0.400000 0.945098
0.142550 0.142550 0.142550
0.169125 0.169125 0.169125
0.202469 0.255299 0.341614
0.231055 0.499769 0.938795
0.229300 0.289185 0.299393
0.023529 0.713725 0.831373
0.181354 0.480377 0.531347
0.178800 0.178800 0.178800
0.225420 0.440100 0.790844
0.231681 0.361206 0.572824
0.108802 0.548547 0.623504
0.023529 0.713725 0.831373
0.310030 0.313971 0.314643
0.198886 0.633618 0.358910
0.133333 0.772549 0.368627
0.229298 0.630815 0.377096
0.023529 0.713725 0.831373
0.062201 0.653996 0.754870
0.321350 0.321350 0.321350
0.133333 0.772549 0.368627
0.133333 0.772549 0.368627
0.379301 0.431284 0.398436
0.452851 0.418534 0.457986
0.850980 0.274510 0.937255
0.850980 0.274510 0.937255
0.133333 0.772549 0.368627
0.141295 0.760222 0.369121
0.410750 0.410750 0.410750
0.680890 0.341458 0.731689
0.850980 0.274510 0.937255
0.850980 0.274510 0.937255
0.517050 0.517050 0.517050
0.559217 0.550225 0.522271
0.917647 0.701961 0.031373
0.849952 0.274949 0.936007
0.850980 0.274510 0.937255
0.765396 0.329554 0.830624
0.526725 0.526725 0.526725
0.754093 0.635228 0.265663
0.917647 0.701961 0.031373
0.917647 0.701961 0.031373
0.684382 0.645464 0.524464
0.659600 0.659600 0.659600
0.536400 0.536400 0.536400
0.914570 0.700755 0.035985
0.917647 0.701961 0.031373
0.917539 0.701930 0.031583
0.642700 0.642700 0.642700
0.669275 0.669275 0.669275
0.695850 0.695850 0.695850
0.862573 0.425102 0.425102
0.937255 0.266667 0.266667
0.805560 0.672710 0.259670
0.652375 0.652375 0.652375
0.678950 0.678950 0.678950
0.705525 0.705525 0.705525
0.937255 0.266667 0.266667
0.937255 0.266667 0.266667
0.937255 0.266667 0.266667
0.937255 0.266667 0.266667
0.937255 0.266667 0.266667
0.762062 0.620542 0.620542
0.937255 0.266667 0.266667
0.937255 0.266667 0.266667
0.937255 0.266667 0.266667
0.937255 0.266667 0.266667
0.937255 0.266667 0.266667
0.937255 0.266667 0.266667
0.937255 0.266667 0.266667
0.937255 0.266667 0.266667
0.373988 0.385310 0.909928
0.388235 0.400000 0.945098
0.388235 0.400000 0.945098
0.388235 0.400000 0.945098
0.388235 0.400000 0.945098
0.141900 0.141900 0.141900
0.168475 0.168475 0.168475
0.200770 0.244619 0.316260
0.231175 0.503977 0.949681
0.388235 0.400000 0.945098
0.335456 0.344862 0.780666
0.151575 0.151575 0.151575
0.178150 0.178150 0.178150
0.224304 0.428881 0.763119
0.231337 0.372389 0.602841
0.118032 0.529899 0.600103
0.023529 0.713725 0.831373
0.306779 0.316972 0.318709
0.187825 0.187825 0.187825
0.231373 0.509804 0.964706
0.240740 0.247560 0.258702
0.023946 0.712963 0.830410
0.054321 0.665978 0.770238
0.320700 0.320700 0.320700
0.133333 0.772549 0.368627
0.133333 0.772549 0.368627
0.371923 0.440135 0.397032
0.023529 0.713725 0.831373
0.213582 0.435753 0.473623
0.290780 0.419229 0.338062
0.133333 0.772549 0.368627
0.137783 0.765630 0.368892
0.410100 0.410100 0.410100
0.663606 0.347851 0.710862
0.850980 0.274510 0.937255
0.850980 0.274510 0.937255
0.133333 0.772549 0.368627
0.259447 0.588451 0.380553
0.419775 0.419775 0.419775
0.847181 0.276123 0.932645
0.850980 0.274510 0.937255
0.777646 0.321453 0.845920
0.526075 0.526075 0.526075
0.738709 0.628762 0.286926
0.917647 0.701961 0.031373
0.850980 0.274510 0.937255
0.850980 0.274510 0.937255
0.580768 0.460023 0.598839
0.535750 0.535750 0.535750
0.910806 0.699272 0.041595
0.917647 0.701961 0.031373
0.917647 0.701961 0.031373
0.642050 0.642050 0.642050
0.668625 0.668625 0.668625
0.583963 0.561632 0.492203
0.917647 0.701961 0.031373
0.917647 0.701961 0.031373
0.817016 0.675535 0.235656
0.651725 0.651725 0.651725
0.678300 0.678300 0.678300
0.704875 0.704875 0.704875
0.937144 0.266918 0.266918
0.937255 0.266667 0.266667
0.662748 0.641453 0.575247
0.661400 0.661400 0.661400
0.687975 0.687975 0.687975
0.754076 0.635059 0.635059
0.937255 0.266667 0.266667
0.937255 0.266667 0.266667
0.937255 0.266667 0.266667
0.937255 0.266667 0.266667
0.937255 0.266667 0.266667
0.885640 0.377529 0.377529
0.937255 0.266667 0.266667
0.937255 0.266667 0.266667
0.937255 0.266667 0.266667
0.937255 0.266667 0.266667
0.937255 0.266667 0.266667
0.937255 0.266667 0.266667
0.937255 0.266667 0.266667
0.937255 0.266667 0.266667
0.388235 0.400000 0.945098
0.388235 0.400000 0.945098
0.388235 0.400000 0.945098
0.388235 0.400000 0.945098
0.344016 0.353810 0.807566
0.150925 0.150925 0.150925
0.177500 0.177500 0.177500
0.223101 0.417162 0.734219
0.231046 0.383615 0.632883
0.388235 0.400000 0.945098
0.198460 0.201442 0.339609
0.160600 0.160600 0.160600
0.187175 0.187175 0.187175
0.231373 0.509804 0.964706
0.239964 0.251194 0.269541
0.025412 0.710270 0.827007
0.047195 0.676883 0.784216
0.320050 0.320050 0.320050
0.205537 0.275595 0.390058
0.230821 0.489926 0.913253
0.219510 0.312431 0.328270
0.023529 0.713725 0.831373
0.202094 0.451534 0.494052
0.296734 0.404114 0.336260
0.133333 0.772549 0.368627
0.135250 0.769556 0.368737
0.409450 0.409450 0.409450
0.023529 0.713725 0.831373
0.312825 0.312825 0.312825
0.185467 0.662966 0.361233
0.133333 0.772549 0.368627
0.248419 0.603839 0.379248
0.419125 0.419125 0.419125
0.842758 0.277983 0.927282
0.850980 0.274510 0.937255
0.789279 0.313820 0.860436
0.133333 0.772549 0.368627
0.390435 0.418462 0.400752
0.471602 0.413157 0.480349
0.850980 0.274510 0.937255
0.850980 0.274510 0.937255
0.592359 0.451237 0.613479
0.535100 0.535100 0.535100
0.905668 0.697240 0.049218
0.917647 0.701961 0.031373
0.850980 0.274510 0.937255
0.850980 0.274510 0.937255
0.518200 0.518200 0.518200
0.574040 0.557112 0.504480
0.917647 0.701961 0.031373
0.917647 0.701961 0.031373
0.828242 0.678337 0.212266
0.651075 0.651075 0.651075
0.677650 0.677650 0.677650
0.780844 0.646399 0.228397
0.917647 0.701961 0.031373
0.917647 0.701961 0.031373
0.669904 0.642719 0.558197
0.660750 0.660750 0.660750
0.687325 0.687325 0.687325
0.746519 0.648586 0.648586
0.937255 0.266667 0.266667
0.937255 0.266667 0.266667
0.643850 0.643850 0.643850
0.670425 0.670425 0.670425
0.697000 0.697000 0.697000
0.877605 0.394216 0.394216
0.937255 0.266667 0.266667
0.937255 0.266667 0.266667
0.937255 0.266667 0.266667
0.937255 0.266667 0.266667
0.937255 0.266667 0.266667
0.937255 0.266667 0.266667
0.937255 0.266667 0.266667
0.937255 0.266667 0.266667
0.937255 0.266667 0.266667
0.937255 0.266667 0.266667
0.937255 0.266667 0.266667
0.937255 0.266667 0.266667
0.937255 0.266667 0.266667
0.937255 0.266667 0.266667
0.388235 0.400000 0.945098
0.388235 0.400000 0.945098
0.388235 0.400000 0.945098
0.388235 0.400000 0.945098
0.207487 0.210908 0.369418
0.159950 0.159950 0.159950
0.186525 0.186525 0.186525
0.231373 0.509804 0.964706
0.239180 0.255786 0.282917
0.388235 0.400000 0.945098
0.143050 0.143050 0.143050
0.169625 0.169625 0.169625
0.203796 0.263923 0.362159
0.230955 0.495848 0.928632
0.225292 0.298823 0.311357
0.023529 0.713725 0.831373
0.190418 0.467718 0.514985
0.302215 0.389928 0.334502
0.226216 0.448342 0.811251
0.231983 0.352677 0.549867
0.101799 0.562601 0.641146
0.023529 0.713725 0.831373
0.311722 0.312805 0.312989
0.192965 0.646619 0.359954
0.133333 0.772549 0.368627
0.237534 0.619150 0.378006
0.418475 0.418475 0.418475
0.068735 0.644114 0.742190
0.321850 0.321850 0.321850
0.133333 0.772549 0.368627
0.133333 0.772549 0.368627
0.384461 0.425244 0.399473
0.460527 0.416386 0.467133
0.850980 0.274510 0.937255
0.850980 0.274510 0.937255
0.604553 0.442119 0.628863
0.144628 0.755118 0.369349
0.411250 0.411250 0.411250
0.694001 0.336562 0.747495
0.850980 0.274510 0.937255
0.850980 0.274510 0.937255
0.517550 0.517550 0.517550
0.565207 0.553033 0.515185
0.917647 0.701961 0.031373
0.917647 0.701961 0.031373
0.850980 0.274510 0.937255
0.755610 0.336072 0.818398
0.527225 0.527225 0.527225
0.765818 0.640135 0.249375
0.917647 0.701961 0.031373
0.917647 0.701961 0.031373
0.677819 0.644194 0.539650
0.660100 0.660100 0.660100
0.686675 0.686675 0.686675
0.916478 0.701504 0.033128
0.917647 0.701961 0.031373
0.916729 0.701701 0.033157
0.643200 0.643200 0.643200
0.669775 0.669775 0.669775
0.696350 0.696350 0.696350
0.869223 0.411490 0.411490
0.937255 0.266667 0.266667
0.937255 0.266667 0.266667
0.652875 0.652875 0.652875
0.679450 0.679450 0.679450
0.706025 0.706025 0.706025
0.937255 0.266667 0.266667
0.937255 0.266667 0.266667
0.937255 0.266667 0.266667
0.937255 0.266667 0.266667
0.937255 0.266667 0.266667
0.937255 0.266667 0.266667
0.937255 0.266667 0.266667
0.937255 0.266667 0.266667
0.937255 0.266667 0.266667
0.937255 0.266667 0.266667
0.937255 0.266667 0.266667
0.937255 0.266667 0.266667
0.937255 0.266667 0.266667
0.937255 0.266667 0.266667
0.937255 0.266667 0.266667
0.388235 0.400000 0.945098
0.388235 0.400000 0.945098
0.388235 0.400000 0.945098
0.388235 0.400000 0.945098
0.142400 0.142400 0.142400
0.168975 0.168975 0.168975
0.202074 0.252779 0.335622
0.231084 0.500832 0.941546
0.230424 0.286444 0.295993
0.328549 0.337641 0.758907
0.152075 0.152075 0.152075
0.178650 0.178650 0.178650
0.225170 0.437559 0.784560
0.231597 0.363779 0.579739
0.110921 0.544278 0.618146
0.023529 0.713725 0.831373
0.309382 0.314517 0.315392
0.200684 0.629653 0.358587
0.231373 0.509804 0.964706
0.241325 0.245454 0.252201
0.023535 0.713715 0.831359
0.060319 0.656851 0.758532
0.321200 0.321200 0.321200
0.133333 0.772549 0.368627
0.133333 0.772549 0.368627
0.377664 0.433229 0.398117
0.450699 0.419119 0.455426
0.222246 0.423952 0.458334
0.285907 0.431416 0.339469
0.133333 0.772549 0.368627
0.140401 0.761596 0.369062
0.410600 0.410600 0.410600
0.676922 0.342931 0.726907
0.850980 0.274510 0.937255
0.850980 0.274510 0.937255
0.516900 0.516900 0.516900
0.267985 0.576622 0.381594
0.420275 0.420275 0.420275
0.849464 0.275156 0.935415
0.850980 0.274510 0.937255
0.768273 0.327646 0.834217
0.526575 0.526575 0.526575
0.750555 0.633743 0.270565
0.917647 0.701961 0.031373
0.917647 0.701961 0.031373
0.850980 0.274510 0.937255
0.572316 0.466514 0.588150
0.536250 0.536250 0.536250
0.913828 0.700463 0.037093
0.917647 0.701961 0.031373
0.917628 0.701955 0.031410
0.642550 0.642550 0.642550
0.669125 0.669125 0.669125
0.695700 0.695700 0.695700
0.917647 0.701961 0.031373
0.917647 0.701961 0.031373
0.808220 0.673363 0.254080
0.652225 0.652225 0.652225
0.678800 0.678800 0.678800
0.705375 0.705375 0.705375
0.937255 0.266667 0.266667
0.937255 0.266667 0.266667
0.937255 0.266667 0.266667
0.661900 0.661900 0.661900
0.688475 0.688475 0.688475
0.760184 0.623974 0.623974
0.937255 0.266667 0.266667
0.937255 0.266667 0.266667
0.937255 0.266667 0.266667
0.937255 0.266667 0.266667
0.937255 0.266667 0.266667
0.937255 0.266667 0.266667
0.937255 0.266667 0.266667
0.937255 0.266667 0.266667
0.937255 0.266667 0.266667
0.937255 0.266667 0.266667
0.937255 0.266667 0.266667
0.937255 0.266667 0.266667
0.937255 0.266667 0.266667
0.937255 0.266667 0.266667
0.937255 0.266667 0.266667
0.388235 0.400000 0.945098
0.388235 0.400000 0.945098
0.388235 0.400000 0.945098
0.337475 0.346973 0.787019
0.151425 0.151425 0.151425
0.178000 0.178000 0.178000
0.224034 0.426218 0.756548
0.231265 0.374979 0.609778
0.120176 0.525545 0.594642
0.191816 0.194473 0.317564
0.161100 0.161100 0.161100
0.187675 0.187675 0.187675
0.231373 0.509804 0.964706
0.240562 0.248310 0.260969
0.024193 0.712511 0.829838
0.052607 0.668594 0.773592
0.320550 0.320550 0.320550
0.133333 0.772549 0.368627
0.230721 0.484781 0.899867
0.214654 0.323659 0.342239
0.023529 0.713725 0.831373
0.210952 0.439354 0.478286
0.292193 0.415664 0.337643
0.133333 0.772549 0.368627
0.137109 0.766672 0.368850
0.409950 0.409950 0.409950
0.659589 0.349327 0.706023
0.313325 0.313325 0.313325
0.179884 0.675051 0.362154
0.133333 0.772549 0.368627
0.256893 0.592004 0.380246
0.419625 0.419625 0.419625
0.846304 0.276493 0.931581
0.850980 0.274510 0.937255
0.780389 0.319648 0.849343
0.525925 0.525925 0.525925
0.394426 0.414118 0.401675
0.480901 0.410358 0.491458
0.850980 0.274510 0.937255
0.850980 0.274510 0.937255
0.583385 0.458028 0.602146
0.535600 0.535600 0.535600
0.909739 0.698851 0.043181
0.917647 0.701961 0.031373
0.917647 0.701961 0.031373
0.850980 0.274510 0.937255
0.518700 0.518700 0.518700
0.581582 0.560552 0.495169
0.917647 0.701961 0.031373
0.917647 0.701961 0.031373
0.819630 0.676184 0.230197
0.651575 0.651575 0.651575
0.678150 0.678150 0.678150
0.704725 0.704725 0.704725
0.917647 0.701961 0.031373
0.917647 0.701961 0.031373
0.664328 0.641726 0.571453
0.661250 0.661250 0.661250
0.687825 0.687825 0.687825
0.752292 0.638273 0.638273
0.937255 0.266667 0.266667
0.937255 0.266667 0.266667
0.937255 0.266667 0.266667
0.670925 0.670925 0.670925
0.697500 0.697500 0.697500
0.883819 0.381322 0.381322
0.937255 0.266667 0.266667
0.937255 0.266667 0.266667
0.937255 0.266667 0.266667
0.937255 0.266667 0.266667
0.937255 0.266667 0.266667
0.937255 0.266667 0.266667
0.937255 0.266667 0.266667
0.937255 0.266667 0.266667
0.937255 0.266667 0.266667
0.937255 0.266667 0.266667
0.937255 0.266667 0.266667
0.937255 0.266667 0.266667
0.937255 0.266667 0.266667
0.937255 0.266667 0.266667
0.937255 0.266667 0.266667
0.388235 0.400000 0.945098
0.388235 0.400000 0.945098
0.388235 0.400000 0.945098
0.200506 0.203588 0.346378
0.160450 0.160450 0.160450
0.187025 0.187025 0.187025
0.231373 0.509804 0.964706
0.239783 0.252171 0.272409
0.025893 0.709382 0.825886
0.143550 0.143550 0.143550
0.170125 0.170125 0.170125
0.205134 0.272859 0.383509
0.230852 0.491372 0.917010
0.220899 0.309188 0.324237
0.023529 0.713725 0.831373
0.199413 0.455237 0.498843
0.298042 0.400753 0.335850
0.133333 0.772549 0.368627
0.232316 0.344246 0.527117
0.094911 0.576344 0.658406
0.023529 0.713725 0.831373
0.312672 0.312679 0.312680
0.187175 0.659254 0.360946
0.133333 0.772549 0.368627
0.245892 0.607382 0.378956
0.418975 0.418975 0.418975
0.841513 0.278504 0.925773
0.322350 0.322350 0.322350
0.133333 0.772549 0.368627
0.133333 0.772549 0.368627
0.389133 0.419916 0.400464
0.468942 0.413945 0.477172
0.850980 0.274510 0.937255
0.850980 0.274510 0.937255
0.595123 0.449160 0.616967
0.534950 0.534950 0.534950
0.411750 0.411750 0.411750
0.706900 0.331707 0.763051
0.850980 0.274510 0.937255
0.850980 0.274510 0.937255
0.518050 0.518050 0.518050
0.571902 0.556130 0.507094
0.917647 0.701961 0.031373
0.917647 0.701961 0.031373
0.830792 0.678978 0.206973
0.745555 0.342810 0.805830
0.527725 0.527725 0.527725
0.777402 0.644967 0.233212
0.917647 0.701961 0.031373
0.917647 0.701961 0.031373
0.671666 0.643041 0.554044
0.660600 0.660600 0.660600
0.687175 0.687175 0.687175
0.744843 0.651555 0.651555
0.917647 0.701961 0.031373
0.915161 0.701259 0.036219
0.643700 0.643700 0.643700
0.670275 0.670275 0.670275
0.696850 0.696850 0.696850
0.875699 0.398155 0.398155
0.937255 0.266667 0.266667
0.937255 0.266667 0.266667
0.937255 0.266667 0.266667
0.679950 0.679950 0.679950
0.706525 0.706525 0.706525
0.937255 0.266667 0.266667
0.937255 0.266667 0.266667
0.937255 0.266667 0.266667
0.937255 0.266667 0.266667
0.937255 0.266667 0.266667
0.937255 0.266667 0.266667
0.937255 0.266667 0.266667
0.937255 0.266667 0.266667
0.937255 0.266667 0.266667
0.937255 0.266667 0.266667
0.937255 0.266667 0.266667
0.937255 0.266667 0.266667
0.937255 0.266667 0.266667
0.937255 0.266667 0.266667
0.937255 0.266667 0.266667
0.937255 0.266667 0.266667
0.388235 0.400000 0.945098
0.388235 0.400000 0.945098
0.388235 0.400000 0.945098
0.142900 0.142900 0.142900
0.169475 0.169475 0.169475
0.203396 0.261301 0.355907
0.230985 0.497084 0.931838
0.226536 0.295853 0.307668
0.023529 0.713725 0.831373
0.152575 0.152575 0.152575
0.179150 0.179150 0.179150
0.225983 0.445907 0.805219
0.231889 0.355227 0.556736
0.103889 0.558415 0.635891
0.023529 0.713725 0.831373
0.311291 0.313047 0.313347
0.194728 0.642755 0.359646
0.133333 0.772549 0.368627
0.241896 0.243980 0.247385
0.023529 0.713725 0.831373
0.066734 0.647136 0.746068
0.321700 0.321700 0.321700
0.133333 0.772549 0.368627
0.133333 0.772549 0.368627
0.382962 0.426983 0.399166
0.458144 0.417061 0.464292
0.850980 0.274510 0.937255
0.280803 0.444033 0.340888
0.133333 0.772549 0.368627
0.143573 0.756732 0.369275
0.411100 0.411100 0.411100
0.690087 0.338027 0.742777
0.850980 0.274510 0.937255
0.850980 0.274510 0.937255
0.517400 0.517400 0.517400
0.563334 0.552160 0.517418
0.420775 0.420775 0.420775
0.850727 0.274619 0.936947
0.850980 0.274510 0.937255
0.758576 0.334092 0.822104
0.527075 0.527075 0.527075
0.762314 0.638670 0.254251
0.917647 0.701961 0.031373
0.917647 0.701961 0.031373
0.679746 0.644563 0.535174
0.564307 0.472743 0.578010
0.536750 0.536750 0.536750
0.915999 0.701316 0.033847
0.917647 0.701961 0.031373
0.917053 0.701792 0.032526
0.643050 0.643050 0.643050
0.669625 0.669625 0.669625
0.696200 0.696200 0.696200
0.867246 0.415547 0.415547
0.917647 0.701961 0.031373
0.799321 0.671187 0.272807
0.652725 0.652725 0.652725
0.679300 0.679300 0.679300
0.705875 0.705875 0.705875
0.937255 0.266667 0.266667
0.937255 0.266667 0.266667
0.937255 0.266667 0.266667
0.937255 0.266667 0.266667
0.688975 0.688975 0.688975
0.766520 0.612352 0.612352
0.937255 0.266667 0.266667
0.937255 0.266667 0.266667
0.937255 0.266667 0.266667
0.937255 0.266667 0.266667
0.937255 0.266667 0.266667
0.937255 0.266667 0.266667
0.937255 0.266667 0.266667
0.937255 0.266667 0.266667
0.937255 0.266667 0.266667
0.937255 0.266667 0.266667
0.937255 0.266667 0.266667
0.937255 0.266667 0.266667
0.937255 0.266667 0.266667
0.937255 0.266667 0.266667
0.937255 0.266667 0.266667
0.939273 0.293880 0.293880
0.388235 0.400000 0.945098
0.388235 0.400000 0.945098
0.330648 0.339836 0.765525
0.151925 0.151925 0.151925
0.178500 0.178500 0.178500
0.224916 0.434989 0.778206
0.231516 0.366358 0.586663
0.113047 0.539988 0.612762
0.023529 0.713725 0.831373
0.161600 0.161600 0.161600
0.188175 0.188175 0.188175
0.231373 0.509804 0.964706
0.241151 0.246021 0.253978
0.023591 0.713613 0.831231
0.058474 0.659653 0.762127
0.321050 0.321050 0.321050
0.133333 0.772549 0.368627
0.133333 0.772549 0.368627
0.209468 0.335485 0.356966
0.023529 0.713725 0.831373
0.219665 0.427458 0.462878
0.287394 0.427712 0.339045
0.133333 0.772549 0.368627
0.139556 0.762896 0.369006
0.410450 0.410450 0.410450
0.672941 0.344406 0.722110
0.850980 0.274510 0.937255
0.174489 0.686657 0.363017
0.133333 0.772549 0.368627
0.265421 0.580167 0.381278
0.420125 0.420125 0.420125
0.848884 0.275403 0.934712
0.850980 0.274510 0.937255
0.771121 0.325760 0.837773
0.526425 0.526425 0.526425
0.747008 0.632254 0.275471
0.490820 0.407302 0.503320
0.850980 0.274510 0.937255
0.850980 0.274510 0.937255
0.574807 0.464593 0.591301
0.536100 0.536100 0.536100
0.913009 0.700141 0.038315
0.917647 0.701961 0.031373
0.917647 0.701961 0.031373
0.642400 0.642400 0.642400
0.519200 0.519200 0.519200
0.589722 0.564233 0.484984
0.917647 0.701961 0.031373
0.917647 0.701961 0.031373
0.810871 0.674015 0.248518
0.652075 0.652075 0.652075
0.678650 0.678650 0.678650
0.705225 0.705225 0.705225
0.937255 0.266667 0.266667
0.917647 0.701961 0.031373
0.659231 0.640863 0.583753
0.661750 0.661750 0.661750
0.688325 0.688325 0.688325
0.758327 0.627358 0.627358
0.937255 0.266667 0.266667
0.937255 0.266667 0.266667
0.937255 0.266667 0.266667
0.937255 0.266667 0.266667
0.698000 0.698000 0.698000
0.889805 0.368828 0.368828
0.937255 0.266667 0.266667
0.937255 0.266667 0.266667
0.937255 0.266667 0.266667
0.937255 0.266667 0.266667
0.937255 0.266667 0.266667
0.937255 0.266667 0.266667
0.937255 0.266667 0.266667
0.937255 0.266667 0.266667
0.937255 0.266667 0.266667
0.937255 0.266667 0.266667
0.937255 0.266667 0.266667
0.937255 0.266667 0.266667
0.937255 0.266667 0.266667
0.937255 0.266667 0.266667
0.937255 0.266667 0.266667
0.968627 0.633333 0.633333
