luts/FalseColor_clog2.cube
# False Color Exposure Monitor LUT
# Profile  : Canon C-Log2
# Cameras  : C70, C300 III, C500 II, EOS R5 C, EOS C70
# Generator: false_color_generator.py
#
# Zone Reference:
#   #ef4444     white_clip      log 0.700 - 1.000
#   #eab308     +2 stops        log 0.557 - 0.607
#   #d946ef     +1 stops        log 0.474 - 0.523
#   #22c55e     +0 stops        log 0.394 - 0.442
#   #06b6d4     -1 stops        log 0.318 - 0.363
#   #3b82f6     -2 stops        log 0.248 - 0.289
#   #6366f1     black_clip      log 0.000 - 0.080
#   Grayscale   = between zones / untagged
#
TITLE "FalseColor Canon C-Log2"
LUT_3D_SIZE 9
DOMAIN_MIN 0.0 0.0 0.0
DOMAIN_MAX 1.0 1.0 1.0
0.194118 0.200000 0.472549
0.388235 0.400000 0.945098
0.388235 0.400000 0.945098
0.243930 0.250191 0.540320
0.106300 0.106300 0.106300
0.132875 0.132875 0.132875
0.159450 0.159450 0.159450
0.186025 0.186025 0.186025
0.212600 0.212600 0.212600
0.089400 0.089400 0.089400
0.115975 0.115975 0.115975
0.142550 0.142550 0.142550
0.169125 0.169125 0.169125
0.195700 0.195700 0.195700
0.222275 0.222275 0.222275
0.238887 0.397603 0.656913
0.231373 0.509804 0.964706
0.302000 0.302000 0.302000
0.178800 0.178800 0.178800
0.205375 0.205375 0.205375
0.231950 0.231950 0.231950
0.231373 0.509804 0.964706
0.237611 0.483714 0.885798
0.310140 0.313816 0.314443
0.023529 0.713725 0.831373
0.278230 0.453350 0.483200
0.330742 0.480989 0.386047
0.231373 0.509804 0.964706
0.294598 0.295374 0.296641
0.054609 0.672778 0.778148
0.023529 0.713725 0.831373
0.374500 0.374500 0.374500
0.133333 0.772549 0.368627
0.133333 0.772549 0.368627
0.454225 0.454225 0.454225
0.850980 0.274510 0.937255
0.033922 0.702647 0.816635
0.384175 0.384175 0.384175
0.133333 0.772549 0.368627
0.155479 0.748128 0.373632
0.463900 0.463900 0.463900
0.850980 0.274510 0.937255
0.850971 0.274517 0.937243
0.543625 0.543625 0.543625
0.917647 0.701961 0.031373
0.441582 0.452623 0.445646
0.640151 0.385713 0.678230
0.850980 0.274510 0.937255
0.573790 0.490116 0.586313
0.607222 0.575301 0.476056
0.917647 0.701961 0.031373
0.771005 0.656954 0.302360
0.633025 0.633025 0.633025
0.659600 0.659600 0.659600
0.536400 0.536400 0.536400
0.917647 0.701961 0.031373
0.917647 0.701961 0.031373
0.616125 0.616125 0.616125
0.642700 0.642700 0.642700
0.669275 0.669275 0.669275
0.715513 0.660891 0.660891
0.937255 0.266667 0.266667
0.937255 0.266667 0.266667
0.625800 0.625800 0.625800
0.652375 0.652375 0.652375
0.678950 0.678950 0.678950
0.934206 0.272441 0.272441
0.937255 0.266667 0.266667
0.937255 0.266667 0.266667
0.937255 0.266667 0.266667
0.937255 0.266667 0.266667
0.937255 0.266667 0.266667
0.937255 0.266667 0.266667
0.937255 0.266667 0.266667
0.937255 0.266667 0.266667
0.937255 0.266667 0.266667
0.937255 0.266667 0.266667
0.937255 0.266667 0.266667
0.937255 0.266667 0.266667
0.937255 0.266667 0.266667
0.937255 0.266667 0.266667
0.388235 0.400000 0.945098
0.388235 0.400000 0.945098
0.388235 0.400000 0.945098
0.088750 0.088750 0.088750
0.115325 0.115325 0.115325
0.141900 0.141900 0.141900
0.168475 0.168475 0.168475
0.195050 0.195050 0.195050
0.221625 0.221625 0.221625
0.098425 0.098425 0.098425
0.125000 0.125000 0.125000
0.151575 0.151575 0.151575
0.178150 0.178150 0.178150
0.204725 0.204725 0.204725
0.231300 0.231300 0.231300
0.231373 0.509804 0.964706
0.235078 0.494073 0.917219
0.311025 0.311025 0.311025
0.187825 0.187825 0.187825
0.214400 0.214400 0.214400
0.240975 0.240975 0.240975
0.231373 0.509804 0.964706
0.292939 0.298203 0.306803
0.070371 0.651774 0.750877
0.023529 0.713725 0.831373
0.373850 0.373850 0.373850
0.133333 0.772549 0.368627
0.231373 0.509804 0.964706
0.303800 0.303800 0.303800
0.023529 0.713725 0.831373
0.026420 0.710632 0.827260
0.383525 0.383525 0.383525
0.133333 0.772549 0.368627
0.144324 0.760379 0.371093
0.463250 0.463250 0.463250
0.850980 0.274510 0.937255
0.334694 0.398929 0.409878
0.280479 0.557748 0.382541
0.133333 0.772549 0.368627
0.432114 0.461185 0.442815
0.611458 0.400219 0.643072
0.850980 0.274510 0.937255
0.592541 0.474613 0.610190
0.587761 0.567013 0.502506
0.917647 0.701961 0.031373
0.456025 0.456025 0.456025
0.850980 0.274510 0.937255
0.850980 0.274510 0.937255
0.535750 0.535750 0.535750
0.914929 0.700893 0.035434
0.917647 0.701961 0.031373
0.615475 0.615475 0.615475
0.642050 0.642050 0.642050
0.668625 0.668625 0.668625
0.545425 0.545425 0.545425
0.917647 0.701961 0.031373
0.917647 0.701961 0.031373
0.625150 0.625150 0.625150
0.651725 0.651725 0.651725
0.678300 0.678300 0.678300
0.928220 0.283703 0.283703
0.937255 0.266667 0.266667
0.937255 0.266667 0.266667
0.634825 0.634825 0.634825
0.661400 0.661400 0.661400
0.687975 0.687975 0.687975
0.937255 0.266667 0.266667
0.937255 0.266667 0.266667
0.937255 0.266667 0.266667
0.937255 0.266667 0.266667
0.937255 0.266667 0.266667
0.937255 0.266667 0.266667
0.937255 0.266667 0.266667
0.937255 0.266667 0.266667
0.937255 0.266667 0.266667
0.937255 0.266667 0.266667
0.937255 0.266667 0.266667
0.937255 0.266667 0.266667
0.937255 0.266667 0.266667
0.937255 0.266667 0.266667
0.937255 0.266667 0.266667
0.388235 0.400000 0.945098
0.388235 0.400000 0.945098
0.388235 0.400000 0.945098
0.097775 0.097775 0.097775
0.124350 0.124350 0.124350
0.150925 0.150925 0.150925
0.177500 0.177500 0.177500
0.204075 0.204075 0.204075
0.230650 0.230650 0.230650
0.107450 0.107450 0.107450
0.134025 0.134025 0.134025
0.160600 0.160600 0.160600
0.187175 0.187175 0.187175
0.213750 0.213750 0.213750
0.240325 0.240325 0.240325
0.231373 0.509804 0.964706
0.290494 0.303861 0.325700
0.088353 0.627662 0.719590
0.196850 0.196850 0.196850
0.223425 0.223425 0.223425
0.236960 0.431881 0.750343
0.231373 0.509804 0.964706
0.303150 0.303150 0.303150
0.023529 0.713725 0.831373
0.023545 0.713709 0.831351
0.382875 0.382875 0.382875
0.133333 0.772549 0.368627
0.243385 0.460868 0.816192
0.298891 0.332134 0.337800
0.023529 0.713725 0.831373
0.316566 0.416149 0.433124
0.299482 0.528984 0.383961
0.133333 0.772549 0.368627
0.419084 0.473549 0.439133
0.583725 0.414074 0.609115
0.850980 0.274510 0.937255
0.375650 0.375650 0.375650
0.133333 0.772549 0.368627
0.133333 0.772549 0.368627
0.455375 0.455375 0.455375
0.850980 0.274510 0.937255
0.850980 0.274510 0.937255
0.535100 0.535100 0.535100
0.907247 0.697862 0.046866
0.917647 0.701961 0.031373
0.465050 0.465050 0.465050
0.850980 0.274510 0.937255
0.842866 0.280452 0.927037
0.544775 0.544775 0.544775
0.917647 0.701961 0.031373
0.917647 0.701961 0.031373
0.624500 0.624500 0.624500
0.651075 0.651075 0.651075
0.677650 0.677650 0.677650
0.648236 0.592541 0.419380
0.917647 0.701961 0.031373
0.729931 0.644831 0.380246
0.634175 0.634175 0.634175
0.660750 0.660750 0.660750
0.687325 0.687325 0.687325
0.937255 0.266667 0.266667
0.937255 0.266667 0.266667
0.937255 0.266667 0.266667
0.643850 0.643850 0.643850
0.670425 0.670425 0.670425
0.738760 0.622201 0.622201
0.937255 0.266667 0.266667
0.937255 0.266667 0.266667
0.937255 0.266667 0.266667
0.937255 0.266667 0.266667
0.937255 0.266667 0.266667
0.937255 0.266667 0.266667
0.937255 0.266667 0.266667
0.937255 0.266667 0.266667
0.937255 0.266667 0.266667
0.937255 0.266667 0.266667
0.937255 0.266667 0.266667
0.937255 0.266667 0.266667
0.937255 0.266667 0.266667
0.937255 0.266667 0.266667
0.937255 0.266667 0.266667
0.388235 0.400000 0.945098
0.388235 0.400000 0.945098
0.226101 0.231673 0.489836
0.106800 0.106800 0.106800
0.133375 0.133375 0.133375
0.159950 0.159950 0.159950
0.186525 0.186525 0.186525
0.213100 0.213100 0.213100
0.239675 0.239675 0.239675
0.116475 0.116475 0.116475
0.143050 0.143050 0.143050
0.169625 0.169625 0.169625
0.196200 0.196200 0.196200
0.222775 0.222775 0.222775
0.238067 0.412822 0.698339
0.231373 0.509804 0.964706
0.302500 0.302500 0.302500
0.023529 0.713725 0.831373
0.205875 0.205875 0.205875
0.232450 0.232450 0.232450
0.231373 0.509804 0.964706
0.239934 0.474407 0.857488
0.306688 0.319808 0.322044
0.023529 0.713725 0.831373
0.295739 0.436256 0.460207
0.317624 0.501246 0.385215
0.133333 0.772549 0.368627
0.295275 0.295275 0.295275
0.044300 0.686441 0.795897
0.023529 0.713725 0.831373
0.375000 0.375000 0.375000
0.133333 0.772549 0.368627
0.133333 0.772549 0.368627
0.454725 0.454725 0.454725
0.850980 0.274510 0.937255
0.850980 0.274510 0.937255
0.384675 0.384675 0.384675
0.133333 0.772549 0.368627
0.166270 0.736342 0.376112
0.464400 0.464400 0.464400
0.850980 0.274510 0.937255
0.849246 0.275774 0.935072
0.544125 0.544125 0.544125
0.917647 0.701961 0.031373
0.917647 0.701961 0.031373
0.662499 0.374308 0.705629
0.850980 0.274510 0.937255
0.561170 0.500728 0.570216
0.624154 0.582449 0.452782
0.917647 0.701961 0.031373
0.753021 0.651618 0.336349
0.633525 0.633525 0.633525
0.660100 0.660100 0.660100
0.686675 0.686675 0.686675
0.917647 0.701961 0.031373
0.917647 0.701961 0.031373
0.616625 0.616625 0.616625
0.643200 0.643200 0.643200
0.669775 0.669775 0.669775
0.724837 0.645540 0.645540
0.937255 0.266667 0.266667
0.937255 0.266667 0.266667
0.937255 0.266667 0.266667
0.652875 0.652875 0.652875
0.679450 0.679450 0.679450
0.936696 0.267729 0.267729
0.937255 0.266667 0.266667
0.937255 0.266667 0.266667
0.937255 0.266667 0.266667
0.937255 0.266667 0.266667
0.937255 0.266667 0.266667
0.937255 0.266667 0.266667
0.937255 0.266667 0.266667
0.937255 0.266667 0.266667
0.937255 0.266667 0.266667
0.937255 0.266667 0.266667
0.937255 0.266667 0.266667
0.937255 0.266667 0.266667
0.937255 0.266667 0.266667
0.937255 0.266667 0.266667
0.937255 0.266667 0.266667
0.388235 0.400000 0.945098
0.388235 0.400000 0.945098
0.089250 0.089250 0.089250
0.115825 0.115825 0.115825
0.142400 0.142400 0.142400
0.168975 0.168975 0.168975
0.195550 0.195550 0.195550
0.222125 0.222125 0.222125
0.239126 0.392974 0.644331
0.125500 0.125500 0.125500
0.152075 0.152075 0.152075
0.178650 0.178650 0.178650
0.205225 0.205225 0.205225
0.231800 0.231800 0.231800
0.231373 0.509804 0.964706
0.236975 0.486290 0.893622
0.310711 0.312662 0.312994
0.023529 0.713725 0.831373
0.214900 0.214900 0.214900
0.241475 0.241475 0.241475
0.231373 0.509804 0.964706
0.294292 0.295759 0.298157
0.058024 0.668239 0.772252
0.023529 0.713725 0.831373
0.374350 0.374350 0.374350
0.133333 0.772549 0.368627
0.133333 0.772549 0.368627
0.304300 0.304300 0.304300
0.023529 0.713725 0.831373
0.031806 0.704895 0.819626
0.384025 0.384025 0.384025
0.133333 0.772549 0.368627
0.152603 0.751279 0.372975
0.463750 0.463750 0.463750
0.850980 0.274510 0.937255
0.850980 0.274510 0.937255
0.265531 0.580193 0.381358
0.133333 0.772549 0.368627
0.439741 0.454236 0.445076
0.633475 0.389102 0.670048
0.850980 0.274510 0.937255
0.577897 0.486698 0.591546
0.602458 0.573281 0.482566
0.917647 0.701961 0.031373
0.776401 0.658563 0.292195
0.850980 0.274510 0.937255
0.850980 0.274510 0.937255
0.536250 0.536250 0.536250
0.917488 0.701899 0.031610
0.917647 0.701961 0.031373
0.615975 0.615975 0.615975
0.642550 0.642550 0.642550
0.669125 0.669125 0.669125
0.712982 0.665005 0.665005
0.917647 0.701961 0.031373
0.917647 0.701961 0.031373
0.625650 0.625650 0.625650
0.652225 0.652225 0.652225
0.678800 0.678800 0.678800
0.933090 0.274546 0.274546
0.937255 0.266667 0.266667
0.937255 0.266667 0.266667
0.937255 0.266667 0.266667
0.661900 0.661900 0.661900
0.688475 0.688475 0.688475
0.937255 0.266667 0.266667
0.937255 0.266667 0.266667
0.937255 0.266667 0.266667
0.937255 0.266667 0.266667
0.937255 0.266667 0.266667
0.937255 0.266667 0.266667
0.937255 0.266667 0.266667
0.937255 0.266667 0.266667
0.937255 0.266667 0.266667
0.937255 0.266667 0.266667
0.937255 0.266667 0.266667
0.937255 0.266667 0.266667
0.937255 0.266667 0.266667
0.937255 0.266667 0.266667
0.937255 0.266667 0.266667
0.937255 0.266667 0.266667
0.388235 0.400000 0.945098
0.388235 0.400000 0.945098
0.098275 0.098275 0.098275
0.124850 0.124850 0.124850
0.151425 0.151425 0.151425
0.178000 0.178000 0.178000
0.204575 0.204575 0.204575
0.231150 0.231150 0.231150
0.231373 0.509804 0.964706
0.134525 0.134525 0.134525
0.161100 0.161100 0.161100
0.187675 0.187675 0.187675
0.214250 0.214250 0.214250
0.240825 0.240825 0.240825
0.231373 0.509804 0.964706
0.292439 0.299269 0.310427
0.074342 0.646464 0.743984
0.023529 0.713725 0.831373
0.223925 0.223925 0.223925
0.236098 0.445749 0.788279
0.231373 0.509804 0.964706
0.303650 0.303650 0.303650
0.023529 0.713725 0.831373
0.025328 0.711800 0.828812
0.383375 0.383375 0.383375
0.133333 0.772549 0.368627
0.142255 0.762662 0.370625
0.290597 0.344728 0.353955
0.023529 0.713725 0.831373
0.330779 0.402619 0.414864
0.284920 0.551050 0.382882
0.133333 0.772549 0.368627
0.429405 0.463719 0.442036
0.604951 0.403485 0.635102
0.850980 0.274510 0.937255
0.597197 0.470800 0.616113
0.133333 0.772549 0.368627
0.133333 0.772549 0.368627
0.455875 0.455875 0.455875
0.850980 0.274510 0.937255
0.850980 0.274510 0.937255
0.535600 0.535600 0.535600
0.913578 0.700361 0.037449
0.917647 0.701961 0.031373
0.615325 0.615325 0.615325
0.850980 0.274510 0.937255
0.835093 0.286185 0.917243
0.545275 0.545275 0.545275
0.917647 0.701961 0.031373
0.917647 0.701961 0.031373
0.625000 0.625000 0.625000
0.651575 0.651575 0.651575
0.678150 0.678150 0.678150
0.926430 0.287059 0.287059
0.917647 0.701961 0.031373
0.712674 0.639809 0.413265
0.634675 0.634675 0.634675
0.661250 0.661250 0.661250
0.687825 0.687825 0.687825
0.937255 0.266667 0.266667
0.937255 0.266667 0.266667
0.937255 0.266667 0.266667
0.937255 0.266667 0.266667
0.670925 0.670925 0.670925
0.750629 0.602028 0.602028
0.937255 0.266667 0.266667
0.937255 0.266667 0.266667
0.937255 0.266667 0.266667
0.937255 0.266667 0.266667
0.937255 0.266667 0.266667
0.937255 0.266667 0.266667
0.937255 0.266667 0.266667
0.937255 0.266667 0.266667
0.937255 0.266667 0.266667
0.937255 0.266667 0.266667
0.937255 0.266667 0.266667
0.937255 0.266667 0.266667
0.937255 0.266667 0.266667
0.937255 0.266667 0.266667
0.937255 0.266667 0.266667
0.937255 0.266667 0.266667
0.388235 0.400000 0.945098
0.208431 0.213316 0.439690
0.107300 0.107300 0.107300
0.133875 0.133875 0.133875
0.160450 0.160450 0.160450
0.187025 0.187025 0.187025
0.213600 0.213600 0.213600
0.240175 0.240175 0.240175
0.231373 0.509804 0.964706
0.143550 0.143550 0.143550
0.170125 0.170125 0.170125
0.196700 0.196700 0.196700
0.223275 0.223275 0.223275
0.237217 0.427574 0.738579
0.231373 0.509804 0.964706
0.303000 0.303000 0.303000
0.023529 0.713725 0.831373
0.023529 0.713725 0.831373
0.232950 0.232950 0.232950
0.231373 0.509804 0.964706
0.242549 0.464120 0.826124
0.301003 0.328864 0.333613
0.023529 0.713725 0.831373
0.311979 0.420553 0.439059
0.303759 0.522469 0.384266
0.133333 0.772549 0.368627
0.415626 0.476890 0.438178
0.035814 0.697636 0.810446
0.023529 0.713725 0.831373
0.375500 0.375500 0.375500
0.133333 0.772549 0.368627
0.133333 0.772549 0.368627
0.455225 0.455225 0.455225
0.850980 0.274510 0.937255
0.850980 0.274510 0.937255
0.534950 0.534950 0.534950
0.133333 0.772549 0.368627
0.178752 0.722777 0.379007
0.464900 0.464900 0.464900
0.850980 0.274510 0.937255
0.844728 0.279083 0.929383
0.544625 0.544625 0.544625
0.917647 0.701961 0.031373
0.917647 0.701961 0.031373
0.624350 0.624350 0.624350
0.850980 0.274510 0.937255
0.550365 0.509990 0.556408
0.642497 0.590143 0.427367
0.917647 0.701961 0.031373
0.735208 0.646375 0.370186
0.634025 0.634025 0.634025
0.660600 0.660600 0.660600
0.687175 0.687175 0.687175
0.937255 0.266667 0.266667
0.917647 0.701961 0.031373
0.617125 0.617125 0.617125
0.643700 0.643700 0.643700
0.670275 0.670275 0.670275
0.735384 0.627896 0.627896
0.937255 0.266667 0.266667
0.937255 0.266667 0.266667
0.937255 0.266667 0.266667
0.937255 0.266667 0.266667
0.679950 0.679950 0.679950
0.937255 0.266667 0.266667
0.937255 0.266667 0.266667
0.937255 0.266667 0.266667
0.937255 0.266667 0.266667
0.937255 0.266667 0.266667
0.937255 0.266667 0.266667
0.937255 0.266667 0.266667
0.937255 0.266667 0.266667
0.937255 0.266667 0.266667
0.937255 0.266667 0.266667
0.937255 0.266667 0.266667
0.937255 0.266667 0.266667
0.937255 0.266667 0.266667
0.937255 0.266667 0.266667
0.937255 0.266667 0.266667
0.937255 0.266667 0.266667
0.937255 0.266667 0.266667
0.388235 0.400000 0.945098
0.089750 0.089750 0.089750
0.116325 0.116325 0.116325
0.142900 0.142900 0.142900
0.169475 0.169475 0.169475
0.196050 0.196050 0.196050
0.222625 0.222625 0.222625
0.238316 0.408297 0.686012
0.231373 0.509804 0.964706
0.152575 0.152575 0.152575
0.179150 0.179150 0.179150
0.205725 0.205725 0.205725
0.232300 0.232300 0.232300
0.231373 0.509804 0.964706
0.239205 0.477309 0.866325
0.307967 0.317675 0.319329
0.023529 0.713725 0.831373
0.290608 0.441249 0.466926
0.241972 0.242040 0.242149
0.231373 0.509804 0.964706
0.295123 0.295132 0.295148
0.047211 0.682589 0.790892
0.023529 0.713725 0.831373
0.374850 0.374850 0.374850
0.133333 0.772549 0.368627
0.133333 0.772549 0.368627
0.454575 0.454575 0.454575
0.023529 0.713725 0.831373
0.039702 0.696521 0.808478
0.384525 0.384525 0.384525
0.133333 0.772549 0.368627
0.162846 0.740076 0.375323
0.464250 0.464250 0.464250
0.850980 0.274510 0.937255
0.850068 0.275174 0.936107
0.543975 0.543975 0.543975
0.133333 0.772549 0.368627
0.445024 0.449759 0.446767
0.655788 0.377742 0.697400
0.850980 0.274510 0.937255
0.564776 0.497678 0.574818
0.618914 0.580242 0.460006
0.917647 0.701961 0.031373
0.758408 0.653212 0.326149
0.633375 0.633375 0.633375
0.850980 0.274510 0.937255
0.536750 0.536750 0.536750
0.917647 0.701961 0.031373
0.917647 0.701961 0.031373
0.616475 0.616475 0.616475
0.643050 0.643050 0.643050
0.669625 0.669625 0.669625
0.721903 0.650399 0.650399
0.937255 0.266667 0.266667
0.917647 0.701961 0.031373
0.626150 0.626150 0.626150
0.652725 0.652725 0.652725
0.679300 0.679300 0.679300
0.936153 0.268759 0.268759
0.937255 0.266667 0.266667
0.937255 0.266667 0.266667
0.937255 0.266667 0.266667
0.937255 0.266667 0.266667
0.688975 0.688975 0.688975
0.937255 0.266667 0.266667
0.937255 0.266667 0.266667
0.937255 0.266667 0.266667
0.937255 0.266667 0.266667
0.937255 0.266667 0.266667
0.937255 0.266667 0.266667
0.937255 0.266667 0.266667
0.937255 0.266667 0.266667
0.937255 0.266667 0.266667
0.937255 0.266667 0.266667
0.937255 0.266667 0.266667
0.937255 0.266667 0.266667
0.937255 0.266667 0.266667
0.937255 0.266667 0.266667
0.937255 0.266667 0.266667
0.937255 0.266667 0.266667
0.937255 0.266667 0.266667
0.388235 0.400000 0.945098
0.098775 0.098775 0.098775
0.125350 0.125350 0.125350
0.151925 0.151925 0.151925
0.178500 0.178500 0.178500
0.205075 0.205075 0.205075
0.231650 0.231650 0.231650
0.231373 0.509804 0.964706
0.236370 0.488759 0.901112
0.161600 0.161600 0.161600
0.188175 0.188175 0.188175
0.214750 0.214750 0.214750
0.241325 0.241325 0.241325
0.231373 0.509804 0.964706
0.293938 0.296308 0.300180
0.061577 0.663509 0.766111
0.023529 0.713725 0.831373
0.374200 0.374200 0.374200
0.235246 0.458729 0.823856
0.231373 0.509804 0.964706
0.304150 0.304150 0.304150
0.023529 0.713725 0.831373
0.029916 0.706905 0.822301
0.383875 0.383875 0.383875
0.133333 0.772549 0.368627
0.149904 0.754242 0.372359
0.463600 0.463600 0.463600
0.023529 0.713725 0.831373
0.343141 0.391038 0.399202
0.270033 0.573450 0.381720
0.133333 0.772549 0.368627
0.437688 0.456071 0.444455
0.626827 0.392469 0.661901
0.850980 0.274510 0.937255
0.582140 0.483180 0.596951
0.597852 0.571322 0.488840
0.133333 0.772549 0.368627
0.456375 0.456375 0.456375
0.850980 0.274510 0.937255
0.850980 0.274510 0.937255
0.536100 0.536100 0.536100
0.917044 0.701724 0.032276
0.917647 0.701961 0.031373
0.615825 0.615825 0.615825
0.642400 0.642400 0.642400
0.825103 0.293594 0.904649
0.545775 0.545775 0.545775
0.917647 0.701961 0.031373
0.917647 0.701961 0.031373
0.625500 0.625500 0.625500
0.652075 0.652075 0.652075
0.678650 0.678650 0.678650
0.931812 0.276954 0.276954
0.937255 0.266667 0.266667
0.696097 0.635032 0.445177
0.635175 0.635175 0.635175
0.661750 0.661750 0.661750
0.688325 0.688325 0.688325
0.937255 0.266667 0.266667
0.937255 0.266667 0.266667
0.937255 0.266667 0.266667
0.937255 0.266667 0.266667
0.937255 0.266667 0.266667
0.763309 0.580259 0.580259
0.937255 0.266667 0.266667
0.937255 0.266667 0.266667
0.937255 0.266667 0.266667
0.937255 0.266667 0.266667
0.937255 0.266667 0.266667
0.937255 0.266667 0.266667
0.937255 0.266667 0.266667
0.937255 0.266667 0.266667
0.937255 0.266667 0.266667
0.937255 0.266667 0.266667
0.937255 0.266667 0.266667
0.937255 0.266667 0.266667
0.937255 0.266667 0.266667
0.937255 0.266667 0.266667
0.937255 0.266667 0.266667
0.937255 0.266667 0.266667
0.968627 0.633333 0.633333
