luts/FalseColor_clog2.cube
# False Color Exposure Monitor LUT
# Profile  : Canon C-Log2
# Cameras  : C70, C300 III, C500 II, EOS R5 C, EOS C70
# Generator: false_color_generator.py
#
# Zone Reference:
#   #ef4444     white_clip      log 0.700 - 1.000
#   #eab308     +2 stops        log 0.557 - 0.607
#   #d946ef     +1 stops        log 0.474 - 0.523
#   #22c55e     +0 stops        log 0.394 - 0.442
#   #06b6d4     -1 stops        log 0.318 - 0.363
#   #3b82f6     -2 stops        log 0.248 - 0.289
#   #6366f1     black_clip      log 0.000 - 0.080
#   Grayscale   = between zones / untagged
#
TITLE "FalseColor Canon C-Log2"
LUT_3D_SIZE 33
DOMAIN_MIN 0.0 0.0 0.0
DOMAIN_MAX 1.0 1.0 1.0
0.194118 0.200000 0.472549
0.388235 0.400000 0.945098
0.388235 0.400000 0.945098
0.388235 0.400000 0.945098
0.388235 0.400000 0.945098
0.388235 0.400000 0.945098
0.388235 0.400000 0.945098
0.388235 0.400000 0.945098
0.388235 0.400000 0.945098
0.388235 0.400000 0.945098
0.388235 0.400000 0.945098
0.388235 0.400000 0.945098
0.243930 0.250191 0.540320
0.086372 0.086372 0.086377
0.093012 0.093012 0.093012
0.099656 0.099656 0.099656
0.106300 0.106300 0.106300
0.112944 0.112944 0.112944
0.119588 0.119588 0.119588
0.126231 0.126231 0.126231
0.132875 0.132875 0.132875
0.139519 0.139519 0.139519
0.146163 0.146163 0.146163
0.152806 0.152806 0.152806
0.159450 0.159450 0.159450
0.166094 0.166094 0.166094
0.172738 0.172738 0.172738
0.179381 0.179381 0.179381
0.186025 0.186025 0.186025
0.192669 0.192669 0.192669
0.199313 0.199313 0.199313
0.205956 0.205956 0.205956
0.212600 0.212600 0.212600
0.388235 0.400000 0.945098
0.388235 0.400000 0.945098
0.388235 0.400000 0.945098
0.388235 0.400000 0.945098
0.388235 0.400000 0.945098
0.388235 0.400000 0.945098
0.388235 0.400000 0.945098
0.388235 0.400000 0.945098
0.369721 0.380789 0.893617
0.161077 0.164111 0.304677
0.088788 0.088788 0.088788
0.095431 0.095431 0.095431
0.102075 0.102075 0.102075
0.108719 0.108719 0.108719
0.115362 0.115362 0.115362
0.122006 0.122006 0.122006
0.128650 0.128650 0.128650
0.135294 0.135294 0.135294
0.141938 0.141938 0.141938
0.148581 0.148581 0.148581
0.155225 0.155225 0.155225
0.161869 0.161869 0.161869
0.168513 0.168513 0.168513
0.175156 0.175156 0.175156
0.181800 0.181800 0.181800
0.188444 0.188444 0.188444
0.195088 0.195088 0.195088
0.201731 0.201731 0.201731
0.208375 0.208375 0.208375
0.215019 0.215019 0.215019
0.221663 0.221663 0.221663
0.228306 0.228306 0.228306
0.234950 0.234950 0.234950
0.388235 0.400000 0.945098
0.388235 0.400000 0.945098
0.388235 0.400000 0.945098
0.388235 0.400000 0.945098
0.388235 0.400000 0.945098
0.306186 0.314840 0.715810
0.101432 0.102086 0.132368
0.091206 0.091206 0.091206
0.097850 0.097850 0.097850
0.104494 0.104494 0.104494
0.111138 0.111138 0.111138
0.117781 0.117781 0.117781
0.124425 0.124425 0.124425
0.131069 0.131069 0.131069
0.137712 0.137712 0.137712
0.144356 0.144356 0.144356
0.151000 0.151000 0.151000
0.157644 0.157644 0.157644
0.164288 0.164288 0.164288
0.170931 0.170931 0.170931
0.177575 0.177575 0.177575
0.184219 0.184219 0.184219
0.190862 0.190862 0.190862
0.197506 0.197506 0.197506
0.204150 0.204150 0.204150
0.210794 0.210794 0.210794
0.217438 0.217438 0.217438
0.224081 0.224081 0.224081
0.230725 0.230725 0.230725
0.237369 0.237369 0.237369
0.243058 0.264083 0.298435
0.235829 0.449909 0.799674
0.231373 0.509804 0.964706
0.388235 0.400000 0.945098
0.388194 0.399957 0.944983
0.222104 0.227521 0.478501
0.086981 0.086981 0.086981
0.093625 0.093625 0.093625
0.100269 0.100269 0.100269
0.106912 0.106912 0.106912
0.113556 0.113556 0.113556
0.120200 0.120200 0.120200
0.126844 0.126844 0.126844
0.133488 0.133488 0.133488
0.140131 0.140131 0.140131
0.146775 0.146775 0.146775
0.153419 0.153419 0.153419
0.160062 0.160062 0.160062
0.166706 0.166706 0.166706
0.173350 0.173350 0.173350
0.179994 0.179994 0.179994
0.186638 0.186638 0.186638
0.193281 0.193281 0.193281
0.199925 0.199925 0.199925
0.206569 0.206569 0.206569
0.213212 0.213212 0.213212
0.219856 0.219856 0.219856
0.226500 0.226500 0.226500
0.233144 0.233144 0.233144
0.239788 0.239788 0.239788
0.242031 0.323385 0.456300
0.232272 0.499165 0.935217
0.231373 0.509804 0.964706
0.231373 0.509804 0.964706
0.231373 0.509804 0.964706
0.231373 0.509804 0.964706
0.089400 0.089400 0.089400
0.096044 0.096044 0.096044
0.102687 0.102687 0.102687
0.109331 0.109331 0.109331
0.115975 0.115975 0.115975
0.122619 0.122619 0.122619
0.129263 0.129263 0.129263
0.135906 0.135906 0.135906
0.142550 0.142550 0.142550
0.149194 0.149194 0.149194
0.155838 0.155838 0.155838
0.162481 0.162481 0.162481
0.169125 0.169125 0.169125
0.175769 0.175769 0.175769
0.182412 0.182412 0.182412
0.189056 0.189056 0.189056
0.195700 0.195700 0.195700
0.202344 0.202344 0.202344
0.208987 0.208987 0.208987
0.215631 0.215631 0.215631
0.222275 0.222275 0.222275
0.228919 0.228919 0.228919
0.235563 0.235563 0.235563
0.242183 0.242784 0.243767
0.238887 0.397603 0.656913
0.231373 0.509804 0.964706
0.231373 0.509804 0.964706
0.231373 0.509804 0.964706
0.231373 0.509804 0.964706
0.231373 0.509804 0.964706
0.259607 0.400937 0.631841
0.295356 0.295356 0.295356
0.302000 0.302000 0.302000
0.111750 0.111750 0.111750
0.118394 0.118394 0.118394
0.125037 0.125037 0.125037
0.131681 0.131681 0.131681
0.138325 0.138325 0.138325
0.144969 0.144969 0.144969
0.151612 0.151612 0.151612
0.158256 0.158256 0.158256
0.164900 0.164900 0.164900
0.171544 0.171544 0.171544
0.178187 0.178187 0.178187
0.184831 0.184831 0.184831
0.191475 0.191475 0.191475
0.198119 0.198119 0.198119
0.204762 0.204762 0.204762
0.211406 0.211406 0.211406
0.218050 0.218050 0.218050
0.224694 0.224694 0.224694
0.231338 0.231338 0.231338
0.237981 0.237981 0.237981
0.243033 0.276479 0.331122
0.234799 0.465275 0.841828
0.231373 0.509804 0.964706
0.231373 0.509804 0.964706
0.231373 0.509804 0.964706
0.231373 0.509804 0.964706
0.235208 0.493534 0.915589
0.277013 0.342793 0.450266
0.297775 0.297775 0.297775
0.304419 0.304419 0.304419
0.311063 0.311063 0.311063
0.164188 0.524372 0.585767
0.023529 0.713725 0.831373
0.134100 0.134100 0.134100
0.140744 0.140744 0.140744
0.147388 0.147388 0.147388
0.154031 0.154031 0.154031
0.160675 0.160675 0.160675
0.167319 0.167319 0.167319
0.173962 0.173962 0.173962
0.180606 0.180606 0.180606
0.187250 0.187250 0.187250
0.193894 0.193894 0.193894
0.200538 0.200538 0.200538
0.207181 0.207181 0.207181
0.213825 0.213825 0.213825
0.220469 0.220469 0.220469
0.227112 0.227112 0.227112
0.233756 0.233756 0.233756
0.240400 0.240400 0.240400
0.241403 0.341630 0.505382
0.231728 0.505726 0.953386
0.231373 0.509804 0.964706
0.231373 0.509804 0.964706
0.231373 0.509804 0.964706
0.231373 0.509804 0.964706
0.247295 0.445894 0.770365
0.290812 0.303074 0.323107
0.300194 0.300194 0.300194
0.306837 0.306837 0.306837
0.287630 0.349165 0.359654
0.086181 0.630583 0.723379
0.023529 0.713725 0.831373
0.023529 0.713725 0.831373
0.023529 0.713725 0.831373
0.023529 0.713725 0.831373
0.156450 0.156450 0.156450
0.163094 0.163094 0.163094
0.169737 0.169737 0.169737
0.176381 0.176381 0.176381
0.183025 0.183025 0.183025
0.189669 0.189669 0.189669
0.196312 0.196312 0.196312
0.202956 0.202956 0.202956
0.209600 0.209600 0.209600
0.216244 0.216244 0.216244
0.222887 0.222887 0.222887
0.229531 0.229531 0.229531
0.236175 0.236175 0.236175
0.242635 0.247099 0.254391
0.237877 0.416189 0.707514
0.231373 0.509804 0.964706
0.231373 0.509804 0.964706
0.231373 0.509804 0.964706
0.231373 0.509804 0.964706
0.231453 0.509446 0.963630
0.264065 0.385426 0.583707
0.295969 0.295969 0.295969
0.302612 0.302612 0.302612
0.309256 0.309256 0.309256
0.224102 0.440809 0.477747
0.033064 0.701252 0.815147
0.023529 0.713725 0.831373
0.023529 0.713725 0.831373
0.023529 0.713725 0.831373
0.023529 0.713725 0.831373
0.023529 0.713725 0.831373
0.183624 0.547752 0.609820
0.369050 0.369050 0.369050
0.178800 0.178800 0.178800
0.185444 0.185444 0.185444
0.192087 0.192087 0.192087
0.198731 0.198731 0.198731
0.205375 0.205375 0.205375
0.212019 0.212019 0.212019
0.218662 0.218662 0.218662
0.225306 0.225306 0.225306
0.231950 0.231950 0.231950
0.238594 0.238594 0.238594
0.242845 0.290887 0.369378
0.233831 0.478892 0.879274
0.231373 0.509804 0.964706
0.231373 0.509804 0.964706
0.231373 0.509804 0.964706
0.231373 0.509804 0.964706
0.237611 0.483714 0.885798
0.281065 0.330316 0.410782
0.298388 0.298388 0.298388
0.305031 0.305031 0.305031
0.310140 0.313816 0.314443
0.143435 0.552894 0.622688
0.023529 0.713725 0.831373
0.023529 0.713725 0.831373
0.023529 0.713725 0.831373
0.023529 0.713725 0.831373
0.023529 0.713725 0.831373
0.044139 0.691830 0.802232
0.278230 0.453350 0.483200
0.371469 0.371469 0.371469
0.378112 0.378112 0.378112
0.384756 0.384756 0.384756
0.330742 0.480989 0.386047
0.201150 0.201150 0.201150
0.207794 0.207794 0.207794
0.214438 0.214438 0.214438
0.221081 0.221081 0.221081
0.227725 0.227725 0.227725
0.234369 0.234369 0.234369
0.241012 0.241012 0.241012
0.240648 0.360474 0.556246
0.231421 0.509263 0.963201
0.231373 0.509804 0.964706
0.231373 0.509804 0.964706
0.231373 0.509804 0.964706
0.231373 0.509804 0.964706
0.251261 0.431063 0.724823
0.293057 0.297960 0.305970
0.300806 0.300806 0.300806
0.307450 0.307450 0.307450
0.274442 0.368629 0.384684
0.069397 0.653076 0.752567
0.023529 0.713725 0.831373
0.023529 0.713725 0.831373
0.023529 0.713725 0.831373
0.023529 0.713725 0.831373
0.023529 0.713725 0.831373
0.114068 0.618874 0.704921
0.348932 0.385703 0.391971
0.373888 0.373888 0.373888
0.380531 0.380531 0.380531
0.387175 0.387175 0.387175
0.261962 0.585531 0.381067
0.133333 0.772549 0.368627
0.133333 0.772549 0.368627
0.133333 0.772549 0.368627
0.223500 0.223500 0.223500
0.230144 0.230144 0.230144
0.236787 0.236787 0.236787
0.242929 0.254515 0.273444
0.236830 0.434010 0.756164
0.231373 0.509804 0.964706
0.231373 0.509804 0.964706
0.231373 0.509804 0.964706
0.231373 0.509804 0.964706
0.232121 0.506538 0.954881
0.268541 0.370263 0.536457
0.296581 0.296581 0.296581
0.303225 0.303225 0.303225
0.309869 0.309869 0.309869
0.204370 0.468550 0.513581
0.026542 0.709798 0.826262
0.023529 0.713725 0.831373
0.023529 0.713725 0.831373
0.023529 0.713725 0.831373
0.023529 0.713725 0.831373
0.023624 0.713624 0.831237
0.208293 0.522857 0.576476
0.369663 0.369663 0.369663
0.376306 0.376306 0.376306
0.382950 0.382950 0.382950
0.369105 0.420213 0.387917
0.192337 0.688094 0.374824
0.133333 0.772549 0.368627
0.133333 0.772549 0.368627
0.133333 0.772549 0.368627
0.133333 0.772549 0.368627
0.133333 0.772549 0.368627
0.137501 0.767918 0.369556
0.242499 0.306946 0.412239
0.232963 0.490431 0.911083
0.231373 0.509804 0.964706
0.231373 0.509804 0.964706
0.231373 0.509804 0.964706
0.231373 0.509804 0.964706
0.240498 0.472171 0.850680
0.284800 0.319301 0.375670
0.299000 0.299000 0.299000
0.305644 0.305644 0.305644
0.305597 0.321589 0.324315
0.123103 0.580648 0.658639
0.023529 0.713725 0.831373
0.023529 0.713725 0.831373
0.023529 0.713725 0.831373
0.023529 0.713725 0.831373
0.023529 0.713725 0.831373
0.058077 0.677152 0.782676
0.299513 0.432592 0.455277
0.372081 0.372081 0.372081
0.378725 0.378725 0.378725
0.385369 0.385369 0.385369
0.314563 0.505947 0.385011
0.143450 0.758293 0.369772
0.133333 0.772549 0.368627
0.133333 0.772549 0.368627
0.133333 0.772549 0.368627
0.133333 0.772549 0.368627
0.133333 0.772549 0.368627
0.183998 0.717096 0.380230
0.405986 0.486293 0.435547
0.451806 0.451806 0.451806
0.458450 0.458450 0.458450
0.231373 0.509804 0.964706
0.231373 0.509804 0.964706
0.231373 0.509804 0.964706
0.255464 0.415713 0.677528
0.294598 0.295374 0.296641
0.301419 0.301419 0.301419
0.308063 0.308063 0.308063
0.259046 0.390981 0.413470
0.054609 0.672778 0.778148
0.023529 0.713725 0.831373
0.023529 0.713725 0.831373
0.023529 0.713725 0.831373
0.023529 0.713725 0.831373
0.023529 0.713725 0.831373
0.136696 0.595589 0.673809
0.359644 0.376106 0.378912
0.374500 0.374500 0.374500
0.381144 0.381144 0.381144
0.387008 0.388966 0.387729
0.243572 0.612904 0.379522
0.133333 0.772549 0.368627
0.133333 0.772549 0.368627
0.133333 0.772549 0.368627
0.133333 0.772549 0.368627
0.133333 0.772549 0.368627
0.133333 0.772549 0.368627
0.263138 0.632614 0.399141
0.446610 0.448586 0.447337
0.454225 0.454225 0.454225
0.460869 0.460869 0.460869
0.467512 0.467512 0.467512
0.666132 0.372445 0.710085
0.850980 0.274510 0.937255
0.272956 0.355735 0.490980
0.297194 0.297194 0.297194
0.303837 0.303837 0.303837
0.310481 0.310481 0.310481
0.183916 0.497069 0.550447
0.023641 0.713581 0.831185
0.023529 0.713725 0.831373
0.023529 0.713725 0.831373
0.023529 0.713725 0.831373
0.023529 0.713725 0.831373
0.026732 0.710300 0.826817
0.232772 0.498335 0.543602
0.370275 0.370275 0.370275
0.376919 0.376919 0.376919
0.383562 0.383562 0.383562
0.357975 0.438182 0.387499
0.177126 0.710113 0.373318
0.133333 0.772549 0.368627
0.133333 0.772549 0.368627
0.133333 0.772549 0.368627
0.133333 0.772549 0.368627
0.133333 0.772549 0.368627
0.144873 0.759775 0.371217
0.350469 0.541987 0.420966
0.450000 0.450000 0.450000
0.456644 0.456644 0.456644
0.463287 0.463287 0.463287
0.501114 0.453939 0.508174
0.767989 0.319300 0.835139
0.850980 0.274510 0.937255
0.850980 0.274510 0.937255
0.850980 0.274510 0.937255
0.850980 0.274510 0.937255
0.297768 0.333860 0.340012
0.103587 0.607119 0.692948
0.023529 0.713725 0.831373
0.023529 0.713725 0.831373
0.023529 0.713725 0.831373
0.023529 0.713725 0.831373
0.023529 0.713725 0.831373
0.074851 0.659586 0.759257
0.318806 0.414005 0.430232
0.372694 0.372694 0.372694
0.379337 0.379337 0.379337
0.385981 0.385981 0.385981
0.297325 0.532262 0.383805
0.137010 0.767389 0.369051
0.133333 0.772549 0.368627
0.133333 0.772549 0.368627
0.133333 0.772549 0.368627
0.133333 0.772549 0.368627
0.133333 0.772549 0.368627
0.201904 0.697785 0.384437
0.420753 0.471945 0.439597
0.452419 0.452419 0.452419
0.459062 0.459062 0.459062
0.465706 0.465706 0.465706
0.586856 0.412519 0.612948
0.837295 0.282033 0.920396
0.850980 0.274510 0.937255
0.850980 0.274510 0.937255
0.850980 0.274510 0.937255
0.850980 0.274510 0.937255
0.850980 0.274510 0.937255
0.832198 0.288328 0.913593
0.610969 0.459592 0.633624
0.023529 0.713725 0.831373
0.023529 0.713725 0.831373
0.023529 0.713725 0.831373
0.023529 0.713725 0.831373
0.160448 0.571301 0.641333
0.366514 0.370425 0.371092
0.375113 0.375113 0.375113
0.381756 0.381756 0.381756
0.383739 0.395420 0.388039
0.225469 0.639648 0.377927
0.133333 0.772549 0.368627
0.133333 0.772549 0.368627
0.133333 0.772549 0.368627
0.133333 0.772549 0.368627
0.133333 0.772549 0.368627
0.133333 0.772549 0.368627
0.285461 0.609176 0.404620
0.448194 0.448194 0.448194
0.454838 0.454838 0.454838
0.461481 0.461481 0.461481
0.469459 0.467450 0.469760
0.693353 0.358416 0.743479
0.850980 0.274510 0.937255
0.850980 0.274510 0.937255
0.850980 0.274510 0.937255
0.850980 0.274510 0.937255
0.850980 0.274510 0.937255
0.850980 0.274510 0.937255
0.765363 0.338589 0.829234
0.546715 0.513175 0.551734
0.534563 0.534563 0.534563
0.541206 0.541206 0.541206
0.547850 0.547850 0.547850
0.033922 0.702647 0.816635
0.256611 0.474646 0.511811
0.370887 0.370887 0.370887
0.377531 0.377531 0.377531
0.384175 0.384175 0.384175
0.344813 0.459024 0.386854
0.163600 0.729567 0.371932
0.133333 0.772549 0.368627
0.133333 0.772549 0.368627
0.133333 0.772549 0.368627
0.133333 0.772549 0.368627
0.133333 0.772549 0.368627
0.155479 0.748128 0.373632
0.370893 0.521266 0.426245
0.450612 0.450612 0.450612
0.457256 0.457256 0.457256
0.463900 0.463900 0.463900
0.519138 0.445504 0.530159
0.789793 0.307687 0.861945
0.850980 0.274510 0.937255
0.850980 0.274510 0.937255
0.850980 0.274510 0.937255
0.850980 0.274510 0.937255
0.850980 0.274510 0.937255
0.850971 0.274517 0.937243
0.676119 0.407643 0.716299
0.530338 0.530338 0.530338
0.536981 0.536981 0.536981
0.543625 0.543625 0.543625
0.550301 0.550282 0.550223
0.750903 0.634914 0.274296
0.917647 0.701961 0.031373
0.917647 0.701961 0.031373
0.379950 0.379950 0.379950
0.386594 0.386594 0.386594
0.279365 0.559426 0.382455
0.133701 0.772035 0.368671
0.133333 0.772549 0.368627
0.133333 0.772549 0.368627
0.133333 0.772549 0.368627
0.133333 0.772549 0.368627
0.133333 0.772549 0.368627
0.221516 0.676771 0.389094
0.432762 0.460583 0.443003
0.453031 0.453031 0.453031
0.459675 0.459675 0.459675
0.466319 0.466319 0.466319
0.613093 0.399397 0.645074
0.846155 0.277175 0.931309
0.850980 0.274510 0.937255
0.850980 0.274510 0.937255
0.850980 0.274510 0.937255
0.850980 0.274510 0.937255
0.850980 0.274510 0.937255
0.818905 0.298211 0.896832
0.591395 0.475553 0.608731
0.532756 0.532756 0.532756
0.539400 0.539400 0.539400
0.546044 0.546044 0.546044
0.588796 0.567456 0.501109
0.846668 0.673707 0.135956
0.917647 0.701961 0.031373
0.917647 0.701961 0.031373
0.917647 0.701961 0.031373
0.917647 0.701961 0.031373
0.917647 0.701961 0.031373
0.133333 0.772549 0.368627
0.133333 0.772549 0.368627
0.133333 0.772549 0.368627
0.133333 0.772549 0.368627
0.133333 0.772549 0.368627
0.133842 0.771981 0.368740
0.307909 0.585787 0.410196
0.448806 0.448806 0.448806
0.455450 0.455450 0.455450
0.462094 0.462094 0.462094
0.476095 0.464999 0.477755
0.719924 0.344599 0.776096
0.850980 0.274510 0.937255
0.850980 0.274510 0.937255
0.850980 0.274510 0.937255
0.850980 0.274510 0.937255
0.850980 0.274510 0.937255
0.850980 0.274510 0.937255
0.743806 0.355073 0.801983
0.537334 0.521597 0.539689
0.535175 0.535175 0.535175
0.541819 0.541819 0.541819
0.548462 0.548462 0.548462
0.674372 0.603417 0.382813
0.908370 0.698306 0.045198
0.917647 0.701961 0.031373
0.917647 0.701961 0.031373
0.917647 0.701961 0.031373
0.917647 0.701961 0.031373
0.917647 0.701961 0.031373
0.908391 0.699022 0.048075
0.707410 0.638287 0.423376
0.614900 0.614900 0.614900
0.133333 0.772549 0.368627
0.133333 0.772549 0.368627
0.168938 0.733436 0.376729
0.389810 0.502294 0.431216
0.451225 0.451225 0.451225
0.457869 0.457869 0.457869
0.464512 0.464512 0.464512
0.539998 0.435515 0.555635
0.809024 0.297366 0.885598
0.850980 0.274510 0.937255
0.850980 0.274510 0.937255
0.850980 0.274510 0.937255
0.850980 0.274510 0.937255
0.850980 0.274510 0.937255
0.848464 0.276345 0.934087
0.653191 0.425753 0.687229
0.530950 0.530950 0.530950
0.537594 0.537594 0.537594
0.544237 0.544237 0.544237
0.553904 0.552126 0.546600
0.776799 0.645470 0.237157
0.917647 0.701961 0.031373
0.917647 0.701961 0.031373
0.917647 0.701961 0.031373
0.917647 0.701961 0.031373
0.917647 0.701961 0.031373
0.917647 0.701961 0.031373
0.853205 0.681838 0.149043
0.639334 0.619197 0.556591
0.617319 0.617319 0.617319
0.623962 0.623962 0.623962
0.630606 0.630606 0.630606
0.637250 0.637250 0.637250
0.441582 0.452623 0.445646
0.453644 0.453644 0.453644
0.460287 0.460287 0.460287
0.466931 0.466931 0.466931
0.640151 0.385713 0.678230
0.850566 0.274740 0.936744
0.850980 0.274510 0.937255
0.850980 0.274510 0.937255
0.850980 0.274510 0.937255
0.850980 0.274510 0.937255
0.850980 0.274510 0.937255
0.802856 0.310225 0.876583
0.573790 0.490116 0.586313
0.533369 0.533369 0.533369
0.540013 0.540013 0.540013
0.546656 0.546656 0.546656
0.607222 0.575301 0.476056
0.866636 0.681708 0.106750
0.917647 0.701961 0.031373
0.917647 0.701961 0.031373
0.917647 0.701961 0.031373
0.917647 0.701961 0.031373
0.917647 0.701961 0.031373
0.917647 0.701961 0.031373
0.771005 0.656954 0.302360
0.613094 0.613094 0.613094
0.619737 0.619737 0.619737
0.626381 0.626381 0.626381
0.633025 0.633025 0.633025
0.639669 0.639669 0.639669
0.646312 0.646312 0.646312
0.652956 0.652956 0.652956
0.659600 0.659600 0.659600
0.487102 0.460287 0.491115
0.745355 0.331263 0.807328
0.850980 0.274510 0.937255
0.850980 0.274510 0.937255
0.850980 0.274510 0.937255
0.850980 0.274510 0.937255
0.850980 0.274510 0.937255
0.850980 0.274510 0.937255
0.721257 0.372446 0.773460
0.531549 0.527241 0.532194
0.535787 0.535787 0.535787
0.542431 0.542431 0.542431
0.549075 0.549075 0.549075
0.699893 0.613974 0.346846
0.915226 0.701010 0.034991
0.917647 0.701961 0.031373
0.917647 0.701961 0.031373
0.917647 0.701961 0.031373
0.917647 0.701961 0.031373
0.917647 0.701961 0.031373
0.898418 0.695880 0.066174
0.687544 0.632588 0.461725
0.615513 0.615513 0.615513
0.622156 0.622156 0.622156
0.628800 0.628800 0.628800
0.635444 0.635444 0.635444
0.642088 0.642088 0.642088
0.648731 0.648731 0.648731
0.655375 0.655375 0.655375
0.662019 0.662019 0.662019
0.668662 0.668662 0.668662
0.675306 0.675306 0.675306
0.681950 0.681950 0.681950
0.850980 0.274510 0.937255
0.850980 0.274510 0.937255
0.850980 0.274510 0.937255
0.850980 0.274510 0.937255
0.841851 0.281198 0.925759
0.630985 0.443462 0.659050
0.531562 0.531562 0.531562
0.538206 0.538206 0.538206
0.544850 0.544850 0.544850
0.562002 0.555812 0.536567
0.801885 0.655650 0.200991
0.917647 0.701961 0.031373
0.917647 0.701961 0.031373
0.917647 0.701961 0.031373
0.917647 0.701961 0.031373
0.917647 0.701961 0.031373
0.917647 0.701961 0.031373
0.833913 0.675927 0.184733
0.627788 0.616171 0.580053
0.617931 0.617931 0.617931
0.624575 0.624575 0.624575
0.631219 0.631219 0.631219
0.637862 0.637862 0.637862
0.644506 0.644506 0.644506
0.651150 0.651150 0.651150
0.657794 0.657794 0.657794
0.664438 0.664438 0.664438
0.671081 0.671081 0.671081
0.677725 0.677725 0.677725
0.684369 0.684369 0.684369
0.691013 0.691013 0.691013
0.754513 0.595383 0.595383
0.920588 0.297977 0.297977
0.850980 0.274510 0.937255
0.784503 0.324060 0.853413
0.558573 0.502937 0.566899
0.533981 0.533981 0.533981
0.540625 0.540625 0.540625
0.547269 0.547269 0.547269
0.628168 0.584136 0.447237
0.883955 0.688619 0.081302
0.917647 0.701961 0.031373
0.917647 0.701961 0.031373
0.917647 0.701961 0.031373
0.917647 0.701961 0.031373
0.917647 0.701961 0.031373
0.917571 0.701936 0.031509
0.748990 0.650428 0.343990
0.613706 0.613706 0.613706
0.620350 0.620350 0.620350
0.626994 0.626994 0.626994
0.633638 0.633638 0.633638
0.640281 0.640281 0.640281
0.646925 0.646925 0.646925
0.653569 0.653569 0.653569
0.660212 0.660212 0.660212
0.666856 0.666856 0.666856
0.673500 0.673500 0.673500
0.680144 0.680144 0.680144
0.686787 0.686787 0.686787
0.693431 0.693431 0.693431
0.820752 0.479557 0.479557
0.937255 0.266667 0.266667
0.937255 0.266667 0.266667
0.937255 0.266667 0.266667
0.937255 0.266667 0.266667
0.536400 0.536400 0.536400
0.543044 0.543044 0.543044
0.549687 0.549687 0.549687
0.726007 0.624720 0.309808
0.917647 0.701961 0.031373
0.917647 0.701961 0.031373
0.917647 0.701961 0.031373
0.917647 0.701961 0.031373
0.917647 0.701961 0.031373
0.917647 0.701961 0.031373
0.885450 0.691823 0.089818
0.669202 0.627403 0.497447
0.616125 0.616125 0.616125
0.622769 0.622769 0.622769
0.629412 0.629412 0.629412
0.636056 0.636056 0.636056
0.642700 0.642700 0.642700
0.649344 0.649344 0.649344
0.655987 0.655987 0.655987
0.662631 0.662631 0.662631
0.669275 0.669275 0.669275
0.675919 0.675919 0.675919
0.682562 0.682562 0.682562
0.689206 0.689206 0.689206
0.715513 0.660891 0.660891
0.885087 0.363516 0.363516
0.937255 0.266667 0.266667
0.937255 0.266667 0.266667
0.937255 0.266667 0.266667
0.937255 0.266667 0.266667
0.937255 0.266667 0.266667
0.937255 0.266667 0.266667
0.937255 0.266667 0.266667
0.825689 0.665267 0.166500
0.917647 0.701961 0.031373
0.917647 0.701961 0.031373
0.917647 0.701961 0.031373
0.917647 0.701961 0.031373
0.917647 0.701961 0.031373
0.917647 0.701961 0.031373
0.813316 0.669664 0.223037
0.619317 0.614085 0.597818
0.618544 0.618544 0.618544
0.625188 0.625188 0.625188
0.631831 0.631831 0.631831
0.638475 0.638475 0.638475
0.645119 0.645119 0.645119
0.651763 0.651763 0.651763
0.658406 0.658406 0.658406
0.665050 0.665050 0.665050
0.671694 0.671694 0.671694
0.678338 0.678338 0.678338
0.684981 0.684981 0.684981
0.691625 0.691625 0.691625
0.770398 0.568005 0.568005
0.928645 0.282907 0.282907
0.937255 0.266667 0.266667
0.937255 0.266667 0.266667
0.937255 0.266667 0.266667
0.937255 0.266667 0.266667
0.937255 0.266667 0.266667
0.937255 0.266667 0.266667
0.937255 0.266667 0.266667
0.937255 0.266667 0.266667
0.937255 0.266667 0.266667
0.937255 0.266667 0.266667
0.917647 0.701961 0.031373
0.917647 0.701961 0.031373
0.917647 0.701961 0.031373
0.914689 0.701018 0.036694
0.727308 0.644064 0.385253
0.614319 0.614319 0.614319
