luts/FalseColor_nlog.cube
# False Color Exposure Monitor LUT
# Profile  : Nikon N-Log  [approximate]
# Cameras  : Z6, Z7, Z6II, Z7II, Z8, Z9
# Generator: false_color_generator.py
#
# Zone Reference:
#   #ef4444     white_clip      log 0.720 - 1.000
#   #eab308     +2 stops        log 0.552 - 0.628
#   #d946ef     +1 stops        log 0.436 - 0.504
#   #22c55e     +0 stops        log 0.335 - 0.393
#   #06b6d4     -1 stops        log 0.256 - 0.301
#   #3b82f6     -2 stops        log 0.201 - 0.231
#   #6366f1     black_clip      log 0.000 - 0.130
#   Grayscale   = between zones / untagged
#
TITLE "FalseColor Nikon N-Log  [approximate]"
LUT_3D_SIZE 33
DOMAIN_MIN 0.0 0.0 0.0
DOMAIN_MAX 1.0 1.0 1.0
0.194118 0.200000 0.472549
0.341852 0.352187 0.831027
0.388235 0.400000 0.945098
0.388235 0.400000 0.945098
0.388235 0.400000 0.945098
0.388235 0.400000 0.945098
0.388235 0.400000 0.945098
0.388235 0.400000 0.945098
0.388235 0.400000 0.945098
0.388235 0.400000 0.945098
0.388235 0.400000 0.945098
0.388235 0.400000 0.945098
0.388235 0.400000 0.945098
0.388235 0.400000 0.945098
0.388235 0.400000 0.945098
0.388235 0.400000 0.945098
0.388235 0.400000 0.945098
0.388235 0.400000 0.945098
0.385666 0.397319 0.937204
0.318015 0.326627 0.725632
0.214694 0.218464 0.393118
0.145897 0.146199 0.160177
0.146163 0.146163 0.146163
0.152806 0.152806 0.152806
0.159450 0.159450 0.159450
0.166094 0.166094 0.166094
0.172738 0.172738 0.172738
0.179381 0.179381 0.179381
0.186025 0.186025 0.186025
0.195018 0.211915 0.239521
0.212102 0.323179 0.504657
0.226341 0.449647 0.814485
0.231372 0.509795 0.964683
0.388235 0.400000 0.945098
0.388235 0.400000 0.945098
0.388235 0.400000 0.945098
0.388235 0.400000 0.945098
0.388235 0.400000 0.945098
0.388235 0.400000 0.945098
0.388235 0.400000 0.945098
0.388235 0.400000 0.945098
0.388235 0.400000 0.945098
0.388235 0.400000 0.945098
0.388235 0.400000 0.945098
0.388235 0.400000 0.945098
0.388235 0.400000 0.945098
0.388235 0.400000 0.945098
0.388235 0.400000 0.945098
0.369896 0.380850 0.888398
0.280680 0.287570 0.606815
0.182180 0.184361 0.285402
0.141938 0.141938 0.141938
0.148581 0.148581 0.148581
0.155225 0.155225 0.155225
0.161869 0.161869 0.161869
0.168513 0.168513 0.168513
0.175156 0.175156 0.175156
0.181800 0.181800 0.181800
0.188444 0.188444 0.188444
0.200867 0.245218 0.317678
0.218105 0.371907 0.623190
0.229350 0.483289 0.898177
0.231373 0.509804 0.964706
0.231169 0.503763 0.949128
0.230431 0.423340 0.738517
0.233945 0.312131 0.439871
0.388235 0.400000 0.945098
0.388235 0.400000 0.945098
0.388235 0.400000 0.945098
0.388235 0.400000 0.945098
0.388235 0.400000 0.945098
0.388235 0.400000 0.945098
0.388235 0.400000 0.945098
0.388235 0.400000 0.945098
0.388235 0.400000 0.945098
0.388235 0.400000 0.945098
0.388235 0.400000 0.945098
0.388235 0.400000 0.945098
0.343055 0.352804 0.804548
0.242183 0.247266 0.482787
0.157461 0.158388 0.201357
0.144356 0.144356 0.144356
0.151000 0.151000 0.151000
0.157644 0.157644 0.157644
0.164288 0.164288 0.164288
0.170931 0.170931 0.170931
0.177575 0.177575 0.177575
0.184219 0.184219 0.184219
0.191481 0.195735 0.202685
0.207302 0.287833 0.419406
0.223244 0.418537 0.737607
0.230999 0.504375 0.951019
0.231373 0.509804 0.964706
0.230690 0.483075 0.895422
0.231077 0.382320 0.629421
0.236455 0.278880 0.348195
0.244012 0.244012 0.244012
0.213068 0.327293 0.346763
0.126270 0.513129 0.579071
0.388235 0.400000 0.945098
0.388235 0.400000 0.945098
0.388235 0.400000 0.945098
0.388235 0.400000 0.945098
0.388235 0.400000 0.945098
0.388235 0.400000 0.945098
0.388235 0.400000 0.945098
0.388235 0.400000 0.945098
0.382929 0.394461 0.928767
0.308861 0.317053 0.696626
0.205895 0.209239 0.364173
0.143562 0.143725 0.151263
0.146775 0.146775 0.146775
0.153419 0.153419 0.153419
0.160062 0.160062 0.160062
0.166706 0.166706 0.166706
0.173350 0.173350 0.173350
0.179994 0.179994 0.179994
0.186638 0.186638 0.186638
0.196404 0.219228 0.256518
0.213683 0.335497 0.534515
0.227229 0.459152 0.838067
0.231373 0.509804 0.964706
0.231370 0.509728 0.964511
0.230371 0.451567 0.812957
0.232453 0.341012 0.518376
0.239316 0.254925 0.280428
0.242515 0.254641 0.256707
0.184960 0.389768 0.424679
0.092279 0.581575 0.664977
0.027373 0.706645 0.822430
0.023529 0.713725 0.831373
0.023529 0.713725 0.831373
0.388235 0.400000 0.945098
0.388235 0.400000 0.945098
0.388235 0.400000 0.945098
0.388235 0.400000 0.945098
0.388235 0.400000 0.945098
0.363996 0.374687 0.870042
0.270906 0.277340 0.575478
0.175062 0.176887 0.261473
0.142550 0.142550 0.142550
0.149194 0.149194 0.149194
0.155838 0.155838 0.155838
0.162481 0.162481 0.162481
0.169125 0.169125 0.169125
0.175769 0.175769 0.175769
0.182412 0.182412 0.182412
0.189056 0.189056 0.189056
0.202469 0.255299 0.341614
0.219501 0.384070 0.652944
0.229896 0.489959 0.914852
0.231373 0.509804 0.964706
0.231055 0.499769 0.938795
0.230528 0.413183 0.711604
0.234532 0.303016 0.414905
0.242153 0.243518 0.245749
0.229300 0.289185 0.299393
0.152128 0.459687 0.512112
0.061900 0.641107 0.739835
0.023529 0.713725 0.831373
0.023529 0.713725 0.831373
0.023529 0.713725 0.831373
0.023529 0.713725 0.831373
0.069834 0.642458 0.740064
0.181354 0.480377 0.531347
0.388235 0.400000 0.945098
0.388197 0.399961 0.944982
0.334947 0.344330 0.779065
0.232654 0.237285 0.451822
0.152801 0.153483 0.185059
0.144969 0.144969 0.144969
0.151612 0.151612 0.151612
0.158256 0.158256 0.158256
0.164900 0.164900 0.164900
0.171544 0.171544 0.171544
0.178187 0.178187 0.178187
0.184831 0.184831 0.184831
0.192575 0.200250 0.212791
0.208945 0.299591 0.447689
0.224371 0.429543 0.764753
0.231205 0.507294 0.958370
0.231373 0.509804 0.964706
0.230580 0.475961 0.876867
0.231355 0.371742 0.601107
0.237159 0.271805 0.328409
0.244623 0.244630 0.244631
0.206553 0.342071 0.365171
0.117496 0.530985 0.601466
0.038404 0.686005 0.796391
0.023529 0.713725 0.831373
0.023529 0.713725 0.831373
0.023529 0.713725 0.831373
0.028731 0.705512 0.820872
0.106506 0.587874 0.669925
0.224278 0.421199 0.454765
0.306998 0.316755 0.318418
0.317706 0.317706 0.317706
0.323779 0.325690 0.324482
0.197446 0.200378 0.336250
0.142108 0.142173 0.145177
0.147388 0.147388 0.147388
0.154031 0.154031 0.154031
0.160675 0.160675 0.160675
0.167319 0.167319 0.167319
0.173962 0.173962 0.173962
0.180606 0.180606 0.180606
0.187250 0.187250 0.187250
0.197863 0.227347 0.275520
0.215227 0.347871 0.564586
0.228033 0.468027 0.860131
0.231373 0.509804 0.964706
0.231333 0.508743 0.961977
0.230356 0.442344 0.788690
0.232917 0.330938 0.491084
0.240054 0.250724 0.268158
0.240214 0.261303 0.264898
0.176979 0.407012 0.446222
0.084117 0.597721 0.685267
0.025191 0.710677 0.827521
0.023529 0.713725 0.831373
0.023529 0.713725 0.831373
0.023529 0.713725 0.831373
0.047977 0.675683 0.782678
0.148548 0.526859 0.591344
0.262624 0.370337 0.388697
0.313481 0.313481 0.313481
0.320125 0.320125 0.320125
0.317188 0.348849 0.328842
0.258061 0.498794 0.346675
0.178176 0.678731 0.362430
0.133548 0.772120 0.368605
0.156450 0.156450 0.156450
0.163094 0.163094 0.163094
0.169737 0.169737 0.169737
0.176381 0.176381 0.176381
0.183025 0.183025 0.183025
0.189731 0.190145 0.190823
0.204096 0.265907 0.366895
0.220837 0.396034 0.682273
0.230354 0.495765 0.929394
0.231373 0.509804 0.964706
0.230931 0.494888 0.926141
0.230670 0.402830 0.684105
0.235154 0.294336 0.391029
0.242811 0.242996 0.243299
0.224336 0.301094 0.314177
0.143410 0.477848 0.534855
0.055167 0.654083 0.756171
0.023529 0.713725 0.831373
0.023529 0.713725 0.831373
0.023529 0.713725 0.831373
0.023559 0.713679 0.831313
0.078424 0.629550 0.723492
0.192449 0.464892 0.511332
0.292536 0.332925 0.339810
0.315900 0.315900 0.315900
0.322544 0.322544 0.322544
0.301302 0.392312 0.334803
0.228587 0.567120 0.353200
0.154676 0.728660 0.365959
0.133333 0.772549 0.368627
0.133333 0.772549 0.368627
0.133333 0.772549 0.368627
0.133333 0.772549 0.368627
0.178800 0.178800 0.178800
0.185444 0.185444 0.185444
0.193781 0.205785 0.225398
0.210575 0.311604 0.476666
0.225420 0.440100 0.790844
0.231328 0.509121 0.962981
0.231373 0.509804 0.964706
0.230486 0.468219 0.856629
0.231681 0.361206 0.572824
0.237881 0.265379 0.310306
0.244730 0.246310 0.246580
0.199600 0.357621 0.384557
0.108802 0.548547 0.623504
0.033949 0.694383 0.806957
0.023529 0.713725 0.831373
0.023529 0.713725 0.831373
0.023529 0.713725 0.831373
0.032369 0.699818 0.813588
0.116781 0.572813 0.650545
0.234571 0.407328 0.436775
0.310030 0.313971 0.314643
0.318319 0.318319 0.318319
0.323107 0.329295 0.325385
0.278370 0.449999 0.341546
0.198886 0.633618 0.358910
0.138719 0.761662 0.368023
0.133333 0.772549 0.368627
0.133333 0.772549 0.368627
0.133333 0.772549 0.368627
0.133333 0.772549 0.368627
0.133333 0.772549 0.368627
0.145220 0.754215 0.369390
0.229298 0.630815 0.377096
0.216727 0.360238 0.594706
0.228750 0.476213 0.880520
0.231373 0.509804 0.964706
0.231261 0.506671 0.956638
0.230376 0.432744 0.763372
0.233425 0.321134 0.464433
0.240784 0.247381 0.258158
0.237177 0.269448 0.274949
0.168741 0.424633 0.468250
0.076239 0.613201 0.704729
0.023893 0.713060 0.830532
0.023529 0.713725 0.831373
0.023529 0.713725 0.831373
0.023529 0.713725 0.831373
0.054756 0.665315 0.769388
0.159631 0.511044 0.570943
0.271151 0.359391 0.374432
0.314094 0.314094 0.314094
0.320738 0.320738 0.320738
0.313957 0.358178 0.330235
0.250764 0.515956 0.348381
0.171676 0.692681 0.363457
0.133333 0.772549 0.368627
0.133333 0.772549 0.368627
0.133333 0.772549 0.368627
0.133333 0.772549 0.368627
0.133333 0.772549 0.368627
0.133333 0.772549 0.368627
0.168580 0.719038 0.371203
0.270017 0.573820 0.381846
0.372368 0.439595 0.397114
0.407106 0.407106 0.407106
0.413750 0.413750 0.413750
0.230806 0.489186 0.911328
0.230856 0.392342 0.656178
0.235808 0.286148 0.368392
0.243431 0.243431 0.243431
0.218804 0.314075 0.330314
0.134625 0.496000 0.557598
0.048930 0.666029 0.771216
0.023529 0.713725 0.831373
0.023529 0.713725 0.831373
0.023529 0.713725 0.831373
0.024335 0.712444 0.829736
0.087522 0.615963 0.706038
0.203430 0.449690 0.491667
0.298300 0.326185 0.330938
0.316512 0.316512 0.316512
0.323156 0.323156 0.323156
0.296070 0.405812 0.336466
0.220982 0.584355 0.354739
0.149803 0.738828 0.366622
0.133333 0.772549 0.368627
0.133333 0.772549 0.368627
0.133333 0.772549 0.368627
0.133333 0.772549 0.368627
0.133333 0.772549 0.368627
0.135490 0.769182 0.368751
0.201017 0.671403 0.374165
0.310925 0.518350 0.387278
0.395559 0.412924 0.401951
0.409525 0.409525 0.409525
0.416169 0.416169 0.416169
0.422812 0.422812 0.422812
0.483936 0.409430 0.495087
0.648168 0.353502 0.692268
0.243981 0.249783 0.250772
0.192253 0.373844 0.404797
0.100238 0.565722 0.645065
0.030209 0.701374 0.815777
0.023529 0.713725 0.831373
0.023529 0.713725 0.831373
0.023529 0.713725 0.831373
0.036878 0.692802 0.804607
0.127345 0.557429 0.630739
0.244510 0.394075 0.419569
0.312002 0.312684 0.312801
0.318931 0.318931 0.318931
0.321737 0.334498 0.326435
0.271725 0.466151 0.343293
0.191650 0.649496 0.360182
0.136238 0.766703 0.368311
0.133333 0.772549 0.368627
0.133333 0.772549 0.368627
0.133333 0.772549 0.368627
0.133333 0.772549 0.368627
0.133333 0.772549 0.368627
0.150110 0.746777 0.369742
0.239405 0.616510 0.378217
0.348553 0.469262 0.392986
0.405300 0.405300 0.405300
0.411944 0.411944 0.411944
0.418588 0.418588 0.418588
0.427809 0.424319 0.428332
0.537518 0.392208 0.559265
0.711832 0.329840 0.769000
0.837920 0.280002 0.921418
0.850980 0.274510 0.937255
0.850980 0.274510 0.937255
0.023529 0.713725 0.831373
0.023529 0.713725 0.831373
0.023529 0.713725 0.831373
0.023529 0.713725 0.831373
0.062201 0.653996 0.754870
0.170775 0.495255 0.550565
0.279074 0.349391 0.361377
0.314706 0.314706 0.314706
0.321350 0.321350 0.321350
0.310166 0.368708 0.331715
0.243326 0.533273 0.350055
0.165517 0.705802 0.364395
0.133333 0.772549 0.368627
0.133333 0.772549 0.368627
0.133333 0.772549 0.368627
0.133333 0.772549 0.368627
0.133333 0.772549 0.368627
0.133333 0.772549 0.368627
0.176057 0.707946 0.371845
0.280493 0.559435 0.383171
0.379301 0.431284 0.398436
0.407719 0.407719 0.407719
0.414362 0.414362 0.414362
0.421006 0.421006 0.421006
0.452851 0.418534 0.457986
0.599594 0.370907 0.633819
0.769034 0.307770 0.838067
0.850953 0.274521 0.937222
0.850980 0.274510 0.937255
0.850980 0.274510 0.937255
0.850980 0.274510 0.937255
0.850980 0.274510 0.937255
0.850980 0.274510 0.937255
0.026130 0.709604 0.826106
0.097073 0.601788 0.687818
0.214238 0.434857 0.472463
0.303203 0.320710 0.323694
0.317125 0.317125 0.317125
0.323739 0.323838 0.323776
0.290423 0.420127 0.338167
0.213405 0.601381 0.356219
0.145462 0.747823 0.367190
0.133333 0.772549 0.368627
0.133333 0.772549 0.368627
0.133333 0.772549 0.368627
0.133333 0.772549 0.368627
0.133333 0.772549 0.368627
0.137959 0.765358 0.368904
0.210302 0.657986 0.375093
0.320904 0.505127 0.388716
0.399448 0.409020 0.402972
0.410137 0.410137 0.410137
0.416781 0.416781 0.416781
0.423425 0.423425 0.423425
0.496391 0.405558 0.509985
0.664609 0.347482 0.712070
0.814568 0.289593 0.893135
0.850980 0.274510 0.937255
0.850980 0.274510 0.937255
0.850980 0.274510 0.937255
0.850980 0.274510 0.937255
0.850980 0.274510 0.937255
0.850980 0.274510 0.937255
0.850980 0.274510 0.937255
0.824647 0.291002 0.904512
0.703470 0.371473 0.753156
0.312900 0.312900 0.312900
0.319544 0.319544 0.319544
0.319702 0.341198 0.327615
0.264819 0.482738 0.345035
0.184618 0.664807 0.361375
0.134487 0.770237 0.368505
0.133333 0.772549 0.368627
0.133333 0.772549 0.368627
0.133333 0.772549 0.368627
0.133333 0.772549 0.368627
0.133333 0.772549 0.368627
0.155727 0.738285 0.370166
0.249686 0.602065 0.379396
0.357134 0.458411 0.394414
0.405912 0.405912 0.405912
0.412556 0.412556 0.412556
0.419200 0.419200 0.419200
0.432079 0.423624 0.433344
0.552656 0.387125 0.577429
0.727136 0.324012 0.787467
0.843350 0.277735 0.928000
0.850980 0.274510 0.937255
0.850980 0.274510 0.937255
0.850980 0.274510 0.937255
0.850980 0.274510 0.937255
0.850980 0.274510 0.937255
0.850980 0.274510 0.937255
0.850980 0.274510 0.937255
0.787971 0.314675 0.858804
0.651435 0.407993 0.687868
0.537039 0.494792 0.543362
0.518856 0.518856 0.518856
0.525500 0.525500 0.525500
0.235791 0.550653 0.351691
0.159748 0.718006 0.365242
0.133333 0.772549 0.368627
0.133333 0.772549 0.368627
0.133333 0.772549 0.368627
0.133333 0.772549 0.368627
0.133333 0.772549 0.368627
0.133345 0.772531 0.368628
0.184067 0.696140 0.372560
0.290926 0.545228 0.384534
0.385556 0.423982 0.399700
0.408331 0.408331 0.408331
0.414975 0.414975 0.414975
0.421619 0.421619 0.421619
0.462358 0.415861 0.469316
0.615996 0.365096 0.653546
0.781871 0.302705 0.853583
0.850980 0.274510 0.937255
0.850980 0.274510 0.937255
0.850980 0.274510 0.937255
0.850980 0.274510 0.937255
0.850980 0.274510 0.937255
0.850980 0.274510 0.937255
0.850980 0.274510 0.937255
0.842811 0.279559 0.927108
0.741596 0.345475 0.800879
0.602403 0.443718 0.626152
0.518461 0.511897 0.519444
0.521275 0.521275 0.521275
0.527919 0.527919 0.527919
0.534563 0.534563 0.534563
0.541664 0.541402 0.540587
0.628918 0.581635 0.434626
0.133333 0.772549 0.368627
0.133333 0.772549 0.368627
0.133333 0.772549 0.368627
0.133333 0.772549 0.368627
0.141295 0.760222 0.369121
0.219916 0.644187 0.376090
0.330615 0.492392 0.390165
0.402412 0.406412 0.403884
0.410750 0.410750 0.410750
0.417394 0.417394 0.417394
0.424037 0.424037 0.424037
0.509661 0.401335 0.525873
0.680890 0.341458 0.731689
0.823638 0.285894 0.904117
0.850980 0.274510 0.937255
0.850980 0.274510 0.937255
0.850980 0.274510 0.937255
0.850980 0.274510 0.937255
0.850980 0.274510 0.937255
0.850980 0.274510 0.937255
0.850980 0.274510 0.937255
0.816542 0.296174 0.894420
0.690255 0.380629 0.736594
0.560763 0.475527 0.573520
0.517050 0.517050 0.517050
0.523694 0.523694 0.523694
0.530338 0.530338 0.530338
0.536981 0.536981 0.536981
0.559217 0.550225 0.522271
0.682409 0.604830 0.363630
0.834035 0.668341 0.153183
0.916705 0.701592 0.032789
0.917647 0.701961 0.031373
0.133333 0.772549 0.368627
0.162023 0.728828 0.370663
0.260086 0.587563 0.380630
0.365216 0.448348 0.395817
0.406525 0.406525 0.406525
0.413169 0.413169 0.413169
0.419812 0.419812 0.419812
0.437815 0.422391 0.440124
0.568247 0.381810 0.596149
0.741940 0.318322 0.805338
0.847387 0.276036 0.932895
0.850980 0.274510 0.937255
0.850980 0.274510 0.937255
0.850980 0.274510 0.937255
0.850980 0.274510 0.937255
0.850980 0.274510 0.937255
0.850980 0.274510 0.937255
0.850788 0.274627 0.937017
0.776955 0.321908 0.845058
0.638559 0.417236 0.671682
0.530778 0.500173 0.535358
0.519469 0.519469 0.519469
0.526112 0.526112 0.526112
0.532756 0.532756 0.532756
0.539400 0.539400 0.539400
0.594329 0.566303 0.479169
0.739600 0.629137 0.285698
0.877018 0.685788 0.091238
0.917647 0.701961 0.031373
0.917647 0.701961 0.031373
0.917647 0.701961 0.031373
0.917647 0.701961 0.031373
0.917647 0.701961 0.031373
0.391069 0.417761 0.400894
0.408944 0.408944 0.408944
0.415587 0.415587 0.415587
0.422231 0.422231 0.422231
0.472956 0.412755 0.481965
0.632498 0.359181 0.673402
0.793875 0.297928 0.868099
0.850980 0.274510 0.937255
0.850980 0.274510 0.937255
0.850980 0.274510 0.937255
0.850980 0.274510 0.937255
0.850980 0.274510 0.937255
0.850980 0.274510 0.937255
0.850980 0.274510 0.937255
0.837689 0.282761 0.920739
0.728880 0.354078 0.784973
0.590989 0.452269 0.611750
0.516583 0.514284 0.516927
0.521888 0.521888 0.521888
0.528531 0.528531 0.528531
0.535175 0.535175 0.535175
0.544160 0.542816 0.538639
0.641844 0.587289 0.417669
0.795681 0.652556 0.207567
0.906328 0.697502 0.048240
0.917647 0.701961 0.031373
0.917647 0.701961 0.031373
0.917647 0.701961 0.031373
0.917647 0.701961 0.031373
0.917647 0.701961 0.031373
0.917647 0.701961 0.031373
0.917647 0.701961 0.031373
0.917647 0.701961 0.031373
0.425202 0.424455 0.425314
0.523654 0.396790 0.542641
0.696923 0.335465 0.751019
0.831552 0.282640 0.913702
0.850980 0.274510 0.937255
0.850980 0.274510 0.937255
0.850980 0.274510 0.937255
0.850980 0.274510 0.937255
0.850980 0.274510 0.937255
0.850980 0.274510 0.937255
0.850980 0.274510 0.937255
0.807584 0.301933 0.883259
0.677019 0.389879 0.719992
0.551903 0.482576 0.562278
0.517662 0.517662 0.517662
0.524306 0.524306 0.524306
0.530950 0.530950 0.530950
0.537594 0.537594 0.537594
0.566654 0.553706 0.513450
0.696734 0.610961 0.344287
0.845969 0.673213 0.136097
0.917630 0.701954 0.031399
0.917647 0.701961 0.031373
0.917647 0.701961 0.031373
0.917647 0.701961 0.031373
0.917647 0.701961 0.031373
0.917647 0.701961 0.031373
0.917647 0.701961 0.031373
0.917647 0.701961 0.031373
0.914357 0.701034 0.037791
0.837296 0.680621 0.193503
0.720905 0.653053 0.442095
0.643851 0.638773 0.622987
0.849952 0.274949 0.936007
0.850980 0.274510 0.937255
0.850980 0.274510 0.937255
0.850980 0.274510 0.937255
0.850980 0.274510 0.937255
0.850980 0.274510 0.937255
0.850980 0.274510 0.937255
0.849355 0.275506 0.935237
0.765396 0.329554 0.830624
0.625949 0.426379 0.655816
0.525530 0.504878 0.528620
0.520081 0.520081 0.520081
0.526725 0.526725 0.526725
0.533369 0.533369 0.533369
0.540013 0.540013 0.540013
0.605389 0.571243 0.465080
0.754093 0.635228 0.265663
0.885906 0.689359 0.078275
0.917647 0.701961 0.031373
0.917647 0.701961 0.031373
0.917647 0.701961 0.031373
0.917647 0.701961 0.031373
0.917647 0.701961 0.031373
0.917647 0.701961 0.031373
0.917647 0.701961 0.031373
0.917647 0.701961 0.031373
0.896119 0.696019 0.073890
0.795180 0.670182 0.281552
0.684382 0.645464 0.524464
0.639669 0.639669 0.639669
0.646312 0.646312 0.646312
0.652956 0.652956 0.652956
0.659600 0.659600 0.659600
0.850980 0.274510 0.937255
0.850980 0.274510 0.937255
0.850980 0.274510 0.937255
0.850980 0.274510 0.937255
0.831477 0.286672 0.913012
0.715922 0.362915 0.768753
0.580120 0.460518 0.598020
0.515975 0.515771 0.516005
0.522500 0.522500 0.522500
0.529144 0.529144 0.529144
0.535787 0.535787 0.535787
0.548033 0.544813 0.534801
0.655243 0.593114 0.399950
0.809145 0.658119 0.188565
0.911061 0.699373 0.041215
0.917647 0.701961 0.031373
0.917647 0.701961 0.031373
0.917647 0.701961 0.031373
0.917647 0.701961 0.031373
0.917647 0.701961 0.031373
0.917647 0.701961 0.031373
0.917647 0.701961 0.031373
0.917647 0.701961 0.031373
0.865612 0.687907 0.135408
0.751826 0.659961 0.374342
0.656700 0.640454 0.589943
0.642088 0.642088 0.642088
0.648731 0.648731 0.648731
0.655375 0.655375 0.655375
0.662019 0.662019 0.662019
0.668662 0.668662 0.668662
0.675306 0.675306 0.675306
0.681950 0.681950 0.681950
0.850980 0.274510 0.937255
0.797851 0.308233 0.871127
0.663834 0.399175 0.703442
0.543858 0.489113 0.552051
0.518275 0.518275 0.518275
0.524919 0.524919 0.524919
0.531562 0.531562 0.531562
0.538206 0.538206 0.538206
0.575132 0.557612 0.503141
0.711216 0.617130 0.324608
0.857238 0.677794 0.119886
0.917647 0.701961 0.031373
0.917647 0.701961 0.031373
0.917647 0.701961 0.031373
0.917647 0.701961 0.031373
0.917647 0.701961 0.031373
0.917647 0.701961 0.031373
0.917647 0.701961 0.031373
0.917647 0.701961 0.031373
0.911131 0.700134 0.044125
0.826961 0.678015 0.214928
0.711014 0.650927 0.464109
0.641295 0.638649 0.630422
0.644506 0.644506 0.644506
0.651150 0.651150 0.651150
0.657794 0.657794 0.657794
0.664438 0.664438 0.664438
0.671081 0.671081 0.671081
0.677725 0.677725 0.677725
0.684369 0.684369 0.684369
0.691013 0.691013 0.691013
0.697656 0.697656 0.697656
0.704300 0.704300 0.704300
0.521360 0.508853 0.523232
0.520694 0.520694 0.520694
0.527338 0.527338 0.527338
0.533981 0.533981 0.533981
0.540625 0.540625 0.540625
0.617162 0.576460 0.449915
0.768438 0.641229 0.245725
0.893846 0.692536 0.066644
0.917647 0.701961 0.031373
0.917647 0.701961 0.031373
0.917647 0.701961 0.031373
0.917647 0.701961 0.031373
0.917647 0.701961 0.031373
0.917647 0.701961 0.031373
0.917647 0.701961 0.031373
0.917647 0.701961 0.031373
0.889389 0.694204 0.087355
0.784167 0.667533 0.304906
0.676398 0.643924 0.542960
0.640281 0.640281 0.640281
0.646925 0.646925 0.646925
0.653569 0.653569 0.653569
0.660212 0.660212 0.660212
0.666856 0.666856 0.666856
0.673500 0.673500 0.673500
0.680144 0.680144 0.680144
0.686787 0.686787 0.686787
0.693431 0.693431 0.693431
0.700075 0.700075 0.700075
0.706719 0.706719 0.706719
0.740638 0.658944 0.658944
0.828717 0.493156 0.493156
0.911713 0.322454 0.322454
0.536400 0.536400 0.536400
0.553198 0.547352 0.529174
0.669033 0.599076 0.381575
0.822163 0.663476 0.170102
0.914570 0.700755 0.035985
0.917647 0.701961 0.031373
0.917647 0.701961 0.031373
0.917647 0.701961 0.031373
0.917647 0.701961 0.031373
0.917647 0.701961 0.031373
0.917647 0.701961 0.031373
0.917647 0.701961 0.031373
0.917539 0.701930 0.031583
0.856434 0.685522 0.154139
0.741105 0.657525 0.397669
0.651505 0.639672 0.602881
0.642700 0.642700 0.642700
0.649344 0.649344 0.649344
0.655987 0.655987 0.655987
0.662631 0.662631 0.662631
0.669275 0.669275 0.669275
0.675919 0.675919 0.675919
0.682562 0.682562 0.682562
0.689206 0.689206 0.689206
0.695850 0.695850 0.695850
0.702494 0.702494 0.702494
0.710123 0.707225 0.707225
0.769519 0.606809 0.606809
0.862573 0.425102 0.425102
0.929670 0.283513 0.283513
0.937255 0.266667 0.266667
0.937255 0.266667 0.266667
0.937255 0.266667 0.266667
0.867770 0.682058 0.104663
0.917647 0.701961 0.031373
0.917647 0.701961 0.031373
0.917647 0.701961 0.031373
0.917647 0.701961 0.031373
0.917647 0.701961 0.031373
0.917647 0.701961 0.031373
0.917647 0.701961 0.031373
0.917647 0.701961 0.031373
0.906915 0.698968 0.052440
0.816361 0.675372 0.237025
0.701521 0.648931 0.485423
0.639739 0.638762 0.635727
0.645119 0.645119 0.645119
0.651763 0.651763 0.651763
0.658406 0.658406 0.658406
0.665050 0.665050 0.665050
0.671694 0.671694 0.671694
0.678338 0.678338 0.678338
0.684981 0.684981 0.684981
0.691625 0.691625 0.691625
0.698269 0.698269 0.698269
0.704912 0.704912 0.704912
0.723789 0.687443 0.687443
0.802793 0.543831 0.543831
0.892921 0.362297 0.362297
0.937168 0.266862 0.266862
0.937255 0.266667 0.266667
0.937255 0.266667 0.266667
0.937255 0.266667 0.266667
0.937255 0.266667 0.266667
0.937255 0.266667 0.266667
0.937255 0.266667 0.266667
0.917647 0.701961 0.031373
0.917647 0.701961 0.031373
0.917647 0.701961 0.031373
0.917647 0.701961 0.031373
0.917647 0.701961 0.031373
