luts/FalseColor_slog3.cube
# False Color Exposure Monitor LUT
# Profile  : Sony S-Log3
# Cameras  : A7S III, A7 IV, FX3, FX6, FX9, ZV-E1, Venice
# Generator: false_color_generator.py
#
# Zone Reference:
#   #ef4444     white_clip      log 0.760 - 1.000
#   #eab308     +2 stops        log 0.537 - 0.583
#   #d946ef     +1 stops        log 0.462 - 0.507
#   #22c55e     +0 stops        log 0.389 - 0.433
#   #06b6d4     -1 stops        log 0.319 - 0.360
#   #3b82f6     -2 stops        log 0.254 - 0.292
#   #6366f1     black_clip      log 0.000 - 0.100
#   Grayscale   = between zones / untagged
#
TITLE "FalseColor Sony S-Log3"
LUT_3D_SIZE 9
DOMAIN_MIN 0.0 0.0 0.0
DOMAIN_MAX 1.0 1.0 1.0
0.194118 0.200000 0.472549
0.388235 0.400000 0.945098
0.388235 0.400000 0.945098
0.388235 0.400000 0.945098
0.121470 0.122103 0.151433
0.132875 0.132875 0.132875
0.159450 0.159450 0.159450
0.186025 0.186025 0.186025
0.212600 0.212600 0.212600
0.388235 0.400000 0.945098
0.115975 0.115975 0.115975
0.142550 0.142550 0.142550
0.169125 0.169125 0.169125
0.195700 0.195700 0.195700
0.222275 0.222275 0.222275
0.247318 0.271728 0.311609
0.231373 0.509804 0.964706
0.302000 0.302000 0.302000
0.178800 0.178800 0.178800
0.205375 0.205375 0.205375
0.231950 0.231950 0.231950
0.236108 0.465985 0.841558
0.232797 0.503848 0.946691
0.304180 0.322133 0.325193
0.023529 0.713725 0.831373
0.314936 0.415826 0.433023
0.206944 0.663831 0.375123
0.231373 0.509804 0.964706
0.276826 0.355650 0.484435
0.108229 0.602135 0.686324
0.023529 0.713725 0.831373
0.374500 0.374500 0.374500
0.133333 0.772549 0.368627
0.170142 0.729415 0.376009
0.456863 0.453030 0.457437
0.850980 0.274510 0.937255
0.116284 0.614847 0.699829
0.349026 0.438596 0.381996
0.133333 0.772549 0.368627
0.397422 0.481328 0.428308
0.714538 0.341268 0.770402
0.850980 0.274510 0.937255
0.517050 0.517050 0.517050
0.898648 0.693918 0.057393
0.917647 0.701961 0.031373
0.447000 0.447000 0.447000
0.850980 0.274510 0.937255
0.840083 0.281519 0.923677
0.526725 0.526725 0.526725
0.917647 0.701961 0.031373
0.829741 0.670188 0.174121
0.606450 0.606450 0.606450
0.633025 0.633025 0.633025
0.659600 0.659600 0.659600
0.699344 0.607160 0.320552
0.917647 0.701961 0.031373
0.601392 0.593607 0.569403
0.616125 0.616125 0.616125
0.642700 0.642700 0.642700
0.669275 0.669275 0.669275
0.695850 0.695850 0.695850
0.722425 0.722425 0.722425
0.749000 0.749000 0.749000
0.625800 0.625800 0.625800
0.652375 0.652375 0.652375
0.678950 0.678950 0.678950
0.705525 0.705525 0.705525
0.732100 0.732100 0.732100
0.827876 0.568018 0.568018
0.937255 0.266667 0.266667
0.937255 0.266667 0.266667
0.937255 0.266667 0.266667
0.715200 0.715200 0.715200
0.741775 0.741775 0.741775
0.936973 0.267503 0.267503
0.937255 0.266667 0.266667
0.937255 0.266667 0.266667
0.937255 0.266667 0.266667
0.937255 0.266667 0.266667
0.937255 0.266667 0.266667
0.937255 0.266667 0.266667
0.388235 0.400000 0.945098
0.388235 0.400000 0.945098
0.388235 0.400000 0.945098
0.388235 0.400000 0.945098
0.115325 0.115325 0.115325
0.141900 0.141900 0.141900
0.168475 0.168475 0.168475
0.195050 0.195050 0.195050
0.221625 0.221625 0.221625
0.281960 0.289411 0.634618
0.125000 0.125000 0.125000
0.151575 0.151575 0.151575
0.178150 0.178150 0.178150
0.204725 0.204725 0.204725
0.231300 0.231300 0.231300
0.237193 0.454475 0.809470
0.231925 0.507458 0.957623
0.308123 0.315089 0.316277
0.187825 0.187825 0.187825
0.214400 0.214400 0.214400
0.240975 0.240975 0.240975
0.231373 0.509804 0.964706
0.273109 0.366356 0.518702
0.123453 0.581571 0.659660
0.023529 0.713725 0.831373
0.373850 0.373850 0.373850
0.133333 0.772549 0.368627
0.231373 0.509804 0.964706
0.303800 0.303800 0.303800
0.023529 0.713725 0.831373
0.099754 0.632162 0.722913
0.357911 0.423352 0.382000
0.133333 0.772549 0.368627
0.384363 0.494597 0.424940
0.693326 0.351253 0.744520
0.850980 0.274510 0.937255
0.348760 0.384699 0.390825
0.173905 0.713323 0.372464
0.133333 0.772549 0.368627
0.446350 0.446350 0.446350
0.850980 0.274510 0.937255
0.846263 0.277529 0.931380
0.526075 0.526075 0.526075
0.917647 0.701961 0.031373
0.845821 0.675912 0.147647
0.480174 0.444927 0.485449
0.850980 0.274510 0.937255
0.619602 0.433362 0.647475
0.678127 0.597716 0.347710
0.917647 0.701961 0.031373
0.609171 0.595871 0.554522
0.615475 0.615475 0.615475
0.642050 0.642050 0.642050
0.668625 0.668625 0.668625
0.916399 0.701436 0.033096
0.917647 0.701961 0.031373
0.598575 0.598575 0.598575
0.625150 0.625150 0.625150
0.651725 0.651725 0.651725
0.678300 0.678300 0.678300
0.704875 0.704875 0.704875
0.731450 0.731450 0.731450
0.817869 0.593963 0.593963
0.634825 0.634825 0.634825
0.661400 0.661400 0.661400
0.687975 0.687975 0.687975
0.714550 0.714550 0.714550
0.741125 0.741125 0.741125
0.935449 0.272004 0.272004
0.937255 0.266667 0.266667
0.937255 0.266667 0.266667
0.937255 0.266667 0.266667
0.724225 0.724225 0.724225
0.750800 0.750800 0.750800
0.937255 0.266667 0.266667
0.937255 0.266667 0.266667
0.937255 0.266667 0.266667
0.937255 0.266667 0.266667
0.937255 0.266667 0.266667
0.937255 0.266667 0.266667
0.937255 0.266667 0.266667
0.388235 0.400000 0.945098
0.388235 0.400000 0.945098
0.388235 0.400000 0.945098
0.297108 0.305182 0.679263
0.124350 0.124350 0.124350
0.150925 0.150925 0.150925
0.177500 0.177500 0.177500
0.204075 0.204075 0.204075
0.230650 0.230650 0.230650
0.111962 0.112151 0.120911
0.134025 0.134025 0.134025
0.160600 0.160600 0.160600
0.187175 0.187175 0.187175
0.213750 0.213750 0.213750
0.240325 0.240325 0.240325
0.231373 0.509804 0.964706
0.269346 0.377528 0.554277
0.139152 0.560220 0.631992
0.196850 0.196850 0.196850
0.223425 0.223425 0.223425
0.247132 0.290007 0.360058
0.231373 0.509804 0.964706
0.303150 0.303150 0.303150
0.023529 0.713725 0.831373
0.084330 0.648420 0.744572
0.365506 0.409998 0.381883
0.133333 0.772549 0.368627
0.235262 0.493960 0.916621
0.292545 0.340929 0.349176
0.023529 0.713725 0.831373
0.338081 0.394301 0.403884
0.185119 0.696633 0.373407
0.133333 0.772549 0.368627
0.445700 0.445700 0.445700
0.850980 0.274510 0.937255
0.849961 0.275159 0.935986
0.375650 0.375650 0.375650
0.133333 0.772549 0.368627
0.192272 0.703979 0.380630
0.469493 0.448921 0.472572
0.850980 0.274510 0.937255
0.637408 0.420453 0.669878
0.657380 0.588436 0.374085
0.917647 0.701961 0.031373
0.618877 0.598823 0.536471
0.750194 0.324270 0.813938
0.850980 0.274510 0.937255
0.518200 0.518200 0.518200
0.912291 0.699703 0.038747
0.917647 0.701961 0.031373
0.597925 0.597925 0.597925
0.624500 0.624500 0.624500
0.651075 0.651075 0.651075
0.677650 0.677650 0.677650
0.917647 0.701961 0.031373
0.799318 0.659449 0.224586
0.607600 0.607600 0.607600
0.634175 0.634175 0.634175
0.660750 0.660750 0.660750
0.687325 0.687325 0.687325
0.713900 0.713900 0.713900
0.740475 0.740475 0.740475
0.932680 0.280117 0.280117
0.643850 0.643850 0.643850
0.670425 0.670425 0.670425
0.697000 0.697000 0.697000
0.723575 0.723575 0.723575
0.750150 0.750150 0.750150
0.937255 0.266667 0.266667
0.937255 0.266667 0.266667
0.937255 0.266667 0.266667
0.937255 0.266667 0.266667
0.733250 0.733250 0.733250
0.845884 0.520628 0.520628
0.937255 0.266667 0.266667
0.937255 0.266667 0.266667
0.937255 0.266667 0.266667
0.937255 0.266667 0.266667
0.937255 0.266667 0.266667
0.937255 0.266667 0.266667
0.937255 0.266667 0.266667
0.388235 0.400000 0.945098
0.388235 0.400000 0.945098
0.388235 0.400000 0.945098
0.116628 0.117039 0.136074
0.133375 0.133375 0.133375
0.159950 0.159950 0.159950
0.186525 0.186525 0.186525
0.213100 0.213100 0.213100
0.239675 0.239675 0.239675
0.116475 0.116475 0.116475
0.143050 0.143050 0.143050
0.169625 0.169625 0.169625
0.196200 0.196200 0.196200
0.222775 0.222775 0.222775
0.247288 0.279221 0.331394
0.231373 0.509804 0.964706
0.302500 0.302500 0.302500
0.023529 0.713725 0.831373
0.205875 0.205875 0.205875
0.232450 0.232450 0.232450
0.235304 0.474147 0.864370
0.233728 0.500064 0.935205
0.299815 0.329369 0.334407
0.023529 0.713725 0.831373
0.325610 0.405807 0.419477
0.197186 0.678549 0.374375
0.133333 0.772549 0.368627
0.279625 0.347813 0.459219
0.096958 0.617269 0.705958
0.023529 0.713725 0.831373
0.375000 0.375000 0.375000
0.133333 0.772549 0.368627
0.179280 0.718875 0.377904
0.461305 0.451732 0.462738
0.850980 0.274510 0.937255
0.655755 0.407294 0.692939
0.341403 0.451453 0.381912
0.133333 0.772549 0.368627
0.406581 0.472171 0.430725
0.730388 0.333745 0.789750
0.850980 0.274510 0.937255
0.517550 0.517550 0.517550
0.905526 0.696839 0.048012
0.917647 0.701961 0.031373
0.597275 0.597275 0.597275
0.850980 0.274510 0.937255
0.833781 0.285612 0.915821
0.527225 0.527225 0.527225
0.917647 0.701961 0.031373
0.816776 0.665597 0.195568
0.606950 0.606950 0.606950
0.633525 0.633525 0.633525
0.660100 0.660100 0.660100
0.686675 0.686675 0.686675
0.917647 0.701961 0.031373
0.596840 0.592369 0.578471
0.616625 0.616625 0.616625
0.643200 0.643200 0.643200
0.669775 0.669775 0.669775
0.696350 0.696350 0.696350
0.722925 0.722925 0.722925
0.749500 0.749500 0.749500
0.937255 0.266667 0.266667
0.652875 0.652875 0.652875
0.679450 0.679450 0.679450
0.706025 0.706025 0.706025
0.732600 0.732600 0.732600
0.835683 0.547580 0.547580
0.937255 0.266667 0.266667
0.937255 0.266667 0.266667
0.937255 0.266667 0.266667
0.937255 0.266667 0.266667
0.742275 0.742275 0.742275
0.937255 0.266667 0.266667
0.937255 0.266667 0.266667
0.937255 0.266667 0.266667
0.937255 0.266667 0.266667
0.937255 0.266667 0.266667
0.937255 0.266667 0.266667
0.937255 0.266667 0.266667
0.937255 0.266667 0.266667
0.388235 0.400000 0.945098
0.388235 0.400000 0.945098
0.388235 0.400000 0.945098
0.115825 0.115825 0.115825
0.142400 0.142400 0.142400
0.168975 0.168975 0.168975
0.195550 0.195550 0.195550
0.222125 0.222125 0.222125
0.247311 0.269629 0.306092
0.125500 0.125500 0.125500
0.152075 0.152075 0.152075
0.178650 0.178650 0.178650
0.205225 0.205225 0.205225
0.231800 0.231800 0.231800
0.236355 0.463414 0.834385
0.232561 0.504816 0.949628
0.305268 0.320263 0.322818
0.023529 0.713725 0.831373
0.214900 0.214900 0.214900
0.241475 0.241475 0.241475
0.231373 0.509804 0.964706
0.275974 0.358073 0.492205
0.111690 0.597472 0.680276
0.023529 0.713725 0.831373
0.374350 0.374350 0.374350
0.133333 0.772549 0.368627
0.167559 0.732404 0.375477
0.304300 0.304300 0.304300
0.023529 0.713725 0.831373
0.112382 0.618925 0.705268
0.351184 0.434923 0.382008
0.133333 0.772549 0.368627
0.394518 0.484258 0.427552
0.709697 0.343555 0.764494
0.850980 0.274510 0.937255
0.516900 0.516900 0.516900
0.165962 0.725072 0.371770
0.133333 0.772549 0.368627
0.446850 0.446850 0.446850
0.850980 0.274510 0.937255
0.841717 0.280461 0.925715
0.526575 0.526575 0.526575
0.917647 0.701961 0.031373
0.833536 0.671536 0.167861
0.606300 0.606300 0.606300
0.850980 0.274510 0.937255
0.606402 0.443029 0.630852
0.694419 0.604972 0.326873
0.917647 0.701961 0.031373
0.603006 0.594066 0.566269
0.615975 0.615975 0.615975
0.642550 0.642550 0.642550
0.669125 0.669125 0.669125
0.695700 0.695700 0.695700
0.917647 0.701961 0.031373
0.599075 0.599075 0.599075
0.625650 0.625650 0.625650
0.652225 0.652225 0.652225
0.678800 0.678800 0.678800
0.705375 0.705375 0.705375
0.731950 0.731950 0.731950
0.825549 0.574077 0.574077
0.937255 0.266667 0.266667
0.661900 0.661900 0.661900
0.688475 0.688475 0.688475
0.715050 0.715050 0.715050
0.741625 0.741625 0.741625
0.936737 0.268204 0.268204
0.937255 0.266667 0.266667
0.937255 0.266667 0.266667
0.937255 0.266667 0.266667
0.937255 0.266667 0.266667
0.751308 0.751279 0.751279
0.937255 0.266667 0.266667
0.937255 0.266667 0.266667
0.937255 0.266667 0.266667
0.937255 0.266667 0.266667
0.937255 0.266667 0.266667
0.937255 0.266667 0.266667
0.937255 0.266667 0.266667
0.937255 0.266667 0.266667
0.388235 0.400000 0.945098
0.388235 0.400000 0.945098
0.285494 0.293090 0.645045
0.124850 0.124850 0.124850
0.151425 0.151425 0.151425
0.178000 0.178000 0.178000
0.204575 0.204575 0.204575
0.231150 0.231150 0.231150
0.237448 0.451688 0.801715
0.134525 0.134525 0.134525
0.161100 0.161100 0.161100
0.187675 0.187675 0.187675
0.214250 0.214250 0.214250
0.240825 0.240825 0.240825
0.231373 0.509804 0.964706
0.272243 0.368897 0.526811
0.127040 0.576705 0.653353
0.023529 0.713725 0.831373
0.223925 0.223925 0.223925
0.246922 0.299011 0.384116
0.231373 0.509804 0.964706
0.303650 0.303650 0.303650
0.023529 0.713725 0.831373
0.096089 0.636016 0.728049
0.359784 0.420093 0.381984
0.133333 0.772549 0.368627
0.381183 0.497860 0.424132
0.285819 0.351329 0.362496
0.023529 0.713725 0.831373
0.346466 0.386735 0.393599
0.176409 0.709607 0.372678
0.133333 0.772549 0.368627
0.446200 0.446200 0.446200
0.850980 0.274510 0.937255
0.847345 0.276834 0.932728
0.525925 0.525925 0.525925
0.133333 0.772549 0.368627
0.203022 0.691727 0.382914
0.477501 0.445948 0.482223
0.850980 0.274510 0.937255
0.623653 0.430413 0.652573
0.673289 0.595556 0.353877
0.917647 0.701961 0.031373
0.611247 0.596494 0.550625
0.615325 0.615325 0.615325
0.850980 0.274510 0.937255
0.518700 0.518700 0.518700
0.915698 0.701141 0.034062
0.917647 0.701961 0.031373
0.598425 0.598425 0.598425
0.625000 0.625000 0.625000
0.651575 0.651575 0.651575
0.678150 0.678150 0.678150
0.704725 0.704725 0.704725
0.785545 0.654628 0.247592
0.608100 0.608100 0.608100
0.634675 0.634675 0.634675
0.661250 0.661250 0.661250
0.687825 0.687825 0.687825
0.714400 0.714400 0.714400
0.740975 0.740975 0.740975
0.934917 0.273567 0.273567
0.937255 0.266667 0.266667
0.670925 0.670925 0.670925
0.697500 0.697500 0.697500
0.724075 0.724075 0.724075
0.750650 0.750650 0.750650
0.937255 0.266667 0.266667
0.937255 0.266667 0.266667
0.937255 0.266667 0.266667
0.937255 0.266667 0.266667
0.937255 0.266667 0.266667
0.853707 0.499776 0.499776
0.937255 0.266667 0.266667
0.937255 0.266667 0.266667
0.937255 0.266667 0.266667
0.937255 0.266667 0.266667
0.937255 0.266667 0.266667
0.937255 0.266667 0.266667
0.937255 0.266667 0.266667
0.937255 0.266667 0.266667
0.388235 0.400000 0.945098
0.388235 0.400000 0.945098
0.112868 0.113101 0.123906
0.133875 0.133875 0.133875
0.160450 0.160450 0.160450
0.187025 0.187025 0.187025
0.213600 0.213600 0.213600
0.240175 0.240175 0.240175
0.231373 0.509804 0.964706
0.143550 0.143550 0.143550
0.170125 0.170125 0.170125
0.196700 0.196700 0.196700
0.223275 0.223275 0.223275
0.247179 0.287421 0.353168
0.231373 0.509804 0.964706
0.303000 0.303000 0.303000
0.023529 0.713725 0.831373
0.080949 0.651998 0.749336
0.232950 0.232950 0.232950
0.234541 0.481636 0.885340
0.234877 0.495481 0.921257
0.294375 0.338057 0.345503
0.023529 0.713725 0.831373
0.335354 0.396795 0.407268
0.187834 0.692575 0.373629
0.133333 0.772549 0.368627
0.445550 0.445550 0.445550
0.086165 0.631690 0.724677
0.023529 0.713725 0.831373
0.375500 0.375500 0.375500
0.133333 0.772549 0.368627
0.189170 0.707527 0.379976
0.467373 0.449678 0.470021
0.850980 0.274510 0.937255
0.641602 0.417433 0.675151
0.652684 0.586329 0.380029
0.133333 0.772549 0.368627
0.414871 0.464027 0.432965
0.745714 0.326420 0.808466
0.850980 0.274510 0.937255
0.518050 0.518050 0.518050
0.910958 0.699139 0.040576
0.917647 0.701961 0.031373
0.597775 0.597775 0.597775
0.624350 0.624350 0.624350
0.826249 0.290532 0.906425
0.527725 0.527725 0.527725
0.917647 0.701961 0.031373
0.803397 0.660883 0.217791
0.607450 0.607450 0.607450
0.634025 0.634025 0.634025
0.660600 0.660600 0.660600
0.687175 0.687175 0.687175
0.713750 0.713750 0.713750
0.593625 0.591598 0.585292
0.617125 0.617125 0.617125
0.643700 0.643700 0.643700
0.670275 0.670275 0.670275
0.696850 0.696850 0.696850
0.723425 0.723425 0.723425
0.750000 0.750000 0.750000
0.937255 0.266667 0.266667
0.937255 0.266667 0.266667
0.679950 0.679950 0.679950
0.706525 0.706525 0.706525
0.733100 0.733100 0.733100
0.843530 0.526872 0.526872
0.937255 0.266667 0.266667
0.937255 0.266667 0.266667
0.937255 0.266667 0.266667
0.937255 0.266667 0.266667
0.937255 0.266667 0.266667
0.937255 0.266667 0.266667
0.937255 0.266667 0.266667
0.937255 0.266667 0.266667
0.937255 0.266667 0.266667
0.937255 0.266667 0.266667
0.937255 0.266667 0.266667
0.937255 0.266667 0.266667
0.937255 0.266667 0.266667
0.937255 0.266667 0.266667
0.388235 0.400000 0.945098
0.388235 0.400000 0.945098
0.116325 0.116325 0.116325
0.142900 0.142900 0.142900
0.169475 0.169475 0.169475
0.196050 0.196050 0.196050
0.222625 0.222625 0.222625
0.247305 0.276896 0.325240
0.231373 0.509804 0.964706
0.152575 0.152575 0.152575
0.179150 0.179150 0.179150
0.205725 0.205725 0.205725
0.232300 0.232300 0.232300
0.235542 0.471766 0.857711
0.233426 0.501286 0.938918
0.301241 0.327040 0.331438
0.023529 0.713725 0.831373
0.322501 0.408712 0.423407
0.241975 0.241975 0.241975
0.231373 0.509804 0.964706
0.278792 0.350124 0.466666
0.100293 0.612799 0.700158
0.023529 0.713725 0.831373
0.374850 0.374850 0.374850
0.133333 0.772549 0.368627
0.176456 0.722127 0.377316
0.459797 0.452203 0.460933
0.023529 0.713725 0.831373
0.125574 0.605164 0.686913
0.343757 0.447500 0.381945
0.133333 0.772549 0.368627
0.403920 0.474816 0.430017
0.725683 0.335984 0.784006
0.850980 0.274510 0.937255
0.517400 0.517400 0.517400
0.903610 0.696026 0.050629
0.133333 0.772549 0.368627
0.447350 0.447350 0.447350
0.850980 0.274510 0.937255
0.835806 0.284294 0.918345
0.527075 0.527075 0.527075
0.917647 0.701961 0.031373
0.820713 0.666989 0.189046
0.606800 0.606800 0.606800
0.633375 0.633375 0.633375
0.593736 0.452393 0.614889
0.710881 0.612278 0.305712
0.917647 0.701961 0.031373
0.598069 0.592693 0.575979
0.616475 0.616475 0.616475
0.643050 0.643050 0.643050
0.669625 0.669625 0.669625
0.696200 0.696200 0.696200
0.722775 0.722775 0.722775
0.599575 0.599575 0.599575
0.626150 0.626150 0.626150
0.652725 0.652725 0.652725
0.679300 0.679300 0.679300
0.705875 0.705875 0.705875
0.732450 0.732450 0.732450
0.833335 0.553746 0.553746
0.937255 0.266667 0.266667
0.937255 0.266667 0.266667
0.688975 0.688975 0.688975
0.715550 0.715550 0.715550
0.742125 0.742125 0.742125
0.937248 0.266688 0.266688
0.937255 0.266667 0.266667
0.937255 0.266667 0.266667
0.937255 0.266667 0.266667
0.937255 0.266667 0.266667
0.937255 0.266667 0.266667
0.937255 0.266667 0.266667
0.937255 0.266667 0.266667
0.937255 0.266667 0.266667
0.937255 0.266667 0.266667
0.937255 0.266667 0.266667
0.937255 0.266667 0.266667
0.937255 0.266667 0.266667
0.937255 0.266667 0.266667
0.937255 0.266667 0.266667
0.388235 0.400000 0.945098
0.273643 0.280751 0.610055
0.125350 0.125350 0.125350
0.151925 0.151925 0.151925
0.178500 0.178500 0.178500
0.205075 0.205075 0.205075
0.231650 0.231650 0.231650
0.236604 0.460791 0.827069
0.232346 0.505705 0.952321
0.161600 0.161600 0.161600
0.188175 0.188175 0.188175
0.214750 0.214750 0.214750
0.241325 0.241325 0.241325
0.231373 0.509804 0.964706
0.275119 0.360525 0.500062
0.115184 0.592757 0.674162
0.023529 0.713725 0.831373
0.374200 0.374200 0.374200
0.246636 0.308547 0.409697
0.231373 0.509804 0.964706
0.304150 0.304150 0.304150
0.023529 0.713725 0.831373
0.108530 0.622956 0.710642
0.353278 0.431341 0.382013
0.133333 0.772549 0.368627
0.391547 0.487270 0.426782
0.704821 0.345854 0.758545
0.023529 0.713725 0.831373
0.353690 0.380387 0.384938
0.168277 0.721654 0.371974
0.133333 0.772549 0.368627
0.446700 0.446700 0.446700
0.850980 0.274510 0.937255
0.843229 0.279484 0.927599
0.526425 0.526425 0.526425
0.917647 0.701961 0.031373
0.214344 0.678892 0.385343
0.486869 0.442321 0.493536
0.850980 0.274510 0.937255
0.610310 0.440157 0.635775
0.689509 0.602788 0.333164
0.917647 0.701961 0.031373
0.604731 0.594563 0.562951
0.615825 0.615825 0.615825
0.642400 0.642400 0.642400
0.519200 0.519200 0.519200
0.917435 0.701872 0.031666
0.917647 0.701961 0.031373
0.598925 0.598925 0.598925
0.625500 0.625500 0.625500
0.652075 0.652075 0.652075
0.678650 0.678650 0.678650
0.705225 0.705225 0.705225
0.731800 0.731800 0.731800
0.608600 0.608600 0.608600
0.635175 0.635175 0.635175
0.661750 0.661750 0.661750
0.688325 0.688325 0.688325
0.714900 0.714900 0.714900
0.741475 0.741475 0.741475
0.936430 0.269111 0.269111
0.937255 0.266667 0.266667
0.937255 0.266667 0.266667
0.698000 0.698000 0.698000
0.724575 0.724575 0.724575
0.751150 0.751150 0.751150
0.937255 0.266667 0.266667
0.937255 0.266667 0.266667
0.937255 0.266667 0.266667
0.937255 0.266667 0.266667
0.937255 0.266667 0.266667
0.937255 0.266667 0.266667
0.937255 0.266667 0.266667
0.937255 0.266667 0.266667
0.937255 0.266667 0.266667
0.937255 0.266667 0.266667
0.937255 0.266667 0.266667
0.937255 0.266667 0.266667
0.937255 0.266667 0.266667
0.937255 0.266667 0.266667
0.968627 0.633333 0.633333
