luts/FalseColor_nlog.cube
# False Color Exposure Monitor LUT
# Profile  : Nikon N-Log  [approximate]
# Cameras  : Z6, Z7, Z6II, Z7II, Z8, Z9
# Generator: false_color_generator.py
#
# Zone Reference:
#   #ef4444     white_clip      log 0.720 - 1.000
#   #eab308     +2 stops        log 0.552 - 0.628
#   #d946ef     +1 stops        log 0.436 - 0.504
#   #22c55e     +0 stops        log 0.335 - 0.393
#   #06b6d4     -1 stops        log 0.256 - 0.301
#   #3b82f6     -2 stops        log 0.201 - 0.231
#   #6366f1     black_clip      log 0.000 - 0.130
#   Grayscale   = between zones / untagged
#
TITLE "FalseColor Nikon N-Log  [approximate]"
LUT_3D_SIZE 5
DOMAIN_MIN 0.0 0.0 0.0
DOMAIN_MAX 1.0 1.0 1.0
0.194118 0.200000 0.472549
0.388235 0.400000 0.945098
0.388235 0.400000 0.945098
0.159450 0.159450 0.159450
0.231372 0.509795 0.964683
0.178800 0.178800 0.178800
0.231681 0.361206 0.572824
0.023529 0.713725 0.831373
0.198886 0.633618 0.358910
0.229298 0.630815 0.377096
0.133333 0.772549 0.368627
0.410750 0.410750 0.410750
0.850980 0.274510 0.937255
0.517050 0.517050 0.517050
0.917647 0.701961 0.031373
0.536400 0.536400 0.536400
0.917647 0.701961 0.031373
0.642700 0.642700 0.642700
0.695850 0.695850 0.695850
0.937255 0.266667 0.266667
0.762062 0.620542 0.620542
0.937255 0.266667 0.266667
0.937255 0.266667 0.266667
0.937255 0.266667 0.266667
0.937255 0.266667 0.266667
0.388235 0.400000 0.945098
0.388235 0.400000 0.945098
0.344016 0.353810 0.807566
0.177500 0.177500 0.177500
0.231046 0.383615 0.632883
0.205537 0.275595 0.390058
0.219510 0.312431 0.328270
0.202094 0.451534 0.494052
0.133333 0.772549 0.368627
0.409450 0.409450 0.409450
0.133333 0.772549 0.368627
0.471602 0.413157 0.480349
0.850980 0.274510 0.937255
0.535100 0.535100 0.535100
0.917647 0.701961 0.031373
0.780844 0.646399 0.228397
0.917647 0.701961 0.031373
0.660750 0.660750 0.660750
0.746519 0.648586 0.648586
0.937255 0.266667 0.266667
0.937255 0.266667 0.266667
0.937255 0.266667 0.266667
0.937255 0.266667 0.266667
0.937255 0.266667 0.266667
0.937255 0.266667 0.266667
0.388235 0.400000 0.945098
0.388235 0.400000 0.945098
0.142400 0.142400 0.142400
0.202074 0.252779 0.335622
0.230424 0.286444 0.295993
0.231373 0.509804 0.964706
0.023535 0.713715 0.831359
0.321200 0.321200 0.321200
0.133333 0.772549 0.368627
0.450699 0.419119 0.455426
0.267985 0.576622 0.381594
0.849464 0.275156 0.935415
0.768273 0.327646 0.834217
0.750555 0.633743 0.270565
0.917647 0.701961 0.031373
0.917647 0.701961 0.031373
0.808220 0.673363 0.254080
0.678800 0.678800 0.678800
0.937255 0.266667 0.266667
0.937255 0.266667 0.266667
0.937255 0.266667 0.266667
0.937255 0.266667 0.266667
0.937255 0.266667 0.266667
0.937255 0.266667 0.266667
0.937255 0.266667 0.266667
0.388235 0.400000 0.945098
0.388235 0.400000 0.945098
0.160450 0.160450 0.160450
0.231373 0.509804 0.964706
0.025893 0.709382 0.825886
0.232316 0.344246 0.527117
0.023529 0.713725 0.831373
0.187175 0.659254 0.360946
0.245892 0.607382 0.378956
0.841513 0.278504 0.925773
0.411750 0.411750 0.411750
0.850980 0.274510 0.937255
0.518050 0.518050 0.518050
0.917647 0.701961 0.031373
0.830792 0.678978 0.206973
0.917647 0.701961 0.031373
0.643700 0.643700 0.643700
0.696850 0.696850 0.696850
0.937255 0.266667 0.266667
0.937255 0.266667 0.266667
0.937255 0.266667 0.266667
0.937255 0.266667 0.266667
0.937255 0.266667 0.266667
0.937255 0.266667 0.266667
0.937255 0.266667 0.266667
0.388235 0.400000 0.945098
0.330648 0.339836 0.765525
0.178500 0.178500 0.178500
0.231516 0.366358 0.586663
0.023529 0.713725 0.831373
0.209468 0.335485 0.356966
0.219665 0.427458 0.462878
0.133333 0.772549 0.368627
0.410450 0.410450 0.410450
0.850980 0.274510 0.937255
0.490820 0.407302 0.503320
0.850980 0.274510 0.937255
0.536100 0.536100 0.536100
0.917647 0.701961 0.031373
0.642400 0.642400 0.642400
0.917647 0.701961 0.031373
0.661750 0.661750 0.661750
0.758327 0.627358 0.627358
0.937255 0.266667 0.266667
0.937255 0.266667 0.266667
0.937255 0.266667 0.266667
0.937255 0.266667 0.266667
0.937255 0.266667 0.266667
0.937255 0.266667 0.266667
0.968627 0.633333 0.633333
