luts/HybridMonitor_flog2.cube
# Hybrid Monitor LUT
# Profile  : Fuji F-Log2
# Cameras  : X-H2S, X-H2, GFX100S II
# Input    : Fuji F-Log2 log / F-Gamut
# Output   : Rec.709 base + narrow exposure tracer overlays
# Generator: hybrid_monitor_lut.py
#
# Base transform pipeline:
#   Log decode  →  F-Gamut → Rec.709 matrix  →  Rec.709 OETF
#
# Overlay zones (thin tracers over Rec.709 base):
#   #ef4444     white_clip      log 0.600 – 1.000
#   #eab308     +2 stops        log 0.529 – 0.539
#   #d946ef     +1 stops        log 0.457 – 0.467
#   #22c55e     +0 stops        log 0.386 – 0.396
#   #06b6d4     -1 stops        log 0.319 – 0.328
#   #3b82f6     -2 stops        log 0.257 – 0.265
#   #6366f1     black_clip      log 0.000 – 0.100
#   All other levels → standard Rec.709 color (no tracer)
#
TITLE "HybridMonitor Fuji F-Log2"
LUT_3D_SIZE 17
DOMAIN_MIN 0.0 0.0 0.0
DOMAIN_MAX 1.0 1.0 1.0
0.388235 0.400000 0.945098
0.388235 0.400000 0.945098
0.388235 0.400000 0.945098
0.388235 0.400000 0.945098
0.388235 0.400000 0.945098
0.354540 0.000000 0.000000
0.501932 0.000000 0.000000
0.690883 0.000000 0.000000
0.934847 0.000000 0.000000
1.000000 0.000000 0.000000
0.850980 0.274510 0.937255
1.000000 0.000000 0.000000
1.000000 0.000000 0.000000
0.937255 0.266667 0.266667
0.937255 0.266667 0.266667
0.937255 0.266667 0.266667
0.937255 0.266667 0.266667
0.388235 0.400000 0.945098
0.388235 0.400000 0.945098
0.388235 0.400000 0.945098
0.388235 0.400000 0.945098
0.229084 0.000000 0.000000
0.348401 0.000000 0.000000
0.497596 0.000000 0.000000
0.687785 0.000000 0.000000
0.932620 0.000000 0.000000
1.000000 0.000000 0.000000
0.850980 0.274510 0.937255
1.000000 0.000000 0.000000
1.000000 0.000000 0.000000
0.937255 0.266667 0.266667
0.937255 0.266667 0.266667
0.937255 0.266667 0.266667
0.937255 0.266667 0.266667
0.388235 0.400000 0.945098
0.000000 0.023277 0.000000
0.023296 0.019040 0.000000
0.114001 0.011983 0.000000
0.219278 0.000000 0.000000
0.341751 0.000000 0.000000
0.492938 0.000000 0.000000
0.684471 0.000000 0.000000
0.930243 0.000000 0.000000
1.000000 0.000000 0.000000
0.850980 0.274510 0.937255
1.000000 0.000000 0.000000
1.000000 0.000000 0.000000
0.937255 0.266667 0.266667
0.937255 0.266667 0.266667
0.937255 0.266667 0.266667
0.937255 0.266667 0.266667
0.000000 0.091368 0.000000
0.000000 0.087593 0.000000
0.000000 0.083470 0.000000
0.084309 0.076178 0.000000
0.202070 0.063488 0.000000
0.330393 0.040670 0.000000
0.231373 0.509804 0.964706
0.678913 0.000000 0.000000
0.926269 0.000000 0.000000
1.000000 0.000000 0.000000
0.873112 0.233741 0.798060
1.000000 0.000000 0.000000
1.000000 0.000000 0.000000
0.937255 0.266667 0.266667
0.937255 0.266667 0.266667
0.937255 0.266667 0.266667
0.937255 0.266667 0.266667
0.000000 0.175870 0.000000
0.000000 0.173478 0.000000
0.000000 0.170902 0.000000
0.024215 0.166545 0.000000
0.167659 0.158481 0.000000
0.231373 0.509804 0.964706
0.470612 0.112099 0.000000
0.023529 0.713725 0.831373
0.919075 0.000000 0.000000
1.000000 0.000000 0.000000
1.000000 0.000000 0.000000
0.971483 0.243071 0.010864
1.000000 0.000000 0.000000
0.937255 0.266667 0.266667
0.937255 0.266667 0.266667
0.937255 0.266667 0.266667
0.937255 0.266667 0.266667
0.000000 0.276757 0.000000
0.000000 0.275128 0.000000
0.000000 0.273385 0.000000
0.000000 0.270460 0.000000
0.085922 0.265127 0.000000
0.266599 0.255291 0.000000
0.023529 0.713725 0.831373
0.650179 0.199691 0.000000
0.905981 0.113027 0.000000
1.000000 0.000000 0.000000
1.000000 0.000000 0.000000
0.917647 0.701961 0.031373
1.000000 0.000000 0.000000
0.937255 0.266667 0.266667
0.937255 0.266667 0.266667
0.937255 0.266667 0.266667
0.937255 0.266667 0.266667
0.000000 0.402645 0.000000
0.000000 0.401502 0.000000
0.000000 0.400283 0.000000
0.000000 0.398243 0.000000
0.000000 0.394550 0.000000
0.169496 0.387823 0.000000
0.389756 0.375432 0.000000
0.609255 0.357287 0.004550
0.881898 0.305946 0.000000
1.000000 0.200784 0.000000
1.000000 0.000000 0.000000
0.999526 0.004043 0.000181
1.000000 0.000000 0.000000
0.937255 0.266667 0.266667
0.937255 0.266667 0.266667
0.937255 0.266667 0.266667
0.937255 0.266667 0.266667
0.000000 0.562959 0.000000
0.000000 0.562146 0.000000
0.000000 0.561279 0.000000
0.000000 0.559831 0.000000
0.000000 0.557218 0.000000
0.000000 0.552487 0.000000
0.268846 0.543874 0.000000
0.546403 0.528022 0.000000
0.836673 0.498213 0.000000
1.000000 0.439470 0.000000
1.000000 0.307301 0.000000
1.000000 0.000000 0.000000
0.937255 0.266667 0.266667
0.937255 0.266667 0.266667
0.937255 0.266667 0.266667
0.937255 0.266667 0.266667
0.937255 0.266667 0.266667
0.850980 0.274510 0.937255
0.850980 0.274510 0.937255
0.846720 0.276980 0.932563
0.667669 0.380595 0.735359
0.124290 0.693460 0.136891
0.000000 0.761742 0.000000
0.000000 0.755637 0.000000
0.392589 0.744524 0.000000
0.747826 0.724078 0.000000
1.000000 0.685664 0.000000
0.917647 0.701961 0.031373
1.000000 0.441190 0.000000
0.937255 0.266667 0.266667
0.937255 0.266667 0.266667
0.937255 0.266667 0.266667
0.937255 0.266667 0.266667
0.937255 0.266667 0.266667
0.000000 1.000000 0.000000
0.000000 1.000000 0.000000
0.008144 0.997355 0.000278
0.093253 0.969713 0.003188
0.392433 0.872543 0.013416
0.893963 0.709653 0.030563
0.917647 0.701961 0.031373
0.917647 0.701961 0.031373
0.550030 1.000000 0.000000
1.000000 0.977520 0.000000
1.000000 0.927781 0.000000
1.000000 0.830047 0.000000
0.937255 0.266667 0.266667
0.937255 0.266667 0.266667
0.937255 0.266667 0.266667
0.937255 0.266667 0.266667
0.937255 0.266667 0.266667
0.000000 1.000000 0.000000
0.000000 1.000000 0.000000
0.000000 1.000000 0.000000
0.000000 1.000000 0.000000
0.000000 1.000000 0.000000
0.000000 1.000000 0.000000
0.000000 1.000000 0.000000
0.000000 1.000000 0.000000
0.001182 0.999075 0.000336
0.937255 0.266667 0.266667
0.937255 0.266667 0.266667
0.937255 0.266667 0.266667
0.937255 0.266667 0.266667
0.937255 0.266667 0.266667
0.937255 0.266667 0.266667
0.937255 0.266667 0.266667
0.937255 0.266667 0.266667
0.937255 0.266667 0.266667
0.937255 0.266667 0.266667
0.937255 0.266667 0.266667
0.937255 0.266667 0.266667
0.937255 0.266667 0.266667
0.937255 0.266667 0.266667
0.937255 0.266667 0.266667
0.937255 0.266667 0.266667
0.937255 0.266667 0.266667
0.937255 0.266667 0.266667
0.937255 0.266667 0.266667
0.937255 0.266667 0.266667
0.937255 0.266667 0.266667
0.937255 0.266667 0.266667
0.937255 0.266667 0.266667
0.937255 0.266667 0.266667
0.937255 0.266667 0.266667
0.937255 0.266667 0.266667
0.937255 0.266667 0.266667
0.937255 0.266667 0.266667
0.937255 0.266667 0.266667
0.937255 0.266667 0.266667
0.937255 0.266667 0.266667
0.937255 0.266667 0.266667
0.937255 0.266667 0.266667
0.937255 0.266667 0.266667
0.937255 0.266667 0.266667
0.937255 0.266667 0.266667
0.937255 0.266667 0.266667
0.937255 0.266667 0.266667
0.937255 0.266667 0.266667
0.937255 0.266667 0.266667
0.937255 0.266667 0.266667
0.937255 0.266667 0.266667
0.937255 0.266667 0.266667
0.937255 0.266667 0.266667
0.937255 0.266667 0.266667
0.937255 0.266667 0.266667
0.937255 0.266667 0.266667
0.937255 0.266667 0.266667
0.937255 0.266667 0.266667
0.937255 0.266667 0.266667
0.937255 0.266667 0.266667
0.937255 0.266667 0.266667
0.937255 0.266667 0.266667
0.937255 0.266667 0.266667
0.937255 0.266667 0.266667
0.937255 0.266667 0.266667
0.937255 0.266667 0.266667
0.937255 0.266667 0.266667
0.937255 0.266667 0.266667
0.937255 0.266667 0.266667
0.937255 0.266667 0.266667
0.937255 0.266667 0.266667
0.937255 0.266667 0.266667
0.937255 0.266667 0.266667
0.937255 0.266667 0.266667
0.937255 0.266667 0.266667
0.937255 0.266667 0.266667
0.937255 0.266667 0.266667
0.937255 0.266667 0.266667
0.937255 0.266667 0.266667
0.937255 0.266667 0.266667
0.937255 0.266667 0.266667
0.937255 0.266667 0.266667
0.937255 0.266667 0.266667
0.937255 0.266667 0.266667
0.937255 0.266667 0.266667
0.937255 0.266667 0.266667
0.937255 0.266667 0.266667
0.937255 0.266667 0.266667
0.937255 0.266667 0.266667
0.937255 0.266667 0.266667
0.937255 0.266667 0.266667
0.937255 0.266667 0.266667
0.937255 0.266667 0.266667
0.937255 0.266667 0.266667
0.937255 0.266667 0.266667
0.937255 0.266667 0.266667
0.937255 0.266667 0.266667
0.937255 0.266667 0.266667
0.937255 0.266667 0.266667
0.937255 0.266667 0.266667
0.937255 0.266667 0.266667
0.937255 0.266667 0.266667
0.937255 0.266667 0.266667
0.937255 0.266667 0.266667
0.937255 0.266667 0.266667
0.937255 0.266667 0.266667
0.937255 0.266667 0.266667
0.937255 0.266667 0.266667
0.937255 0.266667 0.266667
0.937255 0.266667 0.266667
0.937255 0.266667 0.266667
0.937255 0.266667 0.266667
0.937255 0.266667 0.266667
0.937255 0.266667 0.266667
0.937255 0.266667 0.266667
0.937255 0.266667 0.266667
0.937255 0.266667 0.266667
0.937255 0.266667 0.266667
0.937255 0.266667 0.266667
0.388235 0.400000 0.945098
0.388235 0.400000 0.945098
0.388235 0.400000 0.945098
0.388235 0.400000 0.945098
0.388235 0.400000 0.945098
0.353785 0.000000 0.000000
0.501396 0.000000 0.000000
0.690500 0.000000 0.000000
0.934572 0.000000 0.000000
1.000000 0.000000 0.000000
0.850980 0.274510 0.937255
1.000000 0.000000 0.000000
1.000000 0.000000 0.000000
0.937255 0.266667 0.266667
0.937255 0.266667 0.266667
0.937255 0.266667 0.266667
0.937255 0.266667 0.266667
0.388235 0.400000 0.945098
0.388235 0.400000 0.945098
0.388235 0.400000 0.945098
0.230238 0.157270 0.371590
0.227960 0.000000 0.000000
0.347632 0.000000 0.000000
0.497055 0.000000 0.000000
0.687400 0.000000 0.000000
0.932344 0.000000 0.000000
1.000000 0.000000 0.000000
0.850980 0.274510 0.937255
1.000000 0.000000 0.000000
1.000000 0.000000 0.000000
0.937255 0.266667 0.266667
0.937255 0.266667 0.266667
0.937255 0.266667 0.266667
0.937255 0.266667 0.266667
0.388235 0.400000 0.945098
0.000000 0.023011 0.000000
0.020968 0.018774 0.000000
0.112089 0.011716 0.000000
0.218112 0.000000 0.000000
0.340968 0.000000 0.000000
0.492393 0.000000 0.000000
0.684084 0.000000 0.000000
0.929966 0.000000 0.000000
1.000000 0.000000 0.000000
0.850980 0.274510 0.937255
1.000000 0.000000 0.000000
1.000000 0.000000 0.000000
0.937255 0.266667 0.266667
0.937255 0.266667 0.266667
0.937255 0.266667 0.266667
0.937255 0.266667 0.266667
0.000000 0.091117 0.000000
0.000000 0.087337 0.000000
0.000000 0.083207 0.000000
0.082008 0.075911 0.000000
0.200821 0.063221 0.000000
0.329585 0.040403 0.000000
0.231373 0.509804 0.964706
0.678522 0.000000 0.000000
0.925990 0.000000 0.000000
1.000000 0.000000 0.000000
0.881747 0.217835 0.743750
1.000000 0.000000 0.000000
1.000000 0.000000 0.000000
0.937255 0.266667 0.266667
0.937255 0.266667 0.266667
0.937255 0.266667 0.266667
0.937255 0.266667 0.266667
0.000000 0.175711 0.000000
0.000000 0.173316 0.000000
0.000000 0.170739 0.000000
0.021887 0.166378 0.000000
0.166210 0.158308 0.000000
0.231373 0.509804 0.964706
0.470040 0.111878 0.000000
0.023529 0.713725 0.831373
0.918794 0.000000 0.000000
1.000000 0.000000 0.000000
1.000000 0.000000 0.000000
0.968257 0.270571 0.012093
1.000000 0.000000 0.000000
0.937255 0.266667 0.266667
0.937255 0.266667 0.266667
0.937255 0.266667 0.266667
0.937255 0.266667 0.266667
0.000000 0.276648 0.000000
0.000000 0.275019 0.000000
0.000000 0.273275 0.000000
0.000000 0.270349 0.000000
0.083645 0.265014 0.000000
0.265615 0.255173 0.000000
0.023529 0.713725 0.831373
0.649770 0.199547 0.000000
0.905696 0.112808 0.000000
1.000000 0.000000 0.000000
1.000000 0.000000 0.000000
0.917647 0.701961 0.031373
1.000000 0.000000 0.000000
0.937255 0.266667 0.266667
0.937255 0.266667 0.266667
0.937255 0.266667 0.266667
0.937255 0.266667 0.266667
0.000000 0.402568 0.000000
0.000000 0.401425 0.000000
0.000000 0.400206 0.000000
0.000000 0.398166 0.000000
0.000000 0.394472 0.000000
0.168058 0.387743 0.000000
0.389066 0.375350 0.000000
0.576049 0.385833 0.029647
0.881604 0.305847 0.000000
1.000000 0.200640 0.000000
1.000000 0.000000 0.000000
0.999900 0.000856 0.000038
1.000000 0.000000 0.000000
0.937255 0.266667 0.266667
0.937255 0.266667 0.266667
0.937255 0.266667 0.266667
0.937255 0.266667 0.266667
0.000000 0.562905 0.000000
0.000000 0.562091 0.000000
0.000000 0.561224 0.000000
0.000000 0.559776 0.000000
0.000000 0.557163 0.000000
0.000000 0.552432 0.000000
0.267869 0.543818 0.000000
0.545913 0.527964 0.000000
0.836362 0.498152 0.000000
1.000000 0.439400 0.000000
1.000000 0.307202 0.000000
1.000000 0.000000 0.000000
0.937255 0.266667 0.266667
0.937255 0.266667 0.266667
0.937255 0.266667 0.266667
0.937255 0.266667 0.266667
0.937255 0.266667 0.266667
0.850980 0.274510 0.937255
0.850980 0.274510 0.937255
0.831119 0.286027 0.915380
0.612642 0.412428 0.674754
0.082215 0.717681 0.090551
0.000000 0.761703 0.000000
0.000000 0.755597 0.000000
0.391904 0.744484 0.000000
0.747474 0.724036 0.000000
1.000000 0.685619 0.000000
0.917647 0.701961 0.031373
1.000000 0.441120 0.000000
0.937255 0.266667 0.266667
0.937255 0.266667 0.266667
0.937255 0.266667 0.266667
0.937255 0.266667 0.266667
0.937255 0.266667 0.266667
0.000000 1.000000 0.000000
0.000000 1.000000 0.000000
0.017784 0.994224 0.000608
0.118142 0.961629 0.004039
0.429362 0.860549 0.014679
0.905062 0.706048 0.030942
0.917647 0.701961 0.031373
0.917647 0.701961 0.031373
0.549543 1.000000 0.000000
1.000000 0.977490 0.000000
1.000000 0.927749 0.000000
1.000000 0.830011 0.000000
0.937255 0.266667 0.266667
0.937255 0.266667 0.266667
0.937255 0.266667 0.266667
0.937255 0.266667 0.266667
0.937255 0.266667 0.266667
0.000000 1.000000 0.000000
0.000000 1.000000 0.000000
0.000000 1.000000 0.000000
0.000000 1.000000 0.000000
0.000000 1.000000 0.000000
0.000000 1.000000 0.000000
0.000000 1.000000 0.000000
0.000000 1.000000 0.000000
0.003415 0.997328 0.000972
0.937255 0.266667 0.266667
0.937255 0.266667 0.266667
0.937255 0.266667 0.266667
0.937255 0.266667 0.266667
0.937255 0.266667 0.266667
0.937255 0.266667 0.266667
0.937255 0.266667 0.266667
0.937255 0.266667 0.266667
0.937255 0.266667 0.266667
0.937255 0.266667 0.266667
0.937255 0.266667 0.266667
0.937255 0.266667 0.266667
0.937255 0.266667 0.266667
0.937255 0.266667 0.266667
0.937255 0.266667 0.266667
0.937255 0.266667 0.266667
0.937255 0.266667 0.266667
0.937255 0.266667 0.266667
0.937255 0.266667 0.266667
0.937255 0.266667 0.266667
0.937255 0.266667 0.266667
0.937255 0.266667 0.266667
0.937255 0.266667 0.266667
0.937255 0.266667 0.266667
0.937255 0.266667 0.266667
0.937255 0.266667 0.266667
0.937255 0.266667 0.266667
0.937255 0.266667 0.266667
0.937255 0.266667 0.266667
0.937255 0.266667 0.266667
0.937255 0.266667 0.266667
0.937255 0.266667 0.266667
0.937255 0.266667 0.266667
0.937255 0.266667 0.266667
0.937255 0.266667 0.266667
0.937255 0.266667 0.266667
0.937255 0.266667 0.266667
0.937255 0.266667 0.266667
0.937255 0.266667 0.266667
0.937255 0.266667 0.266667
0.937255 0.266667 0.266667
0.937255 0.266667 0.266667
0.937255 0.266667 0.266667
0.937255 0.266667 0.266667
0.937255 0.266667 0.266667
0.937255 0.266667 0.266667
0.937255 0.266667 0.266667
0.937255 0.266667 0.266667
0.937255 0.266667 0.266667
0.937255 0.266667 0.266667
0.937255 0.266667 0.266667
0.937255 0.266667 0.266667
0.937255 0.266667 0.266667
0.937255 0.266667 0.266667
0.937255 0.266667 0.266667
0.937255 0.266667 0.266667
0.937255 0.266667 0.266667
0.937255 0.266667 0.266667
0.937255 0.266667 0.266667
0.937255 0.266667 0.266667
0.937255 0.266667 0.266667
0.937255 0.266667 0.266667
0.937255 0.266667 0.266667
0.937255 0.266667 0.266667
0.937255 0.266667 0.266667
0.937255 0.266667 0.266667
0.937255 0.266667 0.266667
0.937255 0.266667 0.266667
0.937255 0.266667 0.266667
0.937255 0.266667 0.266667
0.937255 0.266667 0.266667
0.937255 0.266667 0.266667
0.937255 0.266667 0.266667
0.937255 0.266667 0.266667
0.937255 0.266667 0.266667
0.937255 0.266667 0.266667
0.937255 0.266667 0.266667
0.937255 0.266667 0.266667
0.937255 0.266667 0.266667
0.937255 0.266667 0.266667
0.937255 0.266667 0.266667
0.937255 0.266667 0.266667
0.937255 0.266667 0.266667
0.937255 0.266667 0.266667
0.937255 0.266667 0.266667
0.937255 0.266667 0.266667
0.937255 0.266667 0.266667
0.937255 0.266667 0.266667
0.937255 0.266667 0.266667
0.937255 0.266667 0.266667
0.937255 0.266667 0.266667
0.937255 0.266667 0.266667
0.937255 0.266667 0.266667
0.937255 0.266667 0.266667
0.937255 0.266667 0.266667
0.937255 0.266667 0.266667
0.937255 0.266667 0.266667
0.937255 0.266667 0.266667
0.937255 0.266667 0.266667
0.937255 0.266667 0.266667
0.937255 0.266667 0.266667
0.937255 0.266667 0.266667
0.937255 0.266667 0.266667
0.937255 0.266667 0.266667
0.937255 0.266667 0.266667
0.937255 0.266667 0.266667
0.937255 0.266667 0.266667
0.937255 0.266667 0.266667
0.937255 0.266667 0.266667
0.937255 0.266667 0.266667
0.388235 0.400000 0.945098
0.388235 0.400000 0.945098
0.388235 0.400000 0.945098
0.388235 0.400000 0.945098
0.235732 0.000000 0.022248
0.352979 0.000000 0.018923
0.500826 0.000000 0.012944
0.690092 0.000000 0.002193
0.934278 0.000000 0.000000
1.000000 0.000000 0.000000
0.850980 0.274510 0.937255
1.000000 0.000000 0.000000
1.000000 0.000000 0.000000
0.937255 0.266667 0.266667
0.937255 0.266667 0.266667
0.937255 0.266667 0.266667
0.937255 0.266667 0.266667
0.388235 0.400000 0.945098
0.388235 0.400000 0.945098
0.388235 0.400000 0.945098
0.125985 0.000000 0.020883
0.226759 0.000000 0.019033
0.346813 0.000000 0.015708
0.496480 0.000000 0.009729
0.686990 0.000000 0.000000
0.932049 0.000000 0.000000
1.000000 0.000000 0.000000
0.850980 0.274510 0.937255
1.000000 0.000000 0.000000
1.000000 0.000000 0.000000
0.937255 0.266667 0.266667
0.937255 0.266667 0.266667
0.937255 0.266667 0.266667
0.937255 0.266667 0.266667
0.000000 0.026707 0.019687
0.000000 0.022726 0.019107
0.018490 0.018490 0.018490
0.110031 0.011432 0.017461
0.216865 0.000000 0.015612
0.340134 0.000000 0.012286
0.491811 0.000000 0.006307
0.683672 0.000000 0.000000
0.929671 0.000000 0.000000
1.000000 0.000000 0.000000
0.850980 0.274510 0.937255
1.000000 0.000000 0.000000
1.000000 0.000000 0.000000
0.937255 0.266667 0.266667
0.937255 0.266667 0.266667
0.937255 0.266667 0.266667
0.937255 0.266667 0.266667
0.000000 0.090851 0.013988
0.000000 0.087063 0.013408
0.000000 0.082926 0.012790
0.079282 0.075627 0.011762
0.199485 0.062937 0.009912
0.328723 0.040119 0.006587
0.231373 0.509804 0.964706
0.678107 0.000000 0.000000
0.925694 0.000000 0.000000
1.000000 0.000000 0.000000
0.891909 0.199114 0.679833
1.000000 0.000000 0.000000
1.000000 0.000000 0.000000
0.937255 0.266667 0.266667
0.937255 0.266667 0.266667
0.937255 0.266667 0.266667
0.937255 0.266667 0.266667
0.000000 0.175541 0.003740
0.000000 0.173144 0.003160
0.000000 0.170565 0.002543
0.019409 0.166201 0.001514
0.164656 0.158124 0.000000
0.231373 0.509804 0.964706
0.469431 0.111643 0.000000
0.023529 0.713725 0.831373
0.918495 0.000000 0.000000
1.000000 0.000000 0.000000
1.000000 0.000000 0.000000
0.964766 0.300332 0.013423
1.000000 0.000000 0.000000
0.937255 0.266667 0.266667
0.937255 0.266667 0.266667
0.937255 0.266667 0.266667
0.937255 0.266667 0.266667
0.000000 0.276532 0.000000
0.000000 0.274902 0.000000
0.000000 0.273158 0.000000
0.000000 0.270230 0.000000
0.080935 0.264893 0.000000
0.264565 0.255049 0.000000
0.023529 0.713725 0.831373
0.649335 0.199393 0.000000
0.905392 0.112574 0.000000
1.000000 0.000000 0.000000
1.000000 0.000000 0.000000
0.917647 0.701961 0.031373
1.000000 0.000000 0.000000
0.937255 0.266667 0.266667
0.937255 0.266667 0.266667
0.937255 0.266667 0.266667
0.937255 0.266667 0.266667
0.000000 0.402487 0.000000
0.000000 0.401344 0.000000
0.000000 0.400124 0.000000
0.000000 0.398083 0.000000
0.000000 0.394389 0.000000
0.166518 0.387659 0.000000
0.388331 0.375263 0.000000
0.516797 0.437195 0.074734
0.881291 0.305741 0.000000
1.000000 0.200487 0.000000
1.000000 0.000000 0.000000
1.000000 0.000000 0.000000
1.000000 0.000000 0.000000
0.937255 0.266667 0.266667
0.937255 0.266667 0.266667
0.937255 0.266667 0.266667
0.937255 0.266667 0.266667
0.000000 0.562847 0.000000
0.000000 0.562033 0.000000
0.000000 0.561166 0.000000
0.000000 0.559718 0.000000
0.000000 0.557104 0.000000
0.000000 0.552373 0.000000
0.266826 0.543758 0.000000
0.545390 0.527902 0.000000
0.836030 0.498086 0.000000
1.000000 0.439325 0.000000
1.000000 0.307097 0.000000
1.000000 0.000000 0.000000
0.937255 0.266667 0.266667
0.937255 0.266667 0.266667
0.937255 0.266667 0.266667
0.937255 0.266667 0.266667
0.937255 0.266667 0.266667
0.850980 0.274510 0.937255
0.850980 0.274510 0.937255
0.803311 0.302150 0.884752
0.550081 0.448616 0.605849
0.045673 0.738706 0.050304
0.000000 0.761661 0.000000
0.000000 0.755555 0.000000
0.391174 0.744440 0.000000
0.747099 0.723992 0.000000
1.000000 0.685572 0.000000
0.917647 0.701961 0.031373
1.000000 0.441045 0.000000
0.937255 0.266667 0.266667
0.937255 0.266667 0.266667
0.937255 0.266667 0.266667
0.937255 0.266667 0.266667
0.937255 0.266667 0.266667
0.000000 1.000000 0.000000
0.001863 0.999395 0.000064
0.031777 0.989679 0.001086
0.147059 0.952237 0.005028
0.468820 0.847734 0.016028
0.913167 0.703416 0.031219
0.917647 0.701961 0.031373
0.917647 0.701961 0.031373
0.549024 1.000000 0.000000
1.000000 0.977457 0.000000
1.000000 0.927716 0.000000
0.999995 0.829927 0.000022
0.937255 0.266667 0.266667
0.937255 0.266667 0.266667
0.937255 0.266667 0.266667
0.937255 0.266667 0.266667
0.937255 0.266667 0.266667
0.000000 1.000000 0.000000
0.000000 1.000000 0.000000
0.000000 1.000000 0.000000
0.000000 1.000000 0.000000
0.000000 1.000000 0.000000
0.000000 1.000000 0.000000
0.000000 1.000000 0.000000
0.000000 1.000000 0.000000
0.007016 0.994511 0.001996
0.937255 0.266667 0.266667
0.937255 0.266667 0.266667
0.937255 0.266667 0.266667
0.937255 0.266667 0.266667
0.937255 0.266667 0.266667
0.937255 0.266667 0.266667
0.937255 0.266667 0.266667
0.937255 0.266667 0.266667
0.937255 0.266667 0.266667
0.937255 0.266667 0.266667
0.937255 0.266667 0.266667
0.937255 0.266667 0.266667
0.937255 0.266667 0.266667
0.937255 0.266667 0.266667
0.937255 0.266667 0.266667
0.937255 0.266667 0.266667
0.937255 0.266667 0.266667
0.937255 0.266667 0.266667
0.937255 0.266667 0.266667
0.937255 0.266667 0.266667
0.937255 0.266667 0.266667
0.937255 0.266667 0.266667
0.937255 0.266667 0.266667
0.937255 0.266667 0.266667
0.937255 0.266667 0.266667
0.937255 0.266667 0.266667
0.937255 0.266667 0.266667
0.937255 0.266667 0.266667
0.937255 0.266667 0.266667
0.937255 0.266667 0.266667
0.937255 0.266667 0.266667
0.937255 0.266667 0.266667
0.937255 0.266667 0.266667
0.937255 0.266667 0.266667
0.937255 0.266667 0.266667
0.937255 0.266667 0.266667
0.937255 0.266667 0.266667
0.937255 0.266667 0.266667
0.937255 0.266667 0.266667
0.937255 0.266667 0.266667
0.937255 0.266667 0.266667
0.937255 0.266667 0.266667
0.937255 0.266667 0.266667
0.937255 0.266667 0.266667
0.937255 0.266667 0.266667
0.937255 0.266667 0.266667
0.937255 0.266667 0.266667
0.937255 0.266667 0.266667
0.937255 0.266667 0.266667
0.937255 0.266667 0.266667
0.937255 0.266667 0.266667
0.937255 0.266667 0.266667
0.937255 0.266667 0.266667
0.937255 0.266667 0.266667
0.937255 0.266667 0.266667
0.937255 0.266667 0.266667
0.937255 0.266667 0.266667
0.937255 0.266667 0.266667
0.937255 0.266667 0.266667
0.937255 0.266667 0.266667
0.937255 0.266667 0.266667
0.937255 0.266667 0.266667
0.937255 0.266667 0.266667
0.937255 0.266667 0.266667
0.937255 0.266667 0.266667
0.937255 0.266667 0.266667
0.937255 0.266667 0.266667
0.937255 0.266667 0.266667
0.937255 0.266667 0.266667
0.937255 0.266667 0.266667
0.937255 0.266667 0.266667
0.937255 0.266667 0.266667
0.937255 0.266667 0.266667
0.937255 0.266667 0.266667
0.937255 0.266667 0.266667
0.937255 0.266667 0.266667
0.937255 0.266667 0.266667
0.937255 0.266667 0.266667
0.937255 0.266667 0.266667
0.937255 0.266667 0.266667
0.937255 0.266667 0.266667
0.937255 0.266667 0.266667
0.937255 0.266667 0.266667
0.937255 0.266667 0.266667
0.937255 0.266667 0.266667
0.937255 0.266667 0.266667
0.937255 0.266667 0.266667
0.937255 0.266667 0.266667
0.937255 0.266667 0.266667
0.937255 0.266667 0.266667
0.937255 0.266667 0.266667
0.937255 0.266667 0.266667
0.937255 0.266667 0.266667
0.937255 0.266667 0.266667
0.937255 0.266667 0.266667
0.937255 0.266667 0.266667
0.937255 0.266667 0.266667
0.937255 0.266667 0.266667
0.937255 0.266667 0.266667
