luts/HybridMonitor_clog2.cube
# Hybrid Monitor LUT
# Profile  : Canon C-Log2
# Cameras  : C70, C300 III, C500 II, EOS R5 C, EOS C70
# Input    : Canon C-Log2 log / Cinema Gamut
# Output   : Rec.709 base + narrow exposure tracer overlays
# Generator: hybrid_monitor_lut.py
#
# Base transform pipeline:
#   Log decode  →  Cinema Gamut → Rec.709 matrix  →  Rec.709 OETF
#
# Overlay zones (thin tracers over Rec.709 base):
#   #ef4444     white_clip      log 0.700 – 1.000
#   #eab308     +2 stops        log 0.534 – 0.544
#   #d946ef     +1 stops        log 0.463 – 0.473
#   #22c55e     +0 stops        log 0.393 – 0.403
#   #06b6d4     -1 stops        log 0.327 – 0.336
#   #3b82f6     -2 stops        log 0.265 – 0.273
#   #6366f1     black_clip      log 0.000 – 0.100
#   All other levels → standard Rec.709 color (no tracer)
#
TITLE "HybridMonitor Canon C-Log2"
LUT_3D_SIZE 33
DOMAIN_MIN 0.0 0.0 0.0
DOMAIN_MAX 1.0 1.0 1.0
0.388235 0.400000 0.945098
0.388235 0.400000 0.945098
0.388235 0.400000 0.945098
0.388235 0.400000 0.945098
0.388235 0.400000 0.945098
0.388235 0.400000 0.945098
0.388235 0.400000 0.945098
0.388235 0.400000 0.945098
0.388235 0.400000 0.945098
0.388235 0.400000 0.945098
0.376373 0.000000 0.000000
0.447163 0.000000 0.000000
0.527722 0.000000 0.000000
0.619516 0.000000 0.000000
0.231373 0.509804 0.964706
0.843701 0.000000 0.000000
0.023529 0.713725 0.831373
1.000000 0.000000 0.000000
0.133333 0.772549 0.368627
1.000000 0.000000 0.000000
1.000000 0.000000 0.000000
1.000000 0.000000 0.000000
1.000000 0.000000 0.000000
1.000000 0.000000 0.000000
1.000000 0.000000 0.000000
1.000000 0.000000 0.000000
1.000000 0.000000 0.000000
1.000000 0.000000 0.000000
0.937255 0.266667 0.266667
0.937255 0.266667 0.266667
0.937255 0.266667 0.266667
0.937255 0.266667 0.266667
0.937255 0.266667 0.266667
0.388235 0.400000 0.945098
0.388235 0.400000 0.945098
0.388235 0.400000 0.945098
0.388235 0.400000 0.945098
0.388235 0.400000 0.945098
0.388235 0.400000 0.945098
0.388235 0.400000 0.945098
0.388235 0.400000 0.945098
0.361788 0.324108 0.765785
0.305509 0.000000 0.000000
0.369199 0.000000 0.000000
0.441124 0.000000 0.000000
0.522627 0.000000 0.000000
0.615211 0.000000 0.000000
0.720568 0.000000 0.000000
0.840617 0.000000 0.000000
0.977536 0.000000 0.000000
1.000000 0.000000 0.000000
0.133333 0.772549 0.368627
1.000000 0.000000 0.000000
0.928730 0.131288 0.448253
1.000000 0.000000 0.000000
1.000000 0.000000 0.000000
1.000000 0.000000 0.000000
1.000000 0.000000 0.000000
1.000000 0.000000 0.000000
1.000000 0.000000 0.000000
1.000000 0.000000 0.000000
0.937255 0.266667 0.266667
0.937255 0.266667 0.266667
0.937255 0.266667 0.266667
0.937255 0.266667 0.266667
0.937255 0.266667 0.266667
0.388235 0.400000 0.945098
0.388235 0.400000 0.945098
0.388235 0.400000 0.945098
0.388235 0.400000 0.945098
0.388235 0.400000 0.945098
0.388235 0.400000 0.945098
0.388235 0.400000 0.945098
0.188501 0.000000 0.000000
0.241003 0.000000 0.000000
0.299020 0.000000 0.000000
0.363787 0.000000 0.000000
0.436588 0.000000 0.000000
0.518812 0.000000 0.000000
0.611994 0.000000 0.000000
0.717851 0.000000 0.000000
0.838320 0.000000 0.000000
0.975591 0.000000 0.000000
1.000000 0.000000 0.000000
0.375010 0.557117 0.265833
1.000000 0.000000 0.000000
0.860730 0.256550 0.875936
1.000000 0.000000 0.000000
1.000000 0.000000 0.000000
1.000000 0.000000 0.000000
1.000000 0.000000 0.000000
1.000000 0.000000 0.000000
1.000000 0.000000 0.000000
1.000000 0.000000 0.000000
0.937255 0.266667 0.266667
0.937255 0.266667 0.266667
0.937255 0.266667 0.266667
0.937255 0.266667 0.266667
0.937255 0.266667 0.266667
0.388235 0.400000 0.945098
0.388235 0.400000 0.945098
0.388235 0.400000 0.945098
0.388235 0.400000 0.945098
0.388235 0.400000 0.945098
0.105816 0.041573 0.071984
0.130957 0.005982 0.000000
0.181145 0.000000 0.000000
0.235040 0.000000 0.000000
0.294118 0.000000 0.000000
0.359718 0.000000 0.000000
0.433190 0.000000 0.000000
0.515961 0.000000 0.000000
0.609595 0.000000 0.000000
0.715828 0.000000 0.000000
0.836610 0.000000 0.000000
0.974145 0.000000 0.000000
1.000000 0.000000 0.000000
0.936091 0.056969 0.027183
1.000000 0.000000 0.000000
0.850980 0.274510 0.937255
1.000000 0.000000 0.000000
1.000000 0.000000 0.000000
1.000000 0.000000 0.000000
1.000000 0.000000 0.000000
1.000000 0.000000 0.000000
1.000000 0.000000 0.000000
1.000000 0.000000 0.000000
0.937255 0.266667 0.266667
0.937255 0.266667 0.266667
0.937255 0.266667 0.266667
0.937255 0.266667 0.266667
0.937255 0.266667 0.266667
0.388235 0.400000 0.945098
0.388235 0.400000 0.945098
0.007357 0.054151 0.017909
0.000000 0.044198 0.000000
0.027060 0.040870 0.000000
0.069278 0.036387 0.000000
0.121022 0.030346 0.000000
0.173415 0.022207 0.000000
0.228841 0.011241 0.000000
0.289055 0.000000 0.000000
0.355536 0.000000 0.000000
0.429707 0.000000 0.000000
0.513046 0.000000 0.000000
0.331294 0.374242 0.708181
0.713764 0.000000 0.000000
0.834867 0.000000 0.000000
0.972672 0.000000 0.000000
1.000000 0.000000 0.000000
1.000000 0.000000 0.000000
1.000000 0.000000 0.000000
0.850980 0.274510 0.937255
1.000000 0.000000 0.000000
1.000000 0.000000 0.000000
1.000000 0.000000 0.000000
1.000000 0.000000 0.000000
1.000000 0.000000 0.000000
1.000000 0.000000 0.000000
1.000000 0.000000 0.000000
0.937255 0.266667 0.266667
0.937255 0.266667 0.266667
0.937255 0.266667 0.266667
0.937255 0.266667 0.266667
0.937255 0.266667 0.266667
0.000000 0.090608 0.000000
0.000000 0.084913 0.000000
0.000000 0.080297 0.000000
0.000000 0.077025 0.000000
0.009531 0.073697 0.000000
0.051749 0.069214 0.000000
0.106699 0.063173 0.000000
0.162556 0.055034 0.000000
0.220255 0.044068 0.000000
0.282103 0.029293 0.000000
0.349824 0.009387 0.000000
0.424970 0.000000 0.000000
0.509091 0.000000 0.000000
0.231373 0.509804 0.964706
0.710972 0.000000 0.000000
0.832513 0.000000 0.000000
0.970683 0.000000 0.000000
1.000000 0.000000 0.000000
1.000000 0.000000 0.000000
1.000000 0.000000 0.000000
0.850980 0.274510 0.937255
1.000000 0.000000 0.000000
1.000000 0.000000 0.000000
1.000000 0.000000 0.000000
1.000000 0.000000 0.000000
1.000000 0.000000 0.000000
1.000000 0.000000 0.000000
1.000000 0.000000 0.000000
0.937255 0.266667 0.266667
0.937255 0.266667 0.266667
0.937255 0.266667 0.266667
0.937255 0.266667 0.266667
0.937255 0.266667 0.266667
0.000000 0.127736 0.000000
0.000000 0.123187 0.000000
0.000000 0.119736 0.000000
0.000000 0.117130 0.000000
0.000000 0.114440 0.000000
0.028133 0.110749 0.000000
0.085215 0.105648 0.000000
0.146989 0.098517 0.000000
0.208219 0.088382 0.000000
0.272484 0.073522 0.000000
0.341986 0.053616 0.000000
0.418503 0.026795 0.000000
0.503711 0.000000 0.000000
0.599328 0.000000 0.000000
0.707193 0.000000 0.000000
0.026404 0.711179 0.828406
0.967996 0.000000 0.000000
1.000000 0.000000 0.000000
1.000000 0.000000 0.000000
1.000000 0.000000 0.000000
0.850980 0.274510 0.937255
1.000000 0.000000 0.000000
1.000000 0.000000 0.000000
1.000000 0.000000 0.000000
1.000000 0.000000 0.000000
1.000000 0.000000 0.000000
1.000000 0.000000 0.000000
1.000000 0.000000 0.000000
0.937255 0.266667 0.266667
0.937255 0.266667 0.266667
0.937255 0.266667 0.266667
0.937255 0.266667 0.266667
0.937255 0.266667 0.266667
0.000000 0.168319 0.000000
0.000000 0.164614 0.000000
0.000000 0.161822 0.000000
0.000000 0.159725 0.000000
0.000000 0.157572 0.000000
0.000000 0.154636 0.000000
0.053195 0.150612 0.000000
0.123883 0.145062 0.000000
0.191028 0.137331 0.000000
0.259022 0.126398 0.000000
0.331148 0.110553 0.000000
0.409631 0.086546 0.000000
0.231373 0.509804 0.964706
0.593208 0.001563 0.000000
0.702066 0.000000 0.000000
0.023558 0.713700 0.831343
0.964363 0.000000 0.000000
1.000000 0.000000 0.000000
1.000000 0.000000 0.000000
1.000000 0.000000 0.000000
0.850980 0.274510 0.937255
1.000000 0.000000 0.000000
1.000000 0.000000 0.000000
1.000000 0.000000 0.000000
1.000000 0.000000 0.000000
1.000000 0.000000 0.000000
1.000000 0.000000 0.000000
1.000000 0.000000 0.000000
0.937255 0.266667 0.266667
0.937255 0.266667 0.266667
0.937255 0.266667 0.266667
0.937255 0.266667 0.266667
0.937255 0.266667 0.266667
0.000000 0.213303 0.000000
0.000000 0.210247 0.000000
0.000000 0.207954 0.000000
0.000000 0.206239 0.000000
0.000000 0.204482 0.000000
0.000000 0.202096 0.000000
0.010324 0.198843 0.000000
0.087103 0.194391 0.000000
0.165679 0.188259 0.000000
0.239840 0.179734 0.000000
0.315995 0.167719 0.000000
0.231373 0.509804 0.964706
0.486299 0.124426 0.000000
0.584857 0.082098 0.000000
0.695094 0.016254 0.000000
0.819173 0.000000 0.000000
0.959444 0.000000 0.000000
1.000000 0.000000 0.000000
1.000000 0.000000 0.000000
1.000000 0.000000 0.000000
0.862003 0.254204 0.867926
1.000000 0.000000 0.000000
1.000000 0.000000 0.000000
1.000000 0.000000 0.000000
1.000000 0.000000 0.000000
1.000000 0.000000 0.000000
1.000000 0.000000 0.000000
1.000000 0.000000 0.000000
0.937255 0.266667 0.266667
0.937255 0.266667 0.266667
0.937255 0.266667 0.266667
0.937255 0.266667 0.266667
0.937255 0.266667 0.266667
0.000000 0.263623 0.000000
0.000000 0.261081 0.000000
0.000000 0.259180 0.000000
0.000000 0.257761 0.000000
0.000000 0.256310 0.000000
0.000000 0.254345 0.000000
0.000000 0.251676 0.000000
0.029201 0.248039 0.000000
0.231373 0.509804 0.964706
0.222695 0.389278 0.539711
0.294441 0.226718 0.000000
0.380239 0.213352 0.000000
0.472387 0.194155 0.000000
0.573404 0.165557 0.000000
0.023529 0.713725 0.831373
0.811223 0.036048 0.000000
0.952771 0.000000 0.000000
0.133333 0.772549 0.368627
1.000000 0.000000 0.000000
1.000000 0.000000 0.000000
1.000000 0.000000 0.000000
1.000000 0.000000 0.000000
1.000000 0.000000 0.000000
1.000000 0.000000 0.000000
1.000000 0.000000 0.000000
1.000000 0.000000 0.000000
1.000000 0.000000 0.000000
1.000000 0.000000 0.000000
0.937255 0.266667 0.266667
0.937255 0.266667 0.266667
0.937255 0.266667 0.266667
0.937255 0.266667 0.266667
0.937255 0.266667 0.266667
0.000000 0.320264 0.000000
0.000000 0.318137 0.000000
0.000000 0.316551 0.000000
0.000000 0.315368 0.000000
0.000000 0.314161 0.000000
0.000000 0.312528 0.000000
0.000000 0.310316 0.000000
0.000000 0.307311 0.000000
0.054635 0.303219 0.000000
0.167882 0.297625 0.000000
0.262886 0.289931 0.000000
0.355900 0.279261 0.000000
0.452960 0.264275 0.000000
0.023529 0.713725 0.831373
0.672537 0.210951 0.000000
0.800375 0.160337 0.000000
0.943699 0.062716 0.000000
1.000000 0.000000 0.000000
1.000000 0.000000 0.000000
1.000000 0.000000 0.000000
1.000000 0.000000 0.000000
1.000000 0.000000 0.000000
0.943146 0.484610 0.021659
1.000000 0.000000 0.000000
1.000000 0.000000 0.000000
1.000000 0.000000 0.000000
1.000000 0.000000 0.000000
1.000000 0.000000 0.000000
0.937255 0.266667 0.266667
0.937255 0.266667 0.266667
0.937255 0.266667 0.266667
0.937255 0.266667 0.266667
0.937255 0.266667 0.266667
0.000000 0.384300 0.000000
0.000000 0.382514 0.000000
0.000000 0.381183 0.000000
0.000000 0.380193 0.000000
0.000000 0.379183 0.000000
0.000000 0.377818 0.000000
0.000000 0.375971 0.000000
0.000000 0.373470 0.000000
0.000000 0.370073 0.000000
0.088959 0.365448 0.000000
0.023529 0.713725 0.831373
0.148923 0.560249 0.480146
0.425382 0.338396 0.000000
0.535505 0.321499 0.000000
0.654523 0.297328 0.000000
0.785503 0.261586 0.000000
0.133333 0.772549 0.368627
1.000000 0.097965 0.000000
1.000000 0.000000 0.000000
1.000000 0.000000 0.000000
1.000000 0.000000 0.000000
1.000000 0.000000 0.000000
0.917647 0.701961 0.031373
1.000000 0.000000 0.000000
1.000000 0.000000 0.000000
1.000000 0.000000 0.000000
1.000000 0.000000 0.000000
1.000000 0.000000 0.000000
0.937255 0.266667 0.266667
0.937255 0.266667 0.266667
0.937255 0.266667 0.266667
0.937255 0.266667 0.266667
0.937255 0.266667 0.266667
0.000000 0.456921 0.000000
0.000000 0.455417 0.000000
0.000000 0.454298 0.000000
0.000000 0.453465 0.000000
0.000000 0.452616 0.000000
0.000000 0.451471 0.000000
0.000000 0.449923 0.000000
0.000000 0.447828 0.000000
0.000000 0.444991 0.000000
0.000000 0.441139 0.000000
0.127886 0.435895 0.000000
0.265616 0.428730 0.000000
0.385152 0.418883 0.000000
0.504180 0.405243 0.000000
0.629387 0.386118 0.000000
0.133333 0.772549 0.368627
0.914350 0.318470 0.000000
1.000000 0.255103 0.000000
1.000000 0.136734 0.000000
0.850980 0.274510 0.937255
1.000000 0.000000 0.000000
1.000000 0.000000 0.000000
0.917647 0.701961 0.031373
1.000000 0.000000 0.000000
1.000000 0.000000 0.000000
1.000000 0.000000 0.000000
1.000000 0.000000 0.000000
1.000000 0.000000 0.000000
0.937255 0.266667 0.266667
0.937255 0.266667 0.266667
0.937255 0.266667 0.266667
0.937255 0.266667 0.266667
0.937255 0.266667 0.266667
0.000000 0.539463 0.000000
0.000000 0.538194 0.000000
0.000000 0.537250 0.000000
0.000000 0.536548 0.000000
0.000000 0.535833 0.000000
0.000000 0.534868 0.000000
0.000000 0.533566 0.000000
0.000000 0.531806 0.000000
0.000000 0.529425 0.000000
0.000000 0.526200 0.000000
0.000000 0.521822 0.000000
0.170053 0.515863 0.000000
0.323415 0.507721 0.000000
0.133333 0.772549 0.368627
0.593741 0.481045 0.000000
0.736317 0.459339 0.000000
0.890920 0.428350 0.000000
1.000000 0.382691 0.000000
1.000000 0.311169 0.000000
1.000000 0.179077 0.000000
1.000000 0.000000 0.000000
1.000000 0.000000 0.000000
1.000000 0.000000 0.000000
1.000000 0.000000 0.000000
1.000000 0.000000 0.000000
1.000000 0.000000 0.000000
1.000000 0.000000 0.000000
1.000000 0.000000 0.000000
0.937255 0.266667 0.266667
0.937255 0.266667 0.266667
0.937255 0.266667 0.266667
0.937255 0.266667 0.266667
0.937255 0.266667 0.266667
0.133333 0.772548 0.368625
0.109952 0.747965 0.303985
0.074186 0.710006 0.205102
0.045599 0.679388 0.126067
0.020313 0.652027 0.056160
0.000967 0.630589 0.002673
0.000000 0.628454 0.000000
0.000000 0.626971 0.000000
0.000000 0.624967 0.000000
0.000000 0.622257 0.000000
0.000000 0.618585 0.000000
0.000000 0.613601 0.000000
0.216525 0.606818 0.000000
0.388625 0.597550 0.000000
0.541836 0.584821 0.000000
0.695702 0.567198 0.000000
0.858236 0.542511 0.000000
1.000000 0.507289 0.000000
0.986372 0.438904 0.085710
1.000000 0.374435 0.000000
1.000000 0.225985 0.000000
1.000000 0.000000 0.000000
1.000000 0.000000 0.000000
1.000000 0.000000 0.000000
1.000000 0.000000 0.000000
1.000000 0.000000 0.000000
1.000000 0.000000 0.000000
1.000000 0.000000 0.000000
0.937255 0.266667 0.266667
0.937255 0.266667 0.266667
0.937255 0.266667 0.266667
0.937255 0.266667 0.266667
0.937255 0.266667 0.266667
0.000000 0.740538 0.000000
0.000000 0.739631 0.000000
0.000000 0.738956 0.000000
0.000000 0.738455 0.000000
0.000000 0.737945 0.000000
0.000000 0.737257 0.000000
0.000000 0.736330 0.000000
0.000000 0.735078 0.000000
0.000000 0.733387 0.000000
0.000000 0.731103 0.000000
0.000000 0.728013 0.000000
0.000000 0.723828 0.000000
0.000000 0.718147 0.000000
0.268310 0.710417 0.000000
0.462469 0.699856 0.000000
0.636593 0.685351 0.000000
0.850980 0.274510 0.937255
0.997356 0.637157 0.000000
1.000000 0.597059 0.000000
1.000000 0.538090 0.000000
1.000000 0.446085 0.000000
0.917647 0.701961 0.031373
1.000000 0.000000 0.000000
1.000000 0.000000 0.000000
1.000000 0.000000 0.000000
1.000000 0.000000 0.000000
1.000000 0.000000 0.000000
1.000000 0.000000 0.000000
0.937255 0.266667 0.266667
0.937255 0.266667 0.266667
0.937255 0.266667 0.266667
0.937255 0.266667 0.266667
0.937255 0.266667 0.266667
0.850980 0.274510 0.937255
0.850980 0.274510 0.937255
0.850980 0.274510 0.937255
0.850980 0.274510 0.937255
0.850980 0.274510 0.937255
0.850980 0.274510 0.937255
0.850980 0.274510 0.937255
0.850980 0.274510 0.937255
0.850980 0.274510 0.937255
0.850980 0.274510 0.937255
0.850980 0.274510 0.937255
0.850952 0.274529 0.937223
0.085396 0.786707 0.094054
0.000000 0.837360 0.000000
0.326447 0.828541 0.000000
0.546311 0.816495 0.000000
0.744529 0.799952 0.000000
0.944489 0.777056 0.000000
1.000000 0.744999 0.000000
1.000000 0.699296 0.000000
0.917647 0.701961 0.031373
1.000000 0.527444 0.000000
1.000000 0.337468 0.000000
1.000000 0.000000 0.000000
1.000000 0.000000 0.000000
1.000000 0.000000 0.000000
1.000000 0.000000 0.000000
1.000000 0.000000 0.000000
0.937255 0.266667 0.266667
0.937255 0.266667 0.266667
0.937255 0.266667 0.266667
0.937255 0.266667 0.266667
0.937255 0.266667 0.266667
0.000000 1.000000 0.000000
0.000000 1.000000 0.000000
0.000000 1.000000 0.000000
0.000000 1.000000 0.000000
0.000000 1.000000 0.000000
0.000000 0.999845 0.000000
0.000000 0.999181 0.000000
0.000000 0.998285 0.000000
0.000000 0.997077 0.000000
0.000000 0.995446 0.000000
0.000000 0.993245 0.000000
0.000000 0.990270 0.000000
0.000000 0.986246 0.000000
0.000000 0.980795 0.000000
0.000000 0.973398 0.000000
0.392053 0.963332 0.000000
0.641688 0.949583 0.000000
0.867604 0.930701 0.000000
1.000000 0.904572 0.000000
0.917647 0.701961 0.031373
1.000000 0.815856 0.000000
1.000000 0.739259 0.000000
1.000000 0.620001 0.000000
1.000000 0.404192 0.000000
1.000000 0.000000 0.000000
1.000000 0.000000 0.000000
1.000000 0.000000 0.000000
1.000000 0.000000 0.000000
0.937255 0.266667 0.266667
0.937255 0.266667 0.266667
0.937255 0.266667 0.266667
0.937255 0.266667 0.266667
0.937255 0.266667 0.266667
0.000000 1.000000 0.000000
0.000000 1.000000 0.000000
0.000000 1.000000 0.000000
0.000000 1.000000 0.000000
0.000000 1.000000 0.000000
0.000000 1.000000 0.000000
0.000000 1.000000 0.000000
0.000000 1.000000 0.000000
0.000000 1.000000 0.000000
0.000000 1.000000 0.000000
0.000000 1.000000 0.000000
0.000000 1.000000 0.000000
0.000000 1.000000 0.000000
0.416152 0.864839 0.014227
0.917647 0.701961 0.031373
0.917647 0.701961 0.031373
0.891068 0.719514 0.029525
0.750336 1.000000 0.000000
1.000000 1.000000 0.000000
1.000000 1.000000 0.000000
1.000000 1.000000 0.000000
1.000000 0.948853 0.000000
1.000000 0.861445 0.000000
1.000000 0.725442 0.000000
1.000000 0.479853 0.000000
1.000000 0.000000 0.000000
1.000000 0.000000 0.000000
0.937255 0.266667 0.266667
0.937255 0.266667 0.266667
0.937255 0.266667 0.266667
0.937255 0.266667 0.266667
0.937255 0.266667 0.266667
0.937255 0.266667 0.266667
0.000000 1.000000 0.000000
0.000000 1.000000 0.000000
0.000000 1.000000 0.000000
0.000000 1.000000 0.000000
0.000000 1.000000 0.000000
0.000000 1.000000 0.000000
0.000000 1.000000 0.000000
0.000000 1.000000 0.000000
0.000000 1.000000 0.000000
0.000000 1.000000 0.000000
0.000000 1.000000 0.000000
0.000000 1.000000 0.000000
0.000000 1.000000 0.000000
0.000000 1.000000 0.000000
0.000000 1.000000 0.000000
0.000000 1.000000 0.000000
0.000000 1.000000 0.000000
0.550730 1.000000 0.000000
0.874229 1.000000 0.000000
1.000000 1.000000 0.000000
1.000000 1.000000 0.000000
1.000000 1.000000 0.000000
1.000000 1.000000 0.000000
1.000000 1.000000 0.000000
1.000000 0.845682 0.000000
1.000000 0.565841 0.000000
1.000000 0.000000 0.000000
0.937255 0.266667 0.266667
0.937255 0.266667 0.266667
0.937255 0.266667 0.266667
0.937255 0.266667 0.266667
0.937255 0.266667 0.266667
0.937255 0.266667 0.266667
0.000000 1.000000 0.000000
0.000000 1.000000 0.000000
0.000000 1.000000 0.000000
0.000000 1.000000 0.000000
0.000000 1.000000 0.000000
0.000000 1.000000 0.000000
0.000000 1.000000 0.000000
0.000000 1.000000 0.000000
0.000000 1.000000 0.000000
0.000000 1.000000 0.000000
0.000000 1.000000 0.000000
0.000000 1.000000 0.000000
0.000000 1.000000 0.000000
0.000000 1.000000 0.000000
0.000000 1.000000 0.000000
0.000000 1.000000 0.000000
0.000000 1.000000 0.000000
0.000000 1.000000 0.000000
0.646719 1.000000 0.000000
1.000000 1.000000 0.000000
1.000000 1.000000 0.000000
1.000000 1.000000 0.000000
1.000000 1.000000 0.000000
1.000000 1.000000 0.000000
1.000000 1.000000 0.000000
1.000000 0.982898 0.000000
1.000000 0.663728 0.000000
0.937255 0.266667 0.266667
0.937255 0.266667 0.266667
0.937255 0.266667 0.266667
0.937255 0.266667 0.266667
0.937255 0.266667 0.266667
0.937255 0.266667 0.266667
0.000000 1.000000 0.000000
0.000000 1.000000 0.000000
0.000000 1.000000 0.000000
0.000000 1.000000 0.000000
0.000000 1.000000 0.000000
0.000000 1.000000 0.000000
0.000000 1.000000 0.000000
0.000000 1.000000 0.000000
0.000000 1.000000 0.000000
0.000000 1.000000 0.000000
0.000000 1.000000 0.000000
0.000000 1.000000 0.000000
0.000000 1.000000 0.000000
0.000000 1.000000 0.000000
0.000000 1.000000 0.000000
0.000000 1.000000 0.000000
0.000000 1.000000 0.000000
0.000000 1.000000 0.000000
0.000000 1.000000 0.000000
0.756070 1.000000 0.000000
1.000000 1.000000 0.000000
1.000000 1.000000 0.000000
1.000000 1.000000 0.000000
1.000000 1.000000 0.000000
1.000000 1.000000 0.000000
1.000000 1.000000 0.000000
0.937255 0.266667 0.266667
0.937255 0.266667 0.266667
0.937255 0.266667 0.266667
0.937255 0.266667 0.266667
0.937255 0.266667 0.266667
0.937255 0.266667 0.266667
0.937255 0.266667 0.266667
0.000000 1.000000 0.000000
0.000000 1.000000 0.000000
0.000000 1.000000 0.000000
0.000000 1.000000 0.000000
0.000000 1.000000 0.000000
0.000000 1.000000 0.000000
0.000000 1.000000 0.000000
0.000000 1.000000 0.000000
0.000000 1.000000 0.000000
0.000000 1.000000 0.000000
0.000000 1.000000 0.000000
0.000000 1.000000 0.000000
0.000000 1.000000 0.000000
0.000000 1.000000 0.000000
0.000000 1.000000 0.000000
0.000000 1.000000 0.000000
0.000000 1.000000 0.000000
0.000000 1.000000 0.000000
0.000000 1.000000 0.000000
0.000000 1.000000 0.000000
0.880770 1.000000 0.000000
1.000000 1.000000 0.000000
1.000000 1.000000 0.000000
1.000000 1.000000 0.000000
1.000000 1.000000 0.000000
0.937255 0.266667 0.266667
0.937255 0.266667 0.266667
0.937255 0.266667 0.266667
0.937255 0.266667 0.266667
0.937255 0.266667 0.266667
0.937255 0.266667 0.266667
0.937255 0.266667 0.266667
0.937255 0.266667 0.266667
0.000000 1.000000 0.000000
0.000000 1.000000 0.000000
0.000000 1.000000 0.000000
0.000000 1.000000 0.000000
0.000000 1.000000 0.000000
0.000000 1.000000 0.000000
0.000000 1.000000 0.000000
0.000000 1.000000 0.000000
0.000000 1.000000 0.000000
0.000000 1.000000 0.000000
0.000000 1.000000 0.000000
0.000000 1.000000 0.000000
0.000000 1.000000 0.000000
0.000000 1.000000 0.000000
0.000000 1.000000 0.000000
0.000000 1.000000 0.000000
0.000000 1.000000 0.000000
0.000000 1.000000 0.000000
0.000000 1.000000 0.000000
0.000000 1.000000 0.000000
0.000000 1.000000 0.000000
0.984964 0.824272 0.063901
0.937255 0.266667 0.266667
0.937255 0.266667 0.266667
0.937255 0.266667 0.266667
0.937255 0.266667 0.266667
0.937255 0.266667 0.266667
0.937255 0.266667 0.266667
0.937255 0.266667 0.266667
0.937255 0.266667 0.266667
0.937255 0.266667 0.266667
0.937255 0.266667 0.266667
0.937255 0.266667 0.266667
0.937255 0.266667 0.266667
0.937255 0.266667 0.266667
0.937255 0.266667 0.266667
0.937255 0.266667 0.266667
0.937255 0.266667 0.266667
0.937255 0.266667 0.266667
0.937255 0.266667 0.266667
0.937255 0.266667 0.266667
0.937255 0.266667 0.266667
0.937255 0.266667 0.266667
0.937255 0.266667 0.266667
0.937255 0.266667 0.266667
0.937255 0.266667 0.266667
0.937255 0.266667 0.266667
0.937255 0.266667 0.266667
0.937255 0.266667 0.266667
0.937255 0.266667 0.266667
0.937255 0.266667 0.266667
0.937255 0.266667 0.266667
0.937255 0.266667 0.266667
0.937255 0.266667 0.266667
0.937255 0.266667 0.266667
0.937255 0.266667 0.266667
0.937255 0.266667 0.266667
0.937255 0.266667 0.266667
0.937255 0.266667 0.266667
0.937255 0.266667 0.266667
0.937255 0.266667 0.266667
0.937255 0.266667 0.266667
0.937255 0.266667 0.266667
0.937255 0.266667 0.266667
0.937255 0.266667 0.266667
0.937255 0.266667 0.266667
0.937255 0.266667 0.266667
0.937255 0.266667 0.266667
0.937255 0.266667 0.266667
0.937255 0.266667 0.266667
0.937255 0.266667 0.266667
0.937255 0.266667 0.266667
0.937255 0.266667 0.266667
0.937255 0.266667 0.266667
0.937255 0.266667 0.266667
0.937255 0.266667 0.266667
0.937255 0.266667 0.266667
0.937255 0.266667 0.266667
0.937255 0.266667 0.266667
0.937255 0.266667 0.266667
0.937255 0.266667 0.266667
0.937255 0.266667 0.266667
0.937255 0.266667 0.266667
0.937255 0.266667 0.266667
0.937255 0.266667 0.266667
0.937255 0.266667 0.266667
0.937255 0.266667 0.266667
0.937255 0.266667 0.266667
0.937255 0.266667 0.266667
0.937255 0.266667 0.266667
0.937255 0.266667 0.266667
0.937255 0.266667 0.266667
0.937255 0.266667 0.266667
0.937255 0.266667 0.266667
0.937255 0.266667 0.266667
0.937255 0.266667 0.266667
