luts/HybridMonitor_slog3.cube
# Hybrid Monitor LUT
# Profile  : Sony S-Log3
# Cameras  : A7S III, A7 IV, FX3, FX6, FX9, ZV-E1, Venice
# Input    : Sony S-Log3 log / S-Gamut3.Cine
# Output   : Rec.709 base + narrow exposure tracer overlays
# Generator: hybrid_monitor_lut.py
#
# Base transform pipeline:
#   Log decode  →  S-Gamut3.Cine → Rec.709 matrix  →  Rec.709 OETF
#
# Overlay zones (thin tracers over Rec.709 base):
#   #ef4444     white_clip      log 0.760 – 1.000
#   #eab308     +2 stops        log 0.555 – 0.565
#   #d946ef     +1 stops        log 0.479 – 0.490
#   #22c55e     +0 stops        log 0.405 – 0.416
#   #06b6d4     -1 stops        log 0.334 – 0.344
#   #3b82f6     -2 stops        log 0.269 – 0.277
#   #6366f1     black_clip      log 0.000 – 0.100
#   All other levels → standard Rec.709 color (no tracer)
#
TITLE "HybridMonitor Sony S-Log3"
LUT_3D_SIZE 9
DOMAIN_MIN 0.0 0.0 0.0
DOMAIN_MAX 1.0 1.0 1.0
0.388235 0.400000 0.945098
0.388235 0.400000 0.945098
0.388235 0.400000 0.945098
0.453505 0.000000 0.000000
0.827591 0.000000 0.000000
1.000000 0.000000 0.000000
1.000000 0.000000 0.000000
1.000000 0.000000 0.000000
0.937255 0.266667 0.266667
0.388235 0.400000 0.945098
0.029212 0.042176 0.000000
0.199225 0.018171 0.000000
0.441664 0.000000 0.000000
0.023529 0.713725 0.831373
1.000000 0.000000 0.000000
1.000000 0.000000 0.000000
1.000000 0.000000 0.000000
0.937255 0.266667 0.266667
0.000000 0.199238 0.000000
0.000000 0.190889 0.000000
0.156161 0.177038 0.000000
0.422243 0.127055 0.000000
0.811373 0.000000 0.000000
1.000000 0.000000 0.000000
1.000000 0.000000 0.000000
1.000000 0.000000 0.000000
0.937255 0.266667 0.266667
0.023529 0.713725 0.831373
0.023529 0.713725 0.831373
0.000000 0.407164 0.000000
0.355051 0.385369 0.000000
0.133333 0.772549 0.368627
0.850980 0.274510 0.937255
1.000000 0.000000 0.000000
1.000000 0.000000 0.000000
0.937255 0.266667 0.266667
0.000000 0.770812 0.000000
0.000000 0.768590 0.000000
0.000000 0.765059 0.000000
0.000000 0.753933 0.000000
0.670199 0.718454 0.000000
1.000000 0.594868 0.000000
1.000000 0.000000 0.000000
1.000000 0.000000 0.000000
0.937255 0.266667 0.266667
0.000000 1.000000 0.000000
0.000000 1.000000 0.000000
0.000000 1.000000 0.000000
0.000000 1.000000 0.000000
0.000000 1.000000 0.000000
1.000000 1.000000 0.000000
1.000000 1.000000 0.000000
1.000000 0.000000 0.000000
0.937255 0.266667 0.266667
0.000000 1.000000 0.000000
0.000000 1.000000 0.000000
0.000000 1.000000 0.000000
0.000000 1.000000 0.000000
0.000000 1.000000 0.000000
0.000000 1.000000 0.000000
1.000000 1.000000 0.000000
0.937255 0.266667 0.266667
0.937255 0.266667 0.266667
0.937255 0.266667 0.266667
0.937255 0.266667 0.266667
0.937255 0.266667 0.266667
0.937255 0.266667 0.266667
0.937255 0.266667 0.266667
0.937255 0.266667 0.266667
0.937255 0.266667 0.266667
0.937255 0.266667 0.266667
0.937255 0.266667 0.266667
0.937255 0.266667 0.266667
0.937255 0.266667 0.266667
0.937255 0.266667 0.266667
0.937255 0.266667 0.266667
0.937255 0.266667 0.266667
0.937255 0.266667 0.266667
0.937255 0.266667 0.266667
0.937255 0.266667 0.266667
0.937255 0.266667 0.266667
0.388235 0.400000 0.945098
0.388235 0.400000 0.945098
0.388235 0.400000 0.945098
0.451623 0.000000 0.013870
0.826592 0.000000 0.000000
1.000000 0.000000 0.000000
1.000000 0.000000 0.000000
1.000000 0.000000 0.000000
0.937255 0.266667 0.266667
0.388235 0.400000 0.945098
0.021838 0.021838 0.021838
0.195201 0.000000 0.015863
0.439731 0.000000 0.000000
0.023529 0.713725 0.831373
1.000000 0.000000 0.000000
1.000000 0.000000 0.000000
1.000000 0.000000 0.000000
0.937255 0.266667 0.266667
0.000000 0.187973 0.000000
0.000000 0.179208 0.000000
0.151275 0.164600 0.000000
0.420222 0.110913 0.000000
0.810352 0.000000 0.000000
1.000000 0.000000 0.000000
1.000000 0.000000 0.000000
1.000000 0.000000 0.000000
0.937255 0.266667 0.266667
0.023529 0.713725 0.831373
0.023529 0.713725 0.831373
0.000000 0.401357 0.000000
0.352656 0.379238 0.000000
0.133333 0.772549 0.368627
0.850980 0.274510 0.937255
1.000000 0.000000 0.000000
1.000000 0.000000 0.000000
0.937255 0.266667 0.266667
0.000000 0.767831 0.000000
0.000000 0.765600 0.000000
0.000000 0.762054 0.000000
0.000000 0.750879 0.000000
0.668944 0.715237 0.000000
1.000000 0.590933 0.000000
1.000000 0.000000 0.000000
1.000000 0.000000 0.000000
0.937255 0.266667 0.266667
0.000000 1.000000 0.000000
0.000000 1.000000 0.000000
0.000000 1.000000 0.000000
0.000000 1.000000 0.000000
0.000000 1.000000 0.000000
1.000000 1.000000 0.000000
1.000000 1.000000 0.000000
1.000000 0.000000 0.000000
0.937255 0.266667 0.266667
0.000000 1.000000 0.000000
0.000000 1.000000 0.000000
0.000000 1.000000 0.000000
0.000000 1.000000 0.000000
0.000000 1.000000 0.000000
0.000000 1.000000 0.000000
1.000000 1.000000 0.000000
0.937255 0.266667 0.266667
0.937255 0.266667 0.266667
0.937255 0.266667 0.266667
0.937255 0.266667 0.266667
0.937255 0.266667 0.266667
0.937255 0.266667 0.266667
0.937255 0.266667 0.266667
0.937255 0.266667 0.266667
0.937255 0.266667 0.266667
0.937255 0.266667 0.266667
0.937255 0.266667 0.266667
0.937255 0.266667 0.266667
0.937255 0.266667 0.266667
0.937255 0.266667 0.266667
0.937255 0.266667 0.266667
0.937255 0.266667 0.266667
0.937255 0.266667 0.266667
0.937255 0.266667 0.266667
0.937255 0.266667 0.266667
0.937255 0.266667 0.266667
0.388235 0.400000 0.945098
0.388235 0.400000 0.945098
0.388235 0.400000 0.945098
0.448627 0.000000 0.159606
0.825008 0.000000 0.118687
1.000000 0.000000 0.000000
1.000000 0.000000 0.000000
1.000000 0.000000 0.000000
0.937255 0.266667 0.266667
0.000000 0.004807 0.167040
0.010165 0.000000 0.164678
0.188691 0.000000 0.160886
0.436654 0.000000 0.148601
0.325488 0.442712 0.555528
1.000000 0.000000 0.000000
1.000000 0.000000 0.000000
1.000000 0.000000 0.000000
0.937255 0.266667 0.266667
0.000000 0.168944 0.149982
0.000000 0.159382 0.147419
0.143294 0.143294 0.143294
0.417002 0.081691 0.129840
0.808733 0.000000 0.080216
1.000000 0.000000 0.000000
1.000000 0.000000 0.000000
1.000000 0.000000 0.000000
0.937255 0.266667 0.266667
0.023529 0.713725 0.831373
0.004680 0.461592 0.229535
0.000000 0.391994 0.074144
0.348833 0.369330 0.055509
0.133333 0.772549 0.368627
0.850980 0.274510 0.937255
1.000000 0.000000 0.000000
1.000000 0.000000 0.000000
0.937255 0.266667 0.266667
0.000000 0.763086 0.000000
0.000000 0.760840 0.000000
0.000000 0.757270 0.000000
0.000000 0.746018 0.000000
0.666953 0.710112 0.000000
1.000000 0.584648 0.000000
1.000000 0.000000 0.000000
1.000000 0.000000 0.000000
0.937255 0.266667 0.266667
0.000000 1.000000 0.000000
0.000000 1.000000 0.000000
0.000000 1.000000 0.000000
0.000000 1.000000 0.000000
0.000000 1.000000 0.000000
1.000000 1.000000 0.000000
1.000000 1.000000 0.000000
1.000000 0.000000 0.000000
0.937255 0.266667 0.266667
0.000000 1.000000 0.000000
0.000000 1.000000 0.000000
0.000000 1.000000 0.000000
0.000000 1.000000 0.000000
0.000000 1.000000 0.000000
0.000000 1.000000 0.000000
1.000000 1.000000 0.000000
0.937255 0.266667 0.266667
0.937255 0.266667 0.266667
0.937255 0.266667 0.266667
0.937255 0.266667 0.266667
0.937255 0.266667 0.266667
0.937255 0.266667 0.266667
0.937255 0.266667 0.266667
0.937255 0.266667 0.266667
0.937255 0.266667 0.266667
0.937255 0.266667 0.266667
0.937255 0.266667 0.266667
0.937255 0.266667 0.266667
0.937255 0.266667 0.266667
0.937255 0.266667 0.266667
0.937255 0.266667 0.266667
0.937255 0.266667 0.266667
0.937255 0.266667 0.266667
0.937255 0.266667 0.266667
0.937255 0.266667 0.266667
0.937255 0.266667 0.266667
0.388235 0.400000 0.945098
0.388235 0.400000 0.945098
0.193990 0.000000 0.382621
0.439154 0.000000 0.376967
0.023529 0.713725 0.831373
1.000000 0.000000 0.297203
1.000000 0.000000 0.000000
1.000000 0.000000 0.000000
0.937255 0.266667 0.266667
0.000000 0.000000 0.380539
0.000000 0.000000 0.379394
0.167122 0.000000 0.377575
0.426916 0.000000 0.371847
0.813746 0.000000 0.353624
1.000000 0.000000 0.290775
1.000000 0.000000 0.000000
1.000000 0.000000 0.000000
0.937255 0.266667 0.266667
0.000000 0.094717 0.372478
0.000000 0.079904 0.371309
0.116042 0.055900 0.369452
0.406798 0.000000 0.363600
0.803662 0.000000 0.344961
1.000000 0.000000 0.280325
1.000000 0.000000 0.000000
1.000000 0.000000 0.000000
0.937255 0.266667 0.266667
0.000000 0.373554 0.346183
0.000000 0.368850 0.344929
0.000000 0.361283 0.342935
0.336644 0.336644 0.336644
0.464472 0.499720 0.341576
0.914080 0.158274 0.644225
1.000000 0.000000 0.000000
1.000000 0.000000 0.000000
0.937255 0.266667 0.266667
0.000000 0.748079 0.249572
0.000000 0.745785 0.247879
0.000000 0.742136 0.245178
0.000000 0.730632 0.236582
0.660702 0.693870 0.208209
1.000000 0.564576 0.087851
1.000000 0.000000 0.000000
1.000000 0.000000 0.000000
0.937255 0.266667 0.266667
0.000000 1.000000 0.000000
0.000000 1.000000 0.000000
0.000000 1.000000 0.000000
0.000000 1.000000 0.000000
0.000000 1.000000 0.000000
1.000000 1.000000 0.000000
1.000000 1.000000 0.000000
1.000000 0.000000 0.000000
0.937255 0.266667 0.266667
0.000000 1.000000 0.000000
0.000000 1.000000 0.000000
0.000000 1.000000 0.000000
0.000000 1.000000 0.000000
0.000000 1.000000 0.000000
0.000000 1.000000 0.000000
1.000000 1.000000 0.000000
0.937255 0.266667 0.266667
0.937255 0.266667 0.266667
0.937255 0.266667 0.266667
0.937255 0.266667 0.266667
0.937255 0.266667 0.266667
0.937255 0.266667 0.266667
0.937255 0.266667 0.266667
0.937255 0.266667 0.266667
0.937255 0.266667 0.266667
0.937255 0.266667 0.266667
0.937255 0.266667 0.266667
0.937255 0.266667 0.266667
0.937255 0.266667 0.266667
0.937255 0.266667 0.266667
0.937255 0.266667 0.266667
0.937255 0.266667 0.266667
0.937255 0.266667 0.266667
0.937255 0.266667 0.266667
0.937255 0.266667 0.266667
0.937255 0.266667 0.266667
0.000000 0.000000 0.718738
0.000000 0.000000 0.718142
0.121031 0.000000 0.717198
0.302178 0.306099 0.864628
0.804538 0.000000 0.705058
1.000000 0.000000 0.675889
1.000000 0.000000 0.576105
1.000000 0.000000 0.000000
0.937255 0.266667 0.266667
0.000000 0.000000 0.716107
0.000000 0.000000 0.715509
0.080289 0.000000 0.714562
0.395402 0.000000 0.711597
0.798104 0.000000 0.702373
1.000000 0.000000 0.673080
1.000000 0.000000 0.572777
1.000000 0.000000 0.000000
0.937255 0.266667 0.266667
0.000000 0.000000 0.711923
0.000000 0.000000 0.711321
0.007657 0.000000 0.710367
0.373628 0.000000 0.707384
0.787802 0.000000 0.698100
1.000000 0.000000 0.668606
1.000000 0.000000 0.567467
1.000000 0.000000 0.000000
0.937255 0.266667 0.266667
0.000000 0.262427 0.698698
0.000000 0.255867 0.698084
0.000000 0.245167 0.697111
0.296135 0.208836 0.694067
0.754691 0.035274 0.684589
1.000000 0.000000 0.654446
1.000000 0.000000 0.550566
1.000000 0.000000 0.000000
0.937255 0.266667 0.266667
0.000000 0.699622 0.656128
0.000000 0.697156 0.655472
0.000000 0.693232 0.654431
0.850980 0.274510 0.937255
0.641020 0.641020 0.641020
1.000000 0.497422 0.608585
1.000000 0.000000 0.494707
1.000000 0.000000 0.000000
0.937255 0.266667 0.266667
0.000000 1.000000 0.501224
0.000000 1.000000 0.500354
0.000000 1.000000 0.498975
0.000000 1.000000 0.494647
0.000000 1.000000 0.481052
1.000000 1.000000 0.436454
1.000000 1.000000 0.255564
1.000000 0.000000 0.000000
0.937255 0.266667 0.266667
0.000000 1.000000 0.000000
0.000000 1.000000 0.000000
0.000000 1.000000 0.000000
0.000000 1.000000 0.000000
0.000000 1.000000 0.000000
0.000000 1.000000 0.000000
1.000000 1.000000 0.000000
0.937255 0.266667 0.266667
0.937255 0.266667 0.266667
0.937255 0.266667 0.266667
0.937255 0.266667 0.266667
0.937255 0.266667 0.266667
0.937255 0.266667 0.266667
0.937255 0.266667 0.266667
0.937255 0.266667 0.266667
0.937255 0.266667 0.266667
0.937255 0.266667 0.266667
0.937255 0.266667 0.266667
0.937255 0.266667 0.266667
0.937255 0.266667 0.266667
0.937255 0.266667 0.266667
0.937255 0.266667 0.266667
0.937255 0.266667 0.266667
0.937255 0.266667 0.266667
0.937255 0.266667 0.266667
0.937255 0.266667 0.266667
0.937255 0.266667 0.266667
0.000000 0.000000 1.000000
0.001773 0.053784 0.987293
0.023529 0.713725 0.831373
0.295734 0.000000 1.000000
0.306723 0.556915 0.544856
0.850980 0.274510 0.937255
1.000000 0.000000 1.000000
1.000000 0.000000 1.000000
0.937255 0.266667 0.266667
0.012301 0.373117 0.911846
0.000000 0.000000 1.000000
0.000000 0.000000 1.000000
0.277600 0.000000 1.000000
0.133333 0.772549 0.368627
0.857913 0.261739 0.940174
1.000000 0.000000 1.000000
1.000000 0.000000 1.000000
0.937255 0.266667 0.266667
0.000000 0.000000 1.000000
0.000000 0.000000 1.000000
0.000000 0.000000 1.000000
0.246486 0.000000 1.000000
0.736564 0.000000 1.000000
1.000000 0.000000 1.000000
1.000000 0.000000 1.000000
1.000000 0.000000 1.000000
0.937255 0.266667 0.266667
0.133333 0.772549 0.368627
0.133124 0.771335 0.369619
0.000000 0.000000 1.000000
0.113975 0.000000 1.000000
0.700834 0.000000 1.000000
1.000000 0.000000 1.000000
1.000000 0.000000 1.000000
1.000000 0.000000 1.000000
0.937255 0.266667 0.266667
0.000000 0.520540 1.000000
0.000000 0.517171 1.000000
0.000000 0.511791 1.000000
0.000000 0.494629 1.000000
0.575865 0.437434 1.000000
1.000000 0.173237 1.000000
1.000000 0.000000 1.000000
1.000000 0.000000 0.989626
0.937255 0.266667 0.266667
0.000000 1.000000 1.000000
0.000000 1.000000 1.000000
0.000000 1.000000 1.000000
0.000000 1.000000 1.000000
0.000000 1.000000 1.000000
1.000000 1.000000 1.000000
1.000000 0.902556 1.000000
1.000000 0.000000 0.898115
0.937255 0.266667 0.266667
0.000000 1.000000 0.908574
0.000000 1.000000 0.908113
0.000000 1.000000 0.907382
0.000000 1.000000 0.905098
0.000000 1.000000 0.898016
0.000000 1.000000 0.875784
1.000000 1.000000 0.802974
0.937255 0.266667 0.266667
0.937255 0.266667 0.266667
0.937255 0.266667 0.266667
0.937255 0.266667 0.266667
0.937255 0.266667 0.266667
0.937255 0.266667 0.266667
0.937255 0.266667 0.266667
0.937255 0.266667 0.266667
0.937255 0.266667 0.266667
0.937255 0.266667 0.266667
0.937255 0.266667 0.266667
0.937255 0.266667 0.266667
0.937255 0.266667 0.266667
0.937255 0.266667 0.266667
0.937255 0.266667 0.266667
0.937255 0.266667 0.266667
0.937255 0.266667 0.266667
0.937255 0.266667 0.266667
0.937255 0.266667 0.266667
0.937255 0.266667 0.266667
0.000000 0.000000 1.000000
0.000000 0.000000 1.000000
0.000000 0.000000 1.000000
0.000000 0.000000 1.000000
0.850980 0.274510 0.937255
1.000000 0.000000 1.000000
1.000000 0.000000 1.000000
1.000000 0.000000 1.000000
0.937255 0.266667 0.266667
0.000000 0.000000 1.000000
0.000000 0.000000 1.000000
0.000000 0.000000 1.000000
0.000000 0.000000 1.000000
0.562308 0.000455 0.999896
1.000000 0.000000 1.000000
1.000000 0.000000 1.000000
1.000000 0.000000 1.000000
0.937255 0.266667 0.266667
0.000000 0.000000 1.000000
0.000000 0.000000 1.000000
0.000000 0.000000 1.000000
0.458927 0.148041 0.966162
0.546756 0.000000 1.000000
1.000000 0.000000 1.000000
1.000000 0.000000 1.000000
1.000000 0.000000 1.000000
0.937255 0.266667 0.266667
0.217833 0.070269 0.983939
0.000000 0.000000 1.000000
0.000000 0.000000 1.000000
0.000000 0.000000 1.000000
0.496719 0.000000 1.000000
1.000000 0.000000 1.000000
1.000000 0.000000 1.000000
1.000000 0.000000 1.000000
0.937255 0.266667 0.266667
0.000000 0.000000 1.000000
0.000000 0.000000 1.000000
0.000000 0.000000 1.000000
0.000000 0.000000 1.000000
0.293107 0.000000 1.000000
1.000000 0.000000 1.000000
1.000000 0.000000 1.000000
1.000000 0.000000 1.000000
0.937255 0.266667 0.266667
0.000000 0.939614 1.000000
0.000000 0.937826 1.000000
0.000000 0.934989 1.000000
0.000000 0.926078 1.000000
0.000000 0.897987 1.000000
1.000000 0.804573 1.000000
1.000000 0.382214 1.000000
1.000000 0.000000 1.000000
0.937255 0.266667 0.266667
0.000000 1.000000 1.000000
0.000000 1.000000 1.000000
0.000000 1.000000 1.000000
0.000000 1.000000 1.000000
0.000000 1.000000 1.000000
0.000000 1.000000 1.000000
1.000000 1.000000 1.000000
0.937255 0.266667 0.266667
0.937255 0.266667 0.266667
0.937255 0.266667 0.266667
0.937255 0.266667 0.266667
0.937255 0.266667 0.266667
0.937255 0.266667 0.266667
0.937255 0.266667 0.266667
0.937255 0.266667 0.266667
0.937255 0.266667 0.266667
0.937255 0.266667 0.266667
0.937255 0.266667 0.266667
0.937255 0.266667 0.266667
0.937255 0.266667 0.266667
0.937255 0.266667 0.266667
0.937255 0.266667 0.266667
0.937255 0.266667 0.266667
0.937255 0.266667 0.266667
0.937255 0.266667 0.266667
0.937255 0.266667 0.266667
0.937255 0.266667 0.266667
0.000000 0.000000 1.000000
0.000000 0.000000 1.000000
0.000000 0.000000 1.000000
0.000000 0.000000 1.000000
0.000000 0.000000 1.000000
1.000000 0.000000 1.000000
1.000000 0.000000 1.000000
1.000000 0.000000 1.000000
0.937255 0.266667 0.266667
0.000000 0.000000 1.000000
0.000000 0.000000 1.000000
0.000000 0.000000 1.000000
0.000000 0.000000 1.000000
0.000000 0.000000 1.000000
1.000000 0.000000 1.000000
1.000000 0.000000 1.000000
1.000000 0.000000 1.000000
0.937255 0.266667 0.266667
0.000000 0.000000 1.000000
0.000000 0.000000 1.000000
0.000000 0.000000 1.000000
0.000000 0.000000 1.000000
0.000000 0.000000 1.000000
1.000000 0.000000 1.000000
1.000000 0.000000 1.000000
1.000000 0.000000 1.000000
0.937255 0.266667 0.266667
0.000000 0.000000 1.000000
0.000000 0.000000 1.000000
0.000000 0.000000 1.000000
0.000000 0.000000 1.000000
0.000000 0.000000 1.000000
0.983377 0.000000 1.000000
1.000000 0.000000 1.000000
1.000000 0.000000 1.000000
0.937255 0.266667 0.266667
0.000000 0.000000 1.000000
0.000000 0.000000 1.000000
0.000000 0.000000 1.000000
0.000000 0.000000 1.000000
0.000000 0.000000 1.000000
0.901407 0.000000 1.000000
1.000000 0.000000 1.000000
1.000000 0.000000 1.000000
0.937255 0.266667 0.266667
0.000000 0.000000 1.000000
0.000000 0.000000 1.000000
0.000000 0.000000 1.000000
0.000000 0.000000 1.000000
0.000000 0.000000 1.000000
0.571014 0.000000 1.000000
1.000000 0.000000 1.000000
0.937255 0.266667 0.266667
0.937255 0.266667 0.266667
0.000000 1.000000 1.000000
0.000000 1.000000 1.000000
0.000000 1.000000 1.000000
0.000000 1.000000 1.000000
0.000000 1.000000 1.000000
0.000000 1.000000 1.000000
0.937255 0.266667 0.266667
0.937255 0.266667 0.266667
0.937255 0.266667 0.266667
0.937255 0.266667 0.266667
0.937255 0.266667 0.266667
0.937255 0.266667 0.266667
0.937255 0.266667 0.266667
0.937255 0.266667 0.266667
0.937255 0.266667 0.266667
0.937255 0.266667 0.266667
0.937255 0.266667 0.266667
0.937255 0.266667 0.266667
0.937255 0.266667 0.266667
0.937255 0.266667 0.266667
0.937255 0.266667 0.266667
0.937255 0.266667 0.266667
0.937255 0.266667 0.266667
0.937255 0.266667 0.266667
0.937255 0.266667 0.266667
0.937255 0.266667 0.266667
0.937255 0.266667 0.266667
0.000000 0.000000 1.000000
0.000000 0.000000 1.000000
0.000000 0.000000 1.000000
0.000000 0.000000 1.000000
0.000000 0.000000 1.000000
0.000000 0.000000 1.000000
1.000000 0.000000 1.000000
0.937255 0.266667 0.266667
0.937255 0.266667 0.266667
0.000000 0.000000 1.000000
0.000000 0.000000 1.000000
0.000000 0.000000 1.000000
0.000000 0.000000 1.000000
0.000000 0.000000 1.000000
0.000000 0.000000 1.000000
1.000000 0.000000 1.000000
0.937255 0.266667 0.266667
0.937255 0.266667 0.266667
0.000000 0.000000 1.000000
0.000000 0.000000 1.000000
0.000000 0.000000 1.000000
0.000000 0.000000 1.000000
0.000000 0.000000 1.000000
0.000000 0.000000 1.000000
1.000000 0.000000 1.000000
0.937255 0.266667 0.266667
0.937255 0.266667 0.266667
0.000000 0.000000 1.000000
0.000000 0.000000 1.000000
0.000000 0.000000 1.000000
0.000000 0.000000 1.000000
0.000000 0.000000 1.000000
0.000000 0.000000 1.000000
1.000000 0.000000 1.000000
0.937255 0.266667 0.266667
0.937255 0.266667 0.266667
0.000000 0.000000 1.000000
0.000000 0.000000 1.000000
0.000000 0.000000 1.000000
0.000000 0.000000 1.000000
0.000000 0.000000 1.000000
0.000000 0.000000 1.000000
1.000000 0.000000 1.000000
0.937255 0.266667 0.266667
0.937255 0.266667 0.266667
0.000000 0.000000 1.000000
0.000000 0.000000 1.000000
0.000000 0.000000 1.000000
0.000000 0.000000 1.000000
0.000000 0.000000 1.000000
0.000000 0.000000 1.000000
0.937255 0.266667 0.266667
0.937255 0.266667 0.266667
0.937255 0.266667 0.266667
0.937255 0.266667 0.266667
0.937255 0.266667 0.266667
0.937255 0.266667 0.266667
0.937255 0.266667 0.266667
0.937255 0.266667 0.266667
0.937255 0.266667 0.266667
0.937255 0.266667 0.266667
0.937255 0.266667 0.266667
0.937255 0.266667 0.266667
0.937255 0.266667 0.266667
0.937255 0.266667 0.266667
0.937255 0.266667 0.266667
0.937255 0.266667 0.266667
0.937255 0.266667 0.266667
0.937255 0.266667 0.266667
0.937255 0.266667 0.266667
0.937255 0.266667 0.266667
0.937255 0.266667 0.266667
0.937255 0.266667 0.266667
0.937255 0.266667 0.266667
0.937255 0.266667 0.266667
0.937255 0.266667 0.266667
0.937255 0.266667 0.266667
0.937255 0.266667 0.266667
0.937255 0.266667 0.266667
0.937255 0.266667 0.266667
0.968627 0.633333 0.633333
