luts/HybridMonitor_clog2.cube
# Hybrid Monitor LUT
# Profile  : Canon C-Log2
# Cameras  : C70, C300 III, C500 II, EOS R5 C, EOS C70
# Input    : Canon C-Log2 log / Cinema Gamut
# Output   : Rec.709 base + narrow exposure tracer overlays
# Generator: hybrid_monitor_lut.py
#
# Base transform pipeline:
#   Log decode  →  Cinema Gamut → Rec.709 matrix  →  Rec.709 OETF
#
# Overlay zones (thin tracers over Rec.709 base):
#   #ef4444     white_clip      log 0.700 – 1.000
#   #eab308     +2 stops        log 0.534 – 0.544
#   #d946ef     +1 stops        log 0.463 – 0.473
#   #22c55e     +0 stops        log 0.393 – 0.403
#   #06b6d4     -1 stops        log 0.327 – 0.336
#   #3b82f6     -2 stops        log 0.265 – 0.273
#   #6366f1     black_clip      log 0.000 – 0.100
#   All other levels → standard Rec.709 color (no tracer)
#
TITLE "HybridMonitor Canon C-Log2"
LUT_3D_SIZE 5
DOMAIN_MIN 0.0 0.0 0.0
DOMAIN_MAX 1.0 1.0 1.0
0.388235 0.400000 0.945098
0.388235 0.400000 0.945098
0.023529 0.713725 0.831373
1.000000 0.000000 0.000000
0.937255 0.266667 0.266667
0.000000 0.213303 0.000000
0.165679 0.188259 0.000000
0.959444 0.000000 0.000000
1.000000 0.000000 0.000000
0.937255 0.266667 0.266667
0.850980 0.274510 0.937255
0.850980 0.274510 0.937255
0.744529 0.799952 0.000000
1.000000 0.000000 0.000000
0.937255 0.266667 0.266667
0.937255 0.266667 0.266667
0.937255 0.266667 0.266667
0.937255 0.266667 0.266667
0.937255 0.266667 0.266667
0.937255 0.266667 0.266667
0.937255 0.266667 0.266667
0.937255 0.266667 0.266667
0.937255 0.266667 0.266667
0.937255 0.266667 0.266667
0.937255 0.266667 0.266667
0.388235 0.400000 0.945098
0.388235 0.400000 0.945098
0.976939 0.000000 0.177051
1.000000 0.000000 0.000000
0.937255 0.266667 0.266667
0.000000 0.176704 0.150685
0.147022 0.147022 0.147022
0.956156 0.000000 0.110451
1.000000 0.000000 0.000000
0.937255 0.266667 0.266667
0.850980 0.274510 0.937255
0.850980 0.274510 0.937255
0.740185 0.790553 0.000000
1.000000 0.000000 0.000000
0.937255 0.266667 0.266667
0.937255 0.266667 0.266667
0.937255 0.266667 0.266667
0.937255 0.266667 0.266667
0.937255 0.266667 0.266667
0.937255 0.266667 0.266667
0.937255 0.266667 0.266667
0.937255 0.266667 0.266667
0.937255 0.266667 0.266667
0.937255 0.266667 0.266667
0.937255 0.266667 0.266667
0.000000 0.000000 0.847203
0.087145 0.000000 0.846490
0.947485 0.000000 0.840041
1.000000 0.000000 0.766193
0.937255 0.266667 0.266667
0.000000 0.000000 0.834458
0.000000 0.000000 0.833734
0.925968 0.000000 0.827176
1.000000 0.000000 0.751950
0.937255 0.266667 0.266667
0.000000 0.771436 0.708467
0.000000 0.764596 0.707602
0.699757 0.699757 0.699757
1.000000 0.000000 0.607623
0.937255 0.266667 0.266667
0.937255 0.266667 0.266667
0.937255 0.266667 0.266667
0.937255 0.266667 0.266667
0.937255 0.266667 0.266667
0.937255 0.266667 0.266667
0.937255 0.266667 0.266667
0.937255 0.266667 0.266667
0.937255 0.266667 0.266667
0.937255 0.266667 0.266667
0.937255 0.266667 0.266667
0.236848 0.076403 0.982537
0.000000 0.000000 1.000000
0.517989 0.000000 1.000000
1.000000 0.000000 1.000000
0.937255 0.266667 0.266667
0.000000 0.000000 1.000000
0.000000 0.000000 1.000000
0.475701 0.000000 1.000000
1.000000 0.000000 1.000000
0.937255 0.266667 0.266667
0.917647 0.701961 0.031373
0.654476 0.500646 0.309164
0.000000 0.000000 1.000000
1.000000 0.000000 1.000000
0.937255 0.266667 0.266667
0.937255 0.266667 0.266667
0.937255 0.266667 0.266667
0.937255 0.266667 0.266667
0.937255 0.266667 0.266667
0.937255 0.266667 0.266667
0.937255 0.266667 0.266667
0.937255 0.266667 0.266667
0.937255 0.266667 0.266667
0.937255 0.266667 0.266667
0.937255 0.266667 0.266667
0.937255 0.266667 0.266667
0.937255 0.266667 0.266667
0.937255 0.266667 0.266667
0.937255 0.266667 0.266667
0.937255 0.266667 0.266667
0.937255 0.266667 0.266667
0.937255 0.266667 0.266667
0.937255 0.266667 0.266667
0.937255 0.266667 0.266667
0.937255 0.266667 0.266667
0.937255 0.266667 0.266667
0.937255 0.266667 0.266667
0.937255 0.266667 0.266667
0.937255 0.266667 0.266667
0.937255 0.266667 0.266667
0.937255 0.266667 0.266667
0.937255 0.266667 0.266667
0.937255 0.266667 0.266667
0.937255 0.266667 0.266667
0.937255 0.266667 0.266667
0.937255 0.266667 0.266667
0.937255 0.266667 0.266667
0.937255 0.266667 0.266667
0.937255 0.266667 0.266667
0.968627 0.633333 0.633333
