luts/HybridMonitor_logc3.cube
# Hybrid Monitor LUT
# Profile  : ARRI LogC3 (EI800)
# Cameras  : Alexa Mini, Alexa Mini LF, Alexa 35, Amira
# Input    : ARRI LogC3 (EI800) log / ARRI Wide Gamut 3
# Output   : Rec.709 base + narrow exposure tracer overlays
# Generator: hybrid_monitor_lut.py
#
# Base transform pipeline:
#   Log decode  →  ARRI Wide Gamut 3 → Rec.709 matrix  →  Rec.709 OETF
#
# Overlay zones (thin tracers over Rec.709 base):
#   #ef4444     white_clip      log 0.750 – 1.000
#   #eab308     +2 stops        log 0.531 – 0.541
#   #d946ef     +1 stops        log 0.458 – 0.468
#   #22c55e     +0 stops        log 0.386 – 0.396
#   #06b6d4     -1 stops        log 0.317 – 0.327
#   #3b82f6     -2 stops        log 0.253 – 0.261
#   #6366f1     black_clip      log 0.000 – 0.100
#   All other levels → standard Rec.709 color (no tracer)
#
TITLE "HybridMonitor ARRI LogC3 (EI800)"
LUT_3D_SIZE 5
DOMAIN_MIN 0.0 0.0 0.0
DOMAIN_MAX 1.0 1.0 1.0
0.388235 0.400000 0.945098
0.388235 0.400000 0.945098
0.893952 0.018926 0.022045
1.000000 0.000000 0.000000
0.937255 0.266667 0.266667
0.000000 0.213630 0.000000
0.176581 0.203904 0.000000
0.900293 0.105184 0.000000
1.000000 0.000000 0.000000
0.937255 0.266667 0.266667
0.850980 0.274510 0.937255
0.764060 0.331152 0.841522
0.744857 0.808526 0.000000
1.000000 0.551364 0.000000
0.937255 0.266667 0.266667
0.000000 1.000000 0.000000
0.000000 1.000000 0.000000
0.000000 1.000000 0.000000
1.000000 1.000000 0.000000
0.937255 0.266667 0.266667
0.937255 0.266667 0.266667
0.937255 0.266667 0.266667
0.937255 0.266667 0.266667
0.937255 0.266667 0.266667
0.937255 0.266667 0.266667
0.388235 0.400000 0.945098
0.388235 0.400000 0.945098
0.915090 0.000000 0.172988
1.000000 0.000000 0.000000
0.937255 0.266667 0.266667
0.000000 0.175051 0.167053
0.163550 0.163550 0.163550
0.897667 0.036985 0.133073
1.000000 0.000000 0.000000
0.937255 0.266667 0.266667
0.850980 0.274510 0.937255
0.293662 0.631464 0.323434
0.741626 0.798758 0.000000
1.000000 0.536578 0.000000
0.937255 0.266667 0.266667
0.000000 1.000000 0.000000
0.000000 1.000000 0.000000
0.000000 1.000000 0.000000
1.000000 1.000000 0.000000
0.937255 0.266667 0.266667
0.937255 0.266667 0.266667
0.937255 0.266667 0.266667
0.937255 0.266667 0.266667
0.937255 0.266667 0.266667
0.937255 0.266667 0.266667
0.000000 0.000000 0.803206
0.144923 0.000000 0.802424
0.894169 0.000000 0.796123
1.000000 0.000000 0.728016
0.937255 0.266667 0.266667
0.000000 0.000000 0.794757
0.016462 0.000000 0.793966
0.133333 0.772549 0.368627
1.000000 0.000000 0.718607
0.937255 0.266667 0.266667
0.000000 0.741344 0.723079
0.000000 0.738489 0.722203
0.715135 0.715135 0.715135
1.000000 0.398127 0.637728
0.937255 0.266667 0.266667
0.000000 1.000000 0.000000
0.000000 1.000000 0.000000
0.000000 1.000000 0.000000
1.000000 1.000000 0.000000
0.937255 0.266667 0.266667
0.937255 0.266667 0.266667
0.937255 0.266667 0.266667
0.937255 0.266667 0.266667
0.937255 0.266667 0.266667
0.937255 0.266667 0.266667
0.850980 0.274510 0.937255
0.000000 0.000000 1.000000
0.636664 0.000000 1.000000
1.000000 0.000000 1.000000
0.937255 0.266667 0.266667
0.000000 0.000000 1.000000
0.000000 0.000000 1.000000
0.610578 0.000000 1.000000
1.000000 0.000000 1.000000
0.937255 0.266667 0.266667
0.788615 0.603257 0.167573
0.068818 0.052643 0.927359
0.331706 0.000000 1.000000
1.000000 0.000000 1.000000
0.937255 0.266667 0.266667
0.000000 1.000000 1.000000
0.000000 1.000000 1.000000
0.000000 1.000000 1.000000
0.968627 0.633333 0.633333
0.937255 0.266667 0.266667
0.937255 0.266667 0.266667
0.937255 0.266667 0.266667
0.937255 0.266667 0.266667
0.937255 0.266667 0.266667
0.937255 0.266667 0.266667
0.000000 0.000000 1.000000
0.000000 0.000000 1.000000
0.000000 0.000000 1.000000
1.000000 0.000000 1.000000
0.937255 0.266667 0.266667
0.000000 0.000000 1.000000
0.000000 0.000000 1.000000
0.000000 0.000000 1.000000
1.000000 0.000000 1.000000
0.937255 0.266667 0.266667
0.000000 0.000000 1.000000
0.000000 0.000000 1.000000
0.000000 0.000000 1.000000
0.937255 0.266667 0.266667
0.937255 0.266667 0.266667
0.937255 0.266667 0.266667
0.937255 0.266667 0.266667
0.937255 0.266667 0.266667
0.937255 0.266667 0.266667
0.937255 0.266667 0.266667
0.937255 0.266667 0.266667
0.937255 0.266667 0.266667
0.937255 0.266667 0.266667
0.937255 0.266667 0.266667
0.968627 0.633333 0.633333
