luts/HybridMonitor_flog2.cube
# Hybrid Monitor LUT
# Profile  : Fuji F-Log2
# Cameras  : X-H2S, X-H2, GFX100S II
# Input    : Fuji F-Log2 log / F-Gamut
# Output   : Rec.709 base + narrow exposure tracer overlays
# Generator: hybrid_monitor_lut.py
#
# Base transform pipeline:
#   Log decode  →  F-Gamut → Rec.709 matrix  →  Rec.709 OETF
#
# Overlay zones (thin tracers over Rec.709 base):
#   #ef4444     white_clip      log 0.600 – 1.000
#   #eab308     +2 stops        log 0.529 – 0.539
#   #d946ef     +1 stops        log 0.457 – 0.467
#   #22c55e     +0 stops        log 0.386 – 0.396
#   #06b6d4     -1 stops        log 0.319 – 0.328
#   #3b82f6     -2 stops        log 0.257 – 0.265
#   #6366f1     black_clip      log 0.000 – 0.100
#   All other levels → standard Rec.709 color (no tracer)
#
TITLE "HybridMonitor Fuji F-Log2"
LUT_3D_SIZE 5
DOMAIN_MIN 0.0 0.0 0.0
DOMAIN_MAX 1.0 1.0 1.0
0.388235 0.400000 0.945098
0.388235 0.400000 0.945098
0.934847 0.000000 0.000000
1.000000 0.000000 0.000000
0.937255 0.266667 0.266667
0.000000 0.175870 0.000000
0.167659 0.158481 0.000000
0.919075 0.000000 0.000000
1.000000 0.000000 0.000000
0.937255 0.266667 0.266667
0.850980 0.274510 0.937255
0.124290 0.693460 0.136891
0.747826 0.724078 0.000000
0.937255 0.266667 0.266667
0.937255 0.266667 0.266667
0.937255 0.266667 0.266667
0.937255 0.266667 0.266667
0.937255 0.266667 0.266667
0.937255 0.266667 0.266667
0.937255 0.266667 0.266667
0.937255 0.266667 0.266667
0.937255 0.266667 0.266667
0.937255 0.266667 0.266667
0.937255 0.266667 0.266667
0.937255 0.266667 0.266667
0.388235 0.400000 0.945098
0.230249 0.000000 0.171489
0.932908 0.000000 0.146018
1.000000 0.000000 0.000000
0.937255 0.266667 0.266667
0.000000 0.174747 0.159901
0.157263 0.157263 0.157263
0.917099 0.000000 0.129828
1.000000 0.000000 0.000000
0.937255 0.266667 0.266667
0.832226 0.285406 0.916599
0.000000 0.764838 0.000000
0.745349 0.723785 0.000000
0.937255 0.266667 0.266667
0.937255 0.266667 0.266667
0.937255 0.266667 0.266667
0.937255 0.266667 0.266667
0.937255 0.266667 0.266667
0.937255 0.266667 0.266667
0.937255 0.266667 0.266667
0.937255 0.266667 0.266667
0.937255 0.266667 0.266667
0.937255 0.266667 0.266667
0.937255 0.266667 0.266667
0.937255 0.266667 0.266667
0.000000 0.000000 0.764235
0.139489 0.000000 0.763633
0.913932 0.000000 0.757789
1.000000 0.000000 0.693521
0.937255 0.266667 0.266667
0.000000 0.163583 0.760893
0.018961 0.145111 0.760288
0.133333 0.772549 0.368627
1.000000 0.000000 0.689809
0.937255 0.266667 0.266667
0.000000 0.766289 0.727741
0.000000 0.762161 0.727106
0.720942 0.720942 0.720942
0.937255 0.266667 0.266667
0.937255 0.266667 0.266667
0.937255 0.266667 0.266667
0.937255 0.266667 0.266667
0.937255 0.266667 0.266667
0.937255 0.266667 0.266667
0.937255 0.266667 0.266667
0.937255 0.266667 0.266667
0.937255 0.266667 0.266667
0.937255 0.266667 0.266667
0.937255 0.266667 0.266667
0.937255 0.266667 0.266667
0.000000 0.000000 1.000000
0.000000 0.000000 1.000000
0.681204 0.000000 1.000000
0.937255 0.266667 0.266667
0.937255 0.266667 0.266667
0.000000 0.000000 1.000000
0.000000 0.000000 1.000000
0.658769 0.000000 1.000000
0.937255 0.266667 0.266667
0.937255 0.266667 0.266667
0.000000 0.737841 1.000000
0.000000 0.733540 1.000000
0.375055 0.690479 1.000000
0.937255 0.266667 0.266667
0.937255 0.266667 0.266667
0.937255 0.266667 0.266667
0.937255 0.266667 0.266667
0.937255 0.266667 0.266667
0.937255 0.266667 0.266667
0.937255 0.266667 0.266667
0.937255 0.266667 0.266667
0.937255 0.266667 0.266667
0.937255 0.266667 0.266667
0.937255 0.266667 0.266667
0.937255 0.266667 0.266667
0.937255 0.266667 0.266667
0.937255 0.266667 0.266667
0.937255 0.266667 0.266667
0.937255 0.266667 0.266667
0.937255 0.266667 0.266667
0.937255 0.266667 0.266667
0.937255 0.266667 0.266667
0.937255 0.266667 0.266667
0.937255 0.266667 0.266667
0.937255 0.266667 0.266667
0.937255 0.266667 0.266667
0.937255 0.266667 0.266667
0.937255 0.266667 0.266667
0.937255 0.266667 0.266667
0.937255 0.266667 0.266667
0.937255 0.266667 0.266667
0.937255 0.266667 0.266667
0.937255 0.266667 0.266667
0.937255 0.266667 0.266667
0.937255 0.266667 0.266667
0.937255 0.266667 0.266667
0.937255 0.266667 0.266667
0.937255 0.266667 0.266667
0.937255 0.266667 0.266667
0.968627 0.633333 0.633333
