luts/HybridMonitor_vlog.cube
# Hybrid Monitor LUT
# Profile  : Panasonic V-Log L
# Cameras  : GH5, GH6, S5, S5II, S1, BGH1, AU-EVA1
# Input    : Panasonic V-Log L log / V-Gamut
# Output   : Rec.709 base + narrow exposure tracer overlays
# Generator: hybrid_monitor_lut.py
#
# Base transform pipeline:
#   Log decode  →  V-Gamut → Rec.709 matrix  →  Rec.709 OETF
#
# Overlay zones (thin tracers over Rec.709 base):
#   #ef4444     white_clip      log 0.800 – 1.010
#   #eab308     +2 stops        log 0.560 – 0.570
#   #d946ef     +1 stops        log 0.489 – 0.499
#   #22c55e     +0 stops        log 0.418 – 0.428
#   #06b6d4     -1 stops        log 0.351 – 0.360
#   #3b82f6     -2 stops        log 0.287 – 0.296
#   #6366f1     black_clip      log 0.000 – 0.130
#   All other levels → standard Rec.709 color (no tracer)
#
TITLE "HybridMonitor Panasonic V-Log L"
LUT_3D_SIZE 33
DOMAIN_MIN 0.0 0.0 0.0
DOMAIN_MAX 1.0 1.0 1.0
0.388235 0.400000 0.945098
0.388235 0.400000 0.945098
0.388235 0.400000 0.945098
0.388235 0.400000 0.945098
0.388235 0.400000 0.945098
0.388235 0.400000 0.945098
0.388235 0.400000 0.945098
0.388235 0.400000 0.945098
0.388235 0.400000 0.945098
0.388235 0.400000 0.945098
0.388235 0.400000 0.945098
0.388235 0.400000 0.945098
0.453984 0.000000 0.000000
0.532570 0.000000 0.000000
0.622543 0.000000 0.000000
0.696537 0.029904 0.056587
0.843358 0.000000 0.000000
0.023529 0.713725 0.831373
1.000000 0.000000 0.000000
0.133333 0.772549 0.368627
1.000000 0.000000 0.000000
0.850980 0.274510 0.937255
1.000000 0.000000 0.000000
1.000000 0.000000 0.000000
1.000000 0.000000 0.000000
1.000000 0.000000 0.000000
1.000000 0.000000 0.000000
1.000000 0.000000 0.000000
1.000000 0.000000 0.000000
1.000000 0.000000 0.000000
1.000000 0.000000 0.000000
0.937255 0.266667 0.266667
0.937255 0.266667 0.266667
0.388235 0.400000 0.945098
0.388235 0.400000 0.945098
0.388235 0.400000 0.945098
0.388235 0.400000 0.945098
0.388235 0.400000 0.945098
0.388235 0.400000 0.945098
0.388235 0.400000 0.945098
0.388235 0.400000 0.945098
0.388235 0.400000 0.945098
0.388235 0.400000 0.945098
0.388235 0.400000 0.945098
0.380114 0.000000 0.000000
0.449518 0.000000 0.000000
0.528777 0.000000 0.000000
0.619324 0.000000 0.000000
0.231373 0.509804 0.964706
0.841037 0.000000 0.000000
0.976199 0.000000 0.000000
1.000000 0.000000 0.000000
0.412222 0.523947 0.250005
1.000000 0.000000 0.000000
0.850980 0.274510 0.937255
1.000000 0.000000 0.000000
1.000000 0.000000 0.000000
1.000000 0.000000 0.000000
1.000000 0.000000 0.000000
1.000000 0.000000 0.000000
1.000000 0.000000 0.000000
1.000000 0.000000 0.000000
1.000000 0.000000 0.000000
1.000000 0.000000 0.000000
0.937255 0.266667 0.266667
0.937255 0.266667 0.266667
0.388235 0.400000 0.945098
0.388235 0.400000 0.945098
0.388235 0.400000 0.945098
0.388235 0.400000 0.945098
0.388235 0.400000 0.945098
0.388235 0.400000 0.945098
0.388235 0.400000 0.945098
0.388235 0.400000 0.945098
0.388235 0.400000 0.945098
0.388235 0.400000 0.945098
0.313005 0.000000 0.000000
0.374782 0.000000 0.000000
0.445006 0.000000 0.000000
0.524957 0.000000 0.000000
0.616086 0.000000 0.000000
0.720044 0.000000 0.000000
0.838710 0.000000 0.000000
0.974225 0.000000 0.000000
1.000000 0.000000 0.000000
1.000000 0.000000 0.000000
1.000000 0.000000 0.000000
0.850980 0.274510 0.937255
1.000000 0.000000 0.000000
1.000000 0.000000 0.000000
1.000000 0.000000 0.000000
1.000000 0.000000 0.000000
1.000000 0.000000 0.000000
1.000000 0.000000 0.000000
1.000000 0.000000 0.000000
1.000000 0.000000 0.000000
1.000000 0.000000 0.000000
0.937255 0.266667 0.266667
0.937255 0.266667 0.266667
0.388235 0.400000 0.945098
0.388235 0.400000 0.945098
0.388235 0.400000 0.945098
0.388235 0.400000 0.945098
0.388235 0.400000 0.945098
0.388235 0.400000 0.945098
0.388235 0.400000 0.945098
0.388235 0.400000 0.945098
0.388235 0.400000 0.945098
0.250867 0.000000 0.000000
0.306575 0.000000 0.000000
0.369375 0.000000 0.000000
0.440448 0.000000 0.000000
0.521107 0.000000 0.000000
0.612831 0.000000 0.000000
0.717288 0.000000 0.000000
0.836375 0.000000 0.000000
0.972247 0.000000 0.000000
1.000000 0.000000 0.000000
1.000000 0.000000 0.000000
1.000000 0.000000 0.000000
0.850980 0.274510 0.937255
1.000000 0.000000 0.000000
1.000000 0.000000 0.000000
1.000000 0.000000 0.000000
1.000000 0.000000 0.000000
1.000000 0.000000 0.000000
1.000000 0.000000 0.000000
1.000000 0.000000 0.000000
1.000000 0.000000 0.000000
1.000000 0.000000 0.000000
0.937255 0.266667 0.266667
0.937255 0.266667 0.266667
0.388235 0.400000 0.945098
0.388235 0.400000 0.945098
0.388235 0.400000 0.945098
0.388235 0.400000 0.945098
0.388235 0.400000 0.945098
0.388235 0.400000 0.945098
0.343381 0.338308 0.797463
0.144745 0.000000 0.000000
0.191612 0.000000 0.000000
0.242981 0.000000 0.000000
0.300017 0.000000 0.000000
0.363890 0.000000 0.000000
0.435842 0.000000 0.000000
0.517228 0.000000 0.000000
0.582093 0.037022 0.070057
0.714521 0.000000 0.000000
0.834034 0.000000 0.000000
0.970263 0.000000 0.000000
1.000000 0.000000 0.000000
1.000000 0.000000 0.000000
1.000000 0.000000 0.000000
0.850980 0.274510 0.937255
1.000000 0.000000 0.000000
1.000000 0.000000 0.000000
1.000000 0.000000 0.000000
1.000000 0.000000 0.000000
1.000000 0.000000 0.000000
1.000000 0.000000 0.000000
1.000000 0.000000 0.000000
1.000000 0.000000 0.000000
1.000000 0.000000 0.000000
0.937255 0.266667 0.266667
0.937255 0.266667 0.266667
0.388235 0.400000 0.945098
0.388235 0.400000 0.945098
0.388235 0.400000 0.945098
0.000000 0.050713 0.000000
0.000000 0.046442 0.000000
0.039033 0.042171 0.000000
0.084906 0.037871 0.000000
0.132258 0.032577 0.000000
0.181646 0.025446 0.000000
0.234866 0.015840 0.000000
0.293325 0.002900 0.000000
0.358325 0.000000 0.000000
0.431187 0.000000 0.000000
0.513319 0.000000 0.000000
0.231373 0.509804 0.964706
0.711742 0.000000 0.000000
0.831685 0.000000 0.000000
0.968276 0.000000 0.000000
1.000000 0.000000 0.000000
1.000000 0.000000 0.000000
1.000000 0.000000 0.000000
0.850980 0.274510 0.937255
1.000000 0.000000 0.000000
1.000000 0.000000 0.000000
1.000000 0.000000 0.000000
1.000000 0.000000 0.000000
1.000000 0.000000 0.000000
1.000000 0.000000 0.000000
1.000000 0.000000 0.000000
1.000000 0.000000 0.000000
1.000000 0.000000 0.000000
0.937255 0.266667 0.266667
0.937255 0.266667 0.266667
0.000000 0.096059 0.000000
0.000000 0.092127 0.000000
0.000000 0.088093 0.000000
0.000000 0.083951 0.000000
0.000000 0.079453 0.000000
0.021448 0.075181 0.000000
0.067113 0.070882 0.000000
0.118795 0.065588 0.000000
0.171157 0.058457 0.000000
0.226447 0.048851 0.000000
0.286445 0.035911 0.000000
0.352639 0.018479 0.000000
0.426451 0.000000 0.000000
0.509353 0.000000 0.000000
0.602931 0.000000 0.000000
0.708934 0.000000 0.000000
0.023529 0.713725 0.831373
0.966270 0.000000 0.000000
1.000000 0.000000 0.000000
1.000000 0.000000 0.000000
1.000000 0.000000 0.000000
0.860363 0.257226 0.878242
1.000000 0.000000 0.000000
1.000000 0.000000 0.000000
1.000000 0.000000 0.000000
1.000000 0.000000 0.000000
1.000000 0.000000 0.000000
1.000000 0.000000 0.000000
1.000000 0.000000 0.000000
1.000000 0.000000 0.000000
1.000000 0.000000 0.000000
0.937255 0.266667 0.266667
0.937255 0.266667 0.266667
0.000000 0.129474 0.000000
0.000000 0.126246 0.000000
0.000000 0.122959 0.000000
0.000000 0.119612 0.000000
0.000000 0.116201 0.000000
0.000000 0.112722 0.000000
0.045460 0.109149 0.000000
0.100674 0.104644 0.000000
0.157516 0.098375 0.000000
0.215699 0.089524 0.000000
0.277762 0.076557 0.000000
0.345515 0.059125 0.000000
0.420547 0.035644 0.000000
0.231373 0.509804 0.964706
0.598801 0.000000 0.000000
0.705458 0.000000 0.000000
0.023529 0.713725 0.831373
0.963795 0.000000 0.000000
1.000000 0.000000 0.000000
1.000000 0.000000 0.000000
1.000000 0.000000 0.000000
0.953235 0.086146 0.294126
1.000000 0.000000 0.000000
0.990538 0.080656 0.003605
1.000000 0.000000 0.000000
1.000000 0.000000 0.000000
1.000000 0.000000 0.000000
1.000000 0.000000 0.000000
1.000000 0.000000 0.000000
1.000000 0.000000 0.000000
1.000000 0.000000 0.000000
0.937255 0.266667 0.266667
0.937255 0.266667 0.266667
0.000000 0.166750 0.000000
0.000000 0.164072 0.000000
0.000000 0.161361 0.000000
0.000000 0.158614 0.000000
0.000000 0.155832 0.000000
0.000000 0.153011 0.000000
0.016293 0.150133 0.000000
0.072520 0.146532 0.000000
0.137600 0.141577 0.000000
0.200470 0.134698 0.000000
0.265664 0.125020 0.000000
0.335691 0.111112 0.000000
0.412461 0.090374 0.000000
0.497711 0.058765 0.000000
0.593188 0.016156 0.000000
0.700748 0.000000 0.000000
0.822417 0.000000 0.000000
0.960449 0.000000 0.000000
1.000000 0.000000 0.000000
1.000000 0.000000 0.000000
1.000000 0.000000 0.000000
1.000000 0.000000 0.000000
1.000000 0.000000 0.000000
0.951160 0.416306 0.018606
1.000000 0.000000 0.000000
1.000000 0.000000 0.000000
1.000000 0.000000 0.000000
1.000000 0.000000 0.000000
1.000000 0.000000 0.000000
1.000000 0.000000 0.000000
1.000000 0.000000 0.000000
0.937255 0.266667 0.266667
0.937255 0.266667 0.266667
0.000000 0.208626 0.000000
0.000000 0.206391 0.000000
0.000000 0.204135 0.000000
0.000000 0.201859 0.000000
0.000000 0.199562 0.000000
0.000000 0.197243 0.000000
0.000000 0.194885 0.000000
0.033228 0.191951 0.000000
0.106988 0.187940 0.000000
0.178319 0.182426 0.000000
0.248546 0.174782 0.000000
0.231373 0.509804 0.964706
0.401315 0.148694 0.000000
0.488515 0.125948 0.000000
0.585539 0.089917 0.000000
0.023529 0.713725 0.831373
0.817042 0.000000 0.000000
0.955921 0.000000 0.000000
0.133333 0.772549 0.368627
1.000000 0.000000 0.000000
1.000000 0.000000 0.000000
1.000000 0.000000 0.000000
1.000000 0.000000 0.000000
0.917647 0.701961 0.031373
1.000000 0.000000 0.000000
1.000000 0.000000 0.000000
1.000000 0.000000 0.000000
1.000000 0.000000 0.000000
1.000000 0.000000 0.000000
1.000000 0.000000 0.000000
1.000000 0.000000 0.000000
0.937255 0.266667 0.266667
0.937255 0.266667 0.266667
0.000000 0.255903 0.000000
0.000000 0.254029 0.000000
0.000000 0.252142 0.000000
0.000000 0.250243 0.000000
0.000000 0.248330 0.000000
0.000000 0.246405 0.000000
0.000000 0.244454 0.000000
0.132052 0.394859 0.550590
0.231373 0.509804 0.964706
0.157280 0.274716 0.141710
0.223711 0.228052 0.000000
0.302679 0.219488 0.000000
0.385803 0.207486 0.000000
0.475843 0.190347 0.000000
0.575066 0.165081 0.000000
0.685627 0.125449 0.000000
0.809739 0.054549 0.000000
0.949784 0.000000 0.000000
0.450546 0.489785 0.233705
1.000000 0.000000 0.000000
1.000000 0.000000 0.000000
1.000000 0.000000 0.000000
1.000000 0.000000 0.000000
0.917647 0.701961 0.031373
1.000000 0.000000 0.000000
1.000000 0.000000 0.000000
1.000000 0.000000 0.000000
1.000000 0.000000 0.000000
1.000000 0.000000 0.000000
1.000000 0.000000 0.000000
1.000000 0.000000 0.000000
0.937255 0.266667 0.266667
0.937255 0.266667 0.266667
0.000000 0.309464 0.000000
0.000000 0.307887 0.000000
0.000000 0.306302 0.000000
0.000000 0.304709 0.000000
0.000000 0.303109 0.000000
0.000000 0.301501 0.000000
0.000000 0.299874 0.000000
0.000000 0.297860 0.000000
0.000000 0.295127 0.000000
0.086921 0.291409 0.000000
0.186005 0.286330 0.000000
0.274681 0.279356 0.000000
0.363894 0.269706 0.000000
0.023529 0.713725 0.831373
0.560637 0.236938 0.000000
0.673688 0.208635 0.000000
0.799788 0.164528 0.000000
0.941447 0.084450 0.000000
1.000000 0.000000 0.000000
1.000000 0.000000 0.000000
1.000000 0.000000 0.000000
1.000000 0.000000 0.000000
1.000000 0.000000 0.000000
0.917647 0.701961 0.031373
1.000000 0.000000 0.000000
1.000000 0.000000 0.000000
1.000000 0.000000 0.000000
1.000000 0.000000 0.000000
1.000000 0.000000 0.000000
1.000000 0.000000 0.000000
1.000000 0.000000 0.000000
0.937255 0.266667 0.266667
0.937255 0.266667 0.266667
0.000000 0.370295 0.000000
0.000000 0.368965 0.000000
0.000000 0.367630 0.000000
0.000000 0.366290 0.000000
0.000000 0.364945 0.000000
0.000000 0.363596 0.000000
0.000000 0.362233 0.000000
0.000000 0.360548 0.000000
0.000000 0.358266 0.000000
0.012749 0.549440 0.450449
0.023529 0.713725 0.831373
0.100086 0.578601 0.526532
0.332206 0.337314 0.000000
0.433325 0.326395 0.000000
0.540566 0.311122 0.000000
0.657239 0.289377 0.000000
0.786165 0.257488 0.000000
0.273498 0.673237 0.303779
1.000000 0.119492 0.000000
1.000000 0.000000 0.000000
0.850980 0.274510 0.937255
1.000000 0.000000 0.000000
1.000000 0.000000 0.000000
0.918195 0.697290 0.031164
1.000000 0.000000 0.000000
1.000000 0.000000 0.000000
1.000000 0.000000 0.000000
1.000000 0.000000 0.000000
1.000000 0.000000 0.000000
1.000000 0.000000 0.000000
1.000000 0.000000 0.000000
0.937255 0.266667 0.266667
0.937255 0.266667 0.266667
0.000000 0.439507 0.000000
0.000000 0.438383 0.000000
0.000000 0.437256 0.000000
0.000000 0.436127 0.000000
0.000000 0.434994 0.000000
0.000000 0.433858 0.000000
0.000000 0.432712 0.000000
0.000000 0.431297 0.000000
0.000000 0.429383 0.000000
0.000000 0.426791 0.000000
0.000000 0.423275 0.000000
0.161709 0.418493 0.000000
0.284378 0.411964 0.000000
0.397362 0.403004 0.000000
0.512246 0.390615 0.000000
0.634364 0.373296 0.000000
0.345043 0.631015 0.245546
0.914534 0.312583 0.000000
1.000000 0.256793 0.000000
1.000000 0.157940 0.000000
0.958207 0.076987 0.262855
1.000000 0.000000 0.000000
1.000000 0.000000 0.000000
1.000000 0.000000 0.000000
1.000000 0.000000 0.000000
1.000000 0.000000 0.000000
1.000000 0.000000 0.000000
1.000000 0.000000 0.000000
1.000000 0.000000 0.000000
1.000000 0.000000 0.000000
1.000000 0.000000 0.000000
0.937255 0.266667 0.266667
0.937255 0.266667 0.266667
0.000000 0.518360 0.000000
0.000000 0.517409 0.000000
0.000000 0.516456 0.000000
0.000000 0.515502 0.000000
0.000000 0.514546 0.000000
0.000000 0.513588 0.000000
0.000000 0.512622 0.000000
0.000000 0.511429 0.000000
0.000000 0.509819 0.000000
0.000000 0.507641 0.000000
0.000000 0.504692 0.000000
0.009657 0.500692 0.000000
0.196413 0.528977 0.044834
0.133333 0.772549 0.368627
0.449242 0.496923 0.024109
0.602096 0.463549 0.000000
0.741306 0.443865 0.000000
0.893112 0.415881 0.000000
1.000000 0.374951 0.000000
0.850980 0.274510 0.937255
1.000000 0.200658 0.000000
1.000000 0.000000 0.000000
1.000000 0.000000 0.000000
1.000000 0.000000 0.000000
1.000000 0.000000 0.000000
1.000000 0.000000 0.000000
1.000000 0.000000 0.000000
1.000000 0.000000 0.000000
1.000000 0.000000 0.000000
1.000000 0.000000 0.000000
1.000000 0.000000 0.000000
0.937255 0.266667 0.266667
0.937255 0.266667 0.266667
0.000000 0.608281 0.000000
0.000000 0.607476 0.000000
0.000000 0.606670 0.000000
0.000000 0.605863 0.000000
0.000000 0.605055 0.000000
0.000000 0.604245 0.000000
0.000000 0.603429 0.000000
0.000000 0.602423 0.000000
0.000000 0.601064 0.000000
0.000000 0.599229 0.000000
0.000000 0.596748 0.000000
0.000000 0.593389 0.000000
0.024290 0.588831 0.000000
0.253800 0.582633 0.000000
0.409806 0.574174 0.000000
0.555521 0.562568 0.000000
0.704506 0.546529 0.000000
0.863328 0.524121 0.000000
0.850980 0.274510 0.937255
1.000000 0.445746 0.000000
1.000000 0.374061 0.000000
1.000000 0.248519 0.000000
0.917647 0.701961 0.031373
1.000000 0.000000 0.000000
1.000000 0.000000 0.000000
1.000000 0.000000 0.000000
1.000000 0.000000 0.000000
1.000000 0.000000 0.000000
1.000000 0.000000 0.000000
1.000000 0.000000 0.000000
1.000000 0.000000 0.000000
0.937255 0.266667 0.266667
0.937255 0.266667 0.266667
0.000000 0.710899 0.000000
0.000000 0.710217 0.000000
0.000000 0.709534 0.000000
0.000000 0.708850 0.000000
0.000000 0.708166 0.000000
0.000000 0.707482 0.000000
0.000000 0.706791 0.000000
0.000000 0.705941 0.000000
0.000000 0.704793 0.000000
0.000000 0.703244 0.000000
0.000000 0.701151 0.000000
0.000000 0.698322 0.000000
0.000000 0.694490 0.000000
0.044001 0.689293 0.000000
0.308611 0.682226 0.000000
0.485497 0.672580 0.000000
0.850980 0.274510 0.937255
0.821354 0.640762 0.000774
1.000000 0.615526 0.000000
1.000000 0.579249 0.000000
1.000000 0.526262 0.000000
1.000000 0.444734 0.000000
1.000000 0.302450 0.000000
1.000000 0.000000 0.000000
1.000000 0.000000 0.000000
1.000000 0.000000 0.000000
1.000000 0.000000 0.000000
1.000000 0.000000 0.000000
1.000000 0.000000 0.000000
1.000000 0.000000 0.000000
1.000000 0.000000 0.000000
0.937255 0.266667 0.266667
0.937255 0.266667 0.266667
0.850980 0.274510 0.937255
0.850980 0.274510 0.937255
0.850980 0.274510 0.937255
0.850980 0.274510 0.937255
0.850980 0.274510 0.937255
0.850980 0.274510 0.937255
0.850980 0.274510 0.937255
0.827056 0.289954 0.910905
0.676728 0.386801 0.745337
0.366339 0.586074 0.403479
0.029715 0.800776 0.032728
0.000000 0.817429 0.000000
0.000000 0.814200 0.000000
0.000000 0.809828 0.000000
0.070554 0.803897 0.000000
0.370613 0.795832 0.000000
0.571629 0.784826 0.000000
0.760747 0.769728 0.000000
0.954680 0.748870 0.000000
1.000000 0.719738 0.000000
1.000000 0.678367 0.000000
0.917647 0.701961 0.031373
1.000000 0.525111 0.000000
1.000000 0.363466 0.000000
1.000000 0.000000 0.000000
1.000000 0.000000 0.000000
1.000000 0.000000 0.000000
1.000000 0.000000 0.000000
1.000000 0.000000 0.000000
1.000000 0.000000 0.000000
1.000000 0.000000 0.000000
0.937255 0.266667 0.266667
0.937255 0.266667 0.266667
0.000000 0.961895 0.000000
0.000000 0.961405 0.000000
0.000000 0.960914 0.000000
0.000000 0.960423 0.000000
0.000000 0.959932 0.000000
0.000000 0.959441 0.000000
0.000000 0.958946 0.000000
0.000000 0.958336 0.000000
0.000000 0.957514 0.000000
0.000000 0.956406 0.000000
0.000000 0.954910 0.000000
0.000000 0.952891 0.000000
0.000000 0.950165 0.000000
0.000000 0.946478 0.000000
0.000000 0.941485 0.000000
0.104721 0.934714 0.000000
0.440956 0.925506 0.000000
0.669769 0.912940 0.000000
0.885518 0.895704 0.000000
0.917647 0.701961 0.031373
1.000000 0.838642 0.000000
1.000000 0.791429 0.000000
1.000000 0.722521 0.000000
1.000000 0.616654 0.000000
1.000000 0.432697 0.000000
1.000000 0.000000 0.000000
1.000000 0.000000 0.000000
1.000000 0.000000 0.000000
1.000000 0.000000 0.000000
1.000000 0.000000 0.000000
1.000000 0.000000 0.000000
0.937255 0.266667 0.266667
0.937255 0.266667 0.266667
0.000000 1.000000 0.000000
0.000000 1.000000 0.000000
0.000000 1.000000 0.000000
0.000000 1.000000 0.000000
0.009857 0.996799 0.000337
0.038912 0.987362 0.001330
0.084673 0.972499 0.002895
0.159530 0.948187 0.005454
0.283840 0.907813 0.009704
0.473114 0.846339 0.016175
0.717952 0.766819 0.024545
0.911226 0.704046 0.031153
0.917647 0.701961 0.031373
0.917647 0.701961 0.031373
0.917647 0.701961 0.031373
0.917647 0.701961 0.031373
0.352912 0.918967 0.008530
0.520928 1.000000 0.000000
0.781695 1.000000 0.000000
1.000000 1.000000 0.000000
1.000000 1.000000 0.000000
1.000000 0.974386 0.000000
1.000000 0.920479 0.000000
1.000000 0.841818 0.000000
1.000000 0.721024 0.000000
1.000000 0.511412 0.000000
1.000000 0.000000 0.000000
1.000000 0.000000 0.000000
1.000000 0.000000 0.000000
1.000000 0.000000 0.000000
1.000000 0.000000 0.000000
0.937255 0.266667 0.266667
0.937255 0.266667 0.266667
0.000000 1.000000 0.000000
0.000000 1.000000 0.000000
0.000000 1.000000 0.000000
0.000000 1.000000 0.000000
0.000000 1.000000 0.000000
0.000000 1.000000 0.000000
0.000000 1.000000 0.000000
0.000000 1.000000 0.000000
0.000000 1.000000 0.000000
0.000000 1.000000 0.000000
0.000000 1.000000 0.000000
0.000000 1.000000 0.000000
0.000000 1.000000 0.000000
0.000000 1.000000 0.000000
0.000000 1.000000 0.000000
0.000000 1.000000 0.000000
0.000000 1.000000 0.000000
0.183241 1.000000 0.000000
0.611987 1.000000 0.000000
0.909430 1.000000 0.000000
1.000000 1.000000 0.000000
1.000000 1.000000 0.000000
1.000000 1.000000 0.000000
1.000000 1.000000 0.000000
1.000000 0.978013 0.000000
1.000000 0.840110 0.000000
1.000000 0.601045 0.000000
1.000000 0.000000 0.000000
1.000000 0.000000 0.000000
1.000000 0.000000 0.000000
1.000000 0.000000 0.000000
0.937255 0.266667 0.266667
0.937255 0.266667 0.266667
0.000000 1.000000 0.000000
0.000000 1.000000 0.000000
0.000000 1.000000 0.000000
0.000000 1.000000 0.000000
0.000000 1.000000 0.000000
0.000000 1.000000 0.000000
0.000000 1.000000 0.000000
0.000000 1.000000 0.000000
0.000000 1.000000 0.000000
0.000000 1.000000 0.000000
0.000000 1.000000 0.000000
0.000000 1.000000 0.000000
0.000000 1.000000 0.000000
0.000000 1.000000 0.000000
0.000000 1.000000 0.000000
0.000000 1.000000 0.000000
0.000000 1.000000 0.000000
0.000000 1.000000 0.000000
0.229222 1.000000 0.000000
0.715785 1.000000 0.000000
1.000000 1.000000 0.000000
1.000000 1.000000 0.000000
1.000000 1.000000 0.000000
1.000000 1.000000 0.000000
1.000000 1.000000 0.000000
1.000000 1.000000 0.000000
1.000000 0.976062 0.000000
1.000000 0.703222 0.000000
1.000000 0.000000 0.000000
1.000000 0.000000 0.000000
1.000000 0.000000 0.000000
0.937255 0.266667 0.266667
0.937255 0.266667 0.266667
0.000000 1.000000 0.000000
0.000000 1.000000 0.000000
0.000000 1.000000 0.000000
0.000000 1.000000 0.000000
0.000000 1.000000 0.000000
0.000000 1.000000 0.000000
0.000000 1.000000 0.000000
0.000000 1.000000 0.000000
0.000000 1.000000 0.000000
0.000000 1.000000 0.000000
0.000000 1.000000 0.000000
0.000000 1.000000 0.000000
0.000000 1.000000 0.000000
0.000000 1.000000 0.000000
0.000000 1.000000 0.000000
0.000000 1.000000 0.000000
0.000000 1.000000 0.000000
0.000000 1.000000 0.000000
0.000000 1.000000 0.000000
0.280888 1.000000 0.000000
0.834201 1.000000 0.000000
1.000000 1.000000 0.000000
1.000000 1.000000 0.000000
1.000000 1.000000 0.000000
1.000000 1.000000 0.000000
1.000000 1.000000 0.000000
1.000000 1.000000 0.000000
1.000000 1.000000 0.000000
1.000000 0.819792 0.000000
1.000000 0.000000 0.000000
0.937255 0.266667 0.266667
0.937255 0.266667 0.266667
0.937255 0.266667 0.266667
0.000000 1.000000 0.000000
0.000000 1.000000 0.000000
0.000000 1.000000 0.000000
0.000000 1.000000 0.000000
0.000000 1.000000 0.000000
0.000000 1.000000 0.000000
0.000000 1.000000 0.000000
0.000000 1.000000 0.000000
0.000000 1.000000 0.000000
0.000000 1.000000 0.000000
0.000000 1.000000 0.000000
0.000000 1.000000 0.000000
0.000000 1.000000 0.000000
0.000000 1.000000 0.000000
0.000000 1.000000 0.000000
0.000000 1.000000 0.000000
0.000000 1.000000 0.000000
0.000000 1.000000 0.000000
0.000000 1.000000 0.000000
0.000000 1.000000 0.000000
0.339227 1.000000 0.000000
0.969376 1.000000 0.000000
1.000000 1.000000 0.000000
1.000000 1.000000 0.000000
1.000000 1.000000 0.000000
1.000000 1.000000 0.000000
1.000000 1.000000 0.000000
1.000000 1.000000 0.000000
1.000000 1.000000 0.000000
1.000000 0.952862 0.000000
0.937255 0.266667 0.266667
0.937255 0.266667 0.266667
0.937255 0.266667 0.266667
0.000000 1.000000 0.000000
0.000000 1.000000 0.000000
0.000000 1.000000 0.000000
0.000000 1.000000 0.000000
0.000000 1.000000 0.000000
0.000000 1.000000 0.000000
0.000000 1.000000 0.000000
0.000000 1.000000 0.000000
0.000000 1.000000 0.000000
0.000000 1.000000 0.000000
0.000000 1.000000 0.000000
0.000000 1.000000 0.000000
0.000000 1.000000 0.000000
0.000000 1.000000 0.000000
0.000000 1.000000 0.000000
0.000000 1.000000 0.000000
0.000000 1.000000 0.000000
0.000000 1.000000 0.000000
0.000000 1.000000 0.000000
0.000000 1.000000 0.000000
0.000000 1.000000 0.000000
0.405326 1.000000 0.000000
1.000000 1.000000 0.000000
1.000000 1.000000 0.000000
1.000000 1.000000 0.000000
1.000000 1.000000 0.000000
1.000000 1.000000 0.000000
1.000000 1.000000 0.000000
1.000000 1.000000 0.000000
0.937255 0.266667 0.266667
0.937255 0.266667 0.266667
0.937255 0.266667 0.266667
0.937255 0.266667 0.266667
0.000000 1.000000 0.000000
0.000000 1.000000 0.000000
0.000000 1.000000 0.000000
0.000000 1.000000 0.000000
0.000000 1.000000 0.000000
0.000000 1.000000 0.000000
0.000000 1.000000 0.000000
0.000000 1.000000 0.000000
0.000000 1.000000 0.000000
0.000000 1.000000 0.000000
0.000000 1.000000 0.000000
0.000000 1.000000 0.000000
0.000000 1.000000 0.000000
0.000000 1.000000 0.000000
0.000000 1.000000 0.000000
0.000000 1.000000 0.000000
0.000000 1.000000 0.000000
0.000000 1.000000 0.000000
0.000000 1.000000 0.000000
0.000000 1.000000 0.000000
0.000000 1.000000 0.000000
0.000000 1.000000 0.000000
0.480403 1.000000 0.000000
1.000000 1.000000 0.000000
1.000000 1.000000 0.000000
1.000000 1.000000 0.000000
1.000000 1.000000 0.000000
1.000000 1.000000 0.000000
0.937255 0.266667 0.266667
0.937255 0.266667 0.266667
