luts/HybridMonitor_vlog.cube
# Hybrid Monitor LUT
# Profile  : Panasonic V-Log L
# Cameras  : GH5, GH6, S5, S5II, S1, BGH1, AU-EVA1
# Input    : Panasonic V-Log L log / V-Gamut
# Output   : Rec.709 base + narrow exposure tracer overlays
# Generator: hybrid_monitor_lut.py
#
# Base transform pipeline:
#   Log decode  →  V-Gamut → Rec.709 matrix  →  Rec.709 OETF
#
# Overlay zones (thin tracers over Rec.709 base):
#   #ef4444     white_clip      log 0.800 – 1.010
#   #eab308     +2 stops        log 0.560 – 0.570
#   #d946ef     +1 stops        log 0.489 – 0.499
#   #22c55e     +0 stops        log 0.418 – 0.428
#   #06b6d4     -1 stops        log 0.351 – 0.360
#   #3b82f6     -2 stops        log 0.287 – 0.296
#   #6366f1     black_clip      log 0.000 – 0.130
#   All other levels → standard Rec.709 color (no tracer)
#
TITLE "HybridMonitor Panasonic V-Log L"
LUT_3D_SIZE 5
DOMAIN_MIN 0.0 0.0 0.0
DOMAIN_MAX 1.0 1.0 1.0
0.388235 0.400000 0.945098
0.388235 0.400000 0.945098
0.843358 0.000000 0.000000
1.000000 0.000000 0.000000
0.937255 0.266667 0.266667
0.000000 0.166750 0.000000
0.137600 0.141577 0.000000
0.822417 0.000000 0.000000
1.000000 0.000000 0.000000
0.937255 0.266667 0.266667
0.000000 0.710899 0.000000
0.000000 0.704793 0.000000
0.850980 0.274510 0.937255
1.000000 0.000000 0.000000
0.937255 0.266667 0.266667
0.000000 1.000000 0.000000
0.000000 1.000000 0.000000
0.000000 1.000000 0.000000
1.000000 1.000000 0.000000
0.937255 0.266667 0.266667
0.937255 0.266667 0.266667
0.937255 0.266667 0.266667
0.937255 0.266667 0.266667
0.937255 0.266667 0.266667
0.937255 0.266667 0.266667
0.388235 0.400000 0.945098
0.388235 0.400000 0.945098
0.840058 0.000000 0.114216
1.000000 0.000000 0.000000
0.937255 0.266667 0.266667
0.000000 0.146896 0.123301
0.118873 0.118874 0.118873
0.819025 0.000000 0.083304
1.000000 0.000000 0.000000
0.937255 0.266667 0.266667
0.000000 0.706026 0.000000
0.000000 0.699875 0.000000
0.850980 0.274510 0.937255
1.000000 0.000000 0.000000
0.937255 0.266667 0.266667
0.000000 1.000000 0.000000
0.000000 1.000000 0.000000
0.000000 1.000000 0.000000
1.000000 1.000000 0.000000
0.937255 0.266667 0.266667
0.937255 0.266667 0.266667
0.937255 0.266667 0.266667
0.937255 0.266667 0.266667
0.937255 0.266667 0.266667
0.937255 0.266667 0.266667
0.000000 0.000000 0.673029
0.100603 0.000000 0.672073
0.023983 0.713317 0.831277
1.000000 0.000000 0.585107
0.937255 0.266667 0.266667
0.032092 0.070711 0.708421
0.000000 0.000000 0.666185
0.794302 0.000000 0.659240
1.000000 0.000000 0.578281
0.937255 0.266667 0.266667
0.000000 0.670061 0.623370
0.000000 0.663553 0.622333
0.614862 0.614864 0.614863
1.000000 0.000000 0.526771
0.937255 0.266667 0.266667
0.000000 1.000000 0.000000
0.000000 1.000000 0.000000
0.000000 1.000000 0.000000
1.000000 1.000000 0.000000
0.937255 0.266667 0.266667
0.937255 0.266667 0.266667
0.937255 0.266667 0.266667
0.937255 0.266667 0.266667
0.937255 0.266667 0.266667
0.937255 0.266667 0.266667
0.000000 0.000000 1.000000
0.000000 0.000000 1.000000
0.850980 0.274510 0.937255
1.000000 0.000000 1.000000
0.937255 0.266667 0.266667
0.000000 0.000000 1.000000
0.000000 0.000000 1.000000
0.437334 0.000000 1.000000
1.000000 0.000000 1.000000
0.937255 0.266667 0.266667
0.000000 0.000000 1.000000
0.000000 0.000000 1.000000
0.000000 0.000000 1.000000
1.000000 0.000000 1.000000
0.937255 0.266667 0.266667
0.000000 1.000000 1.000000
0.000000 1.000000 1.000000
0.000000 1.000000 1.000000
1.000000 1.000000 1.000000
0.937255 0.266667 0.266667
0.937255 0.266667 0.266667
0.937255 0.266667 0.266667
0.937255 0.266667 0.266667
0.937255 0.266667 0.266667
0.937255 0.266667 0.266667
0.000000 0.000000 1.000000
0.000000 0.000000 1.000000
0.000000 0.000000 1.000000
1.000000 0.000000 1.000000
0.937255 0.266667 0.266667
0.000000 0.000000 1.000000
0.000000 0.000000 1.000000
0.000000 0.000000 1.000000
1.000000 0.000000 1.000000
0.937255 0.266667 0.266667
0.000000 0.000000 1.000000
0.000000 0.000000 1.000000
0.000000 0.000000 1.000000
1.000000 0.000000 1.000000
0.937255 0.266667 0.266667
0.000000 0.000000 1.000000
0.000000 0.000000 1.000000
0.000000 0.000000 1.000000
0.937255 0.266667 0.266667
0.937255 0.266667 0.266667
0.937255 0.266667 0.266667
0.937255 0.266667 0.266667
0.937255 0.266667 0.266667
0.937255 0.266667 0.266667
0.937255 0.266667 0.266667
