luts/HybridMonitor_bmpfilm5.cube
# Hybrid Monitor LUT
# Profile  : Blackmagic Film Gen 5
# Cameras  : Pocket 6K G2, 6K Pro, 6K G2, URSA Mini Pro 12K
# Input    : Blackmagic Film Gen 5 log / Blackmagic Wide Gamut
# Output   : Rec.709 base + narrow exposure tracer overlays
# Generator: hybrid_monitor_lut.py
#
# Base transform pipeline:
#   Log decode  →  Blackmagic Wide Gamut → Rec.709 matrix  →  Rec.709 OETF
#
# Overlay zones (thin tracers over Rec.709 base):
#   #ef4444     white_clip      log 0.750 – 1.000
#   #eab308     +2 stops        log 0.498 – 0.506
#   #d946ef     +1 stops        log 0.438 – 0.447
#   #22c55e     +0 stops        log 0.379 – 0.388
#   #06b6d4     -1 stops        log 0.322 – 0.330
#   #3b82f6     -2 stops        log 0.267 – 0.274
#   #6366f1     black_clip      log 0.000 – 0.100
#   All other levels → standard Rec.709 color (no tracer)
#
TITLE "HybridMonitor Blackmagic Film Gen 5"
LUT_3D_SIZE 5
DOMAIN_MIN 0.0 0.0 0.0
DOMAIN_MAX 1.0 1.0 1.0
0.388235 0.400000 0.945098
0.388235 0.400000 0.945098
1.000000 0.000000 0.000000
1.000000 0.000000 0.000000
0.937255 0.266667 0.266667
0.000000 0.186799 0.000000
0.148751 0.176475 0.000000
0.183631 0.727713 0.347234
1.000000 0.000000 0.000000
0.937255 0.266667 0.266667
0.000000 0.974277 0.000000
0.000000 0.972271 0.000000
0.857912 0.942320 0.000000
1.000000 0.000000 0.000000
0.937255 0.266667 0.266667
0.000000 1.000000 0.000000
0.000000 1.000000 0.000000
0.000000 1.000000 0.000000
1.000000 1.000000 0.000000
0.937255 0.266667 0.266667
0.937255 0.266667 0.266667
0.937255 0.266667 0.266667
0.937255 0.266667 0.266667
0.937255 0.266667 0.266667
0.937255 0.266667 0.266667
0.388235 0.400000 0.945098
0.206729 0.000000 0.175293
1.000000 0.000000 0.049451
1.000000 0.000000 0.000000
0.937255 0.266667 0.266667
0.000000 0.154335 0.149602
0.142283 0.142286 0.142254
0.133333 0.772549 0.368627
1.000000 0.000000 0.000000
0.937255 0.266667 0.266667
0.000000 0.968257 0.000000
0.000000 0.966237 0.000000
0.856691 0.936072 0.000000
1.000000 0.000000 0.000000
0.937255 0.266667 0.266667
0.000000 1.000000 0.000000
0.000000 1.000000 0.000000
0.000000 1.000000 0.000000
1.000000 1.000000 0.000000
0.937255 0.266667 0.266667
0.937255 0.266667 0.266667
0.937255 0.266667 0.266667
0.937255 0.266667 0.266667
0.937255 0.266667 0.266667
0.937255 0.266667 0.266667
0.000000 0.000000 0.958133
0.119800 0.000000 0.956902
1.000000 0.000000 0.938652
1.000000 0.000000 0.503815
0.937255 0.266667 0.266667
0.000000 0.000000 0.952224
0.017404 0.000000 0.950985
1.000000 0.000000 0.932606
1.000000 0.000000 0.491973
0.937255 0.266667 0.266667
0.000000 0.874732 0.860442
0.000000 0.872471 0.859056
0.917647 0.701961 0.031373
1.000000 0.000000 0.264330
0.937255 0.266667 0.266667
0.000000 1.000000 0.000000
0.000000 1.000000 0.000000
0.000000 1.000000 0.000000
1.000000 1.000000 0.000000
0.937255 0.266667 0.266667
0.937255 0.266667 0.266667
0.937255 0.266667 0.266667
0.937255 0.266667 0.266667
0.937255 0.266667 0.266667
0.937255 0.266667 0.266667
0.000000 0.000000 1.000000
0.000000 0.000000 1.000000
0.729447 0.000000 1.000000
1.000000 0.000000 1.000000
0.937255 0.266667 0.266667
0.000000 0.000000 1.000000
0.000000 0.000000 1.000000
0.712596 0.000000 1.000000
1.000000 0.000000 1.000000
0.937255 0.266667 0.266667
0.000000 0.000000 1.000000
0.000000 0.000000 1.000000
0.383594 0.000000 1.000000
1.000000 0.000000 1.000000
0.937255 0.266667 0.266667
0.000000 1.000000 1.000000
0.000000 1.000000 1.000000
0.000000 1.000000 1.000000
0.968627 0.633333 0.633333
0.937255 0.266667 0.266667
0.937255 0.266667 0.266667
0.937255 0.266667 0.266667
0.937255 0.266667 0.266667
0.937255 0.266667 0.266667
0.937255 0.266667 0.266667
0.937255 0.266667 0.266667
0.937255 0.266667 0.266667
0.937255 0.266667 0.266667
0.937255 0.266667 0.266667
0.937255 0.266667 0.266667
0.937255 0.266667 0.266667
0.937255 0.266667 0.266667
0.937255 0.266667 0.266667
0.937255 0.266667 0.266667
0.937255 0.266667 0.266667
0.937255 0.266667 0.266667
0.937255 0.266667 0.266667
0.937255 0.266667 0.266667
0.937255 0.266667 0.266667
0.937255 0.266667 0.266667
0.937255 0.266667 0.266667
0.937255 0.266667 0.266667
0.937255 0.266667 0.266667
0.937255 0.266667 0.266667
0.937255 0.266667 0.266667
0.937255 0.266667 0.266667
0.937255 0.266667 0.266667
0.937255 0.266667 0.266667
0.937255 0.266667 0.266667
0.968627 0.633333 0.633333
