luts/HybridMonitor_nlog.cube
# Hybrid Monitor LUT
# Profile  : Nikon N-Log
# Cameras  : Z6, Z7, Z6II, Z7II, Z8, Z9
# Input    : Nikon N-Log log / N-Gamut
# Output   : Rec.709 base + narrow exposure tracer overlays
# Generator: hybrid_monitor_lut.py
#
# Base transform pipeline:
#   Log decode  →  N-Gamut → Rec.709 matrix  →  Rec.709 OETF
#
# Overlay zones (thin tracers over Rec.709 base):
#   #ef4444     white_clip      log 0.720 – 1.000
#   #eab308     +2 stops        log 0.550 – 0.564
#   #d946ef     +1 stops        log 0.448 – 0.462
#   #22c55e     +0 stops        log 0.358 – 0.369
#   #06b6d4     -1 stops        log 0.288 – 0.297
#   #3b82f6     -2 stops        log 0.235 – 0.241
#   #6366f1     black_clip      log 0.000 – 0.130
#   All other levels → standard Rec.709 color (no tracer)
#
TITLE "HybridMonitor Nikon N-Log"
LUT_3D_SIZE 5
DOMAIN_MIN 0.0 0.0 0.0
DOMAIN_MAX 1.0 1.0 1.0
0.388235 0.400000 0.945098
0.279587 0.000000 0.000000
0.903846 0.000000 0.000000
1.000000 0.000000 0.000000
0.937255 0.266667 0.266667
0.000000 0.214340 0.000000
0.205814 0.196318 0.000000
0.883803 0.000000 0.000000
1.000000 0.000000 0.000000
0.937255 0.266667 0.266667
0.841931 0.279499 0.927288
0.850980 0.274510 0.937255
0.723023 0.700075 0.000000
1.000000 0.455546 0.000000
0.937255 0.266667 0.266667
0.000000 1.000000 0.000000
0.000000 1.000000 0.000000
0.000000 1.000000 0.000000
0.937255 0.266667 0.266667
0.937255 0.266667 0.266667
0.937255 0.266667 0.266667
0.937255 0.266667 0.266667
0.937255 0.266667 0.266667
0.937255 0.266667 0.266667
0.937255 0.266667 0.266667
0.388235 0.400000 0.945098
0.271406 0.000000 0.209787
0.901388 0.000000 0.190639
1.000000 0.000000 0.052839
0.937255 0.266667 0.266667
0.000000 0.213172 0.197785
0.195061 0.195061 0.195061
0.881284 0.000000 0.174639
1.000000 0.000000 0.025269
0.937255 0.266667 0.266667
0.850980 0.274510 0.937255
0.850980 0.274510 0.937255
0.719886 0.699704 0.007962
1.000000 0.454966 0.000000
0.937255 0.266667 0.266667
0.000000 1.000000 0.000000
0.000000 1.000000 0.000000
0.000000 1.000000 0.000000
0.937255 0.266667 0.266667
0.937255 0.266667 0.266667
0.937255 0.266667 0.266667
0.937255 0.266667 0.266667
0.937255 0.266667 0.266667
0.937255 0.266667 0.266667
0.937255 0.266667 0.266667
0.000000 0.000000 0.738881
0.205030 0.000000 0.738119
0.883616 0.000000 0.732651
1.000000 0.000000 0.704319
0.937255 0.266667 0.266667
0.000000 0.204667 0.734647
0.094255 0.206785 0.737739
0.133333 0.772549 0.368627
1.000000 0.000000 0.699860
0.937255 0.266667 0.266667
0.001074 0.740278 0.703909
0.000000 0.735635 0.702811
0.697045 0.697045 0.697045
1.000000 0.450797 0.667090
0.937255 0.266667 0.266667
0.000000 1.000000 0.517022
0.000000 1.000000 0.515912
0.000000 1.000000 0.507909
0.937255 0.266667 0.266667
0.937255 0.266667 0.266667
0.937255 0.266667 0.266667
0.937255 0.266667 0.266667
0.937255 0.266667 0.266667
0.937255 0.266667 0.266667
0.937255 0.266667 0.266667
0.127517 0.738847 0.396171
0.000000 0.000000 1.000000
0.787044 0.000000 1.000000
0.981341 0.159047 0.780532
0.937255 0.266667 0.266667
0.000000 0.156293 1.000000
0.000000 0.132620 1.000000
0.763634 0.000000 1.000000
1.000000 0.000000 1.000000
0.937255 0.266667 0.266667
0.000000 0.728139 1.000000
0.000000 0.722808 1.000000
0.566695 0.683440 1.000000
1.000000 0.429112 1.000000
0.937255 0.266667 0.266667
0.000000 1.000000 1.000000
0.000000 1.000000 1.000000
0.937255 0.266667 0.266667
0.937255 0.266667 0.266667
0.937255 0.266667 0.266667
0.937255 0.266667 0.266667
0.937255 0.266667 0.266667
0.937255 0.266667 0.266667
0.937255 0.266667 0.266667
0.937255 0.266667 0.266667
0.000000 0.000000 1.000000
0.000000 0.000000 1.000000
0.000000 0.000000 1.000000
1.000000 0.000000 1.000000
0.937255 0.266667 0.266667
0.000000 0.000000 1.000000
0.000000 0.000000 1.000000
0.000000 0.000000 1.000000
1.000000 0.000000 1.000000
0.937255 0.266667 0.266667
0.000000 0.653357 1.000000
0.000000 0.647366 1.000000
0.000000 0.602750 1.000000
1.000000 0.282466 1.000000
0.937255 0.266667 0.266667
0.937255 0.266667 0.266667
0.937255 0.266667 0.266667
0.937255 0.266667 0.266667
0.937255 0.266667 0.266667
0.937255 0.266667 0.266667
0.937255 0.266667 0.266667
0.937255 0.266667 0.266667
0.937255 0.266667 0.266667
0.937255 0.266667 0.266667
0.968627 0.633333 0.633333
