luts/HybridMonitor_logc3.cube
# Hybrid Monitor LUT
# Profile  : ARRI LogC3 (EI800)
# Cameras  : Alexa Mini, Alexa Mini LF, Alexa 35, Amira
# Input    : ARRI LogC3 (EI800) log / ARRI Wide Gamut 3
# Output   : Rec.709 base + narrow exposure tracer overlays
# Generator: hybrid_monitor_lut.py
#
# Base transform pipeline:
#   Log decode  →  ARRI Wide Gamut 3 → Rec.709 matrix  →  Rec.709 OETF
#
# Overlay zones (thin tracers over Rec.709 base):
#   #ef4444     white_clip      log 0.750 – 1.000
#   #eab308     +2 stops        log 0.531 – 0.541
#   #d946ef     +1 stops        log 0.458 – 0.468
#   #22c55e     +0 stops        log 0.386 – 0.396
#   #06b6d4     -1 stops        log 0.317 – 0.327
#   #3b82f6     -2 stops        log 0.253 – 0.261
#   #6366f1     black_clip      log 0.000 – 0.100
#   All other levels → standard Rec.709 color (no tracer)
#
TITLE "HybridMonitor ARRI LogC3 (EI800)"
LUT_3D_SIZE 17
DOMAIN_MIN 0.0 0.0 0.0
DOMAIN_MAX 1.0 1.0 1.0
0.388235 0.400000 0.945098
0.388235 0.400000 0.945098
0.388235 0.400000 0.945098
0.388235 0.400000 0.945098
0.388235 0.400000 0.945098
0.358907 0.000000 0.000000
0.499796 0.000000 0.000000
0.231373 0.509804 0.964706
0.893952 0.018926 0.022045
0.133333 0.772549 0.368627
0.978262 0.040044 0.136721
1.000000 0.000000 0.000000
1.000000 0.000000 0.000000
1.000000 0.000000 0.000000
1.000000 0.000000 0.000000
0.937255 0.266667 0.266667
0.937255 0.266667 0.266667
0.388235 0.400000 0.945098
0.388235 0.400000 0.945098
0.388235 0.400000 0.945098
0.388235 0.400000 0.945098
0.236471 0.000000 0.000000
0.349776 0.000000 0.000000
0.493253 0.000000 0.000000
0.677124 0.000000 0.000000
0.914251 0.000000 0.000000
1.000000 0.000000 0.000000
0.850980 0.274510 0.937255
1.000000 0.000000 0.000000
1.000000 0.000000 0.000000
1.000000 0.000000 0.000000
1.000000 0.000000 0.000000
0.937255 0.266667 0.266667
0.937255 0.266667 0.266667
0.388235 0.400000 0.945098
0.000000 0.058355 0.000000
0.035396 0.054657 0.000000
0.124287 0.050514 0.000000
0.222944 0.043376 0.000000
0.340411 0.030600 0.000000
0.486621 0.007730 0.000000
0.672373 0.000000 0.000000
0.910827 0.000000 0.000000
1.000000 0.000000 0.000000
0.850980 0.274510 0.937255
1.000000 0.000000 0.000000
1.000000 0.000000 0.000000
1.000000 0.000000 0.000000
1.000000 0.000000 0.000000
0.937255 0.266667 0.266667
0.937255 0.266667 0.266667
0.000000 0.131874 0.000000
0.000000 0.129118 0.000000
0.003853 0.126320 0.000000
0.098116 0.123134 0.000000
0.206913 0.117511 0.000000
0.329621 0.106972 0.000000
0.231373 0.509804 0.964706
0.667007 0.045148 0.000000
0.906974 0.000000 0.000000
1.000000 0.000000 0.000000
0.850980 0.274510 0.937255
1.000000 0.000000 0.000000
1.000000 0.000000 0.000000
1.000000 0.000000 0.000000
1.000000 0.000000 0.000000
0.937255 0.266667 0.266667
0.937255 0.266667 0.266667
0.000000 0.213630 0.000000
0.000000 0.211734 0.000000
0.000000 0.209823 0.000000
0.044472 0.207666 0.000000
0.176581 0.203904 0.000000
0.231373 0.509804 0.964706
0.465797 0.184198 0.000000
0.023529 0.713725 0.831373
0.900293 0.105184 0.000000
1.000000 0.000000 0.000000
0.998543 0.002683 0.009161
1.000000 0.000000 0.000000
1.000000 0.000000 0.000000
1.000000 0.000000 0.000000
1.000000 0.000000 0.000000
0.937255 0.266667 0.266667
0.937255 0.266667 0.266667
0.000000 0.316075 0.000000
0.000000 0.314737 0.000000
0.000000 0.313393 0.000000
0.000000 0.311881 0.000000
0.108539 0.309260 0.000000
0.272321 0.304516 0.000000
0.023529 0.713725 0.831373
0.640548 0.279729 0.000000
0.888196 0.248562 0.000000
1.000000 0.182031 0.000000
1.000000 0.000000 0.000000
0.922531 0.660330 0.029512
1.000000 0.000000 0.000000
1.000000 0.000000 0.000000
1.000000 0.000000 0.000000
0.937255 0.266667 0.266667
0.937255 0.266667 0.266667
0.000000 0.446663 0.000000
0.000000 0.445706 0.000000
0.000000 0.444746 0.000000
0.000000 0.443669 0.000000
0.000000 0.441807 0.000000
0.189025 0.438453 0.000000
0.392802 0.432387 0.000000
0.608659 0.421311 0.000000
0.866078 0.400732 0.000000
1.000000 0.361052 0.000000
1.000000 0.277010 0.000000
0.917647 0.701961 0.031373
1.000000 0.000000 0.000000
1.000000 0.000000 0.000000
1.000000 0.000000 0.000000
0.937255 0.266667 0.266667
0.937255 0.266667 0.266667
0.000000 0.614595 0.000000
0.000000 0.613906 0.000000
0.000000 0.613216 0.000000
0.000000 0.612442 0.000000
0.000000 0.611105 0.000000
0.000000 0.608706 0.000000
0.287823 0.604386 0.000000
0.546710 0.596571 0.000000
0.824859 0.582308 0.000000
1.000000 0.555823 0.000000
1.000000 0.504830 0.000000
1.000000 0.397265 0.000000
1.000000 0.016826 0.000000
1.000000 0.000000 0.000000
1.000000 0.000000 0.000000
0.937255 0.266667 0.266667
0.937255 0.266667 0.266667
0.850980 0.274510 0.937255
0.850980 0.274510 0.937255
0.850980 0.274510 0.937255
0.850980 0.274510 0.937255
0.764060 0.331152 0.841522
0.000000 0.827323 0.000000
0.000000 0.824220 0.000000
0.412505 0.818632 0.000000
0.744857 0.808526 0.000000
1.000000 0.790084 0.000000
0.917647 0.701961 0.031373
1.000000 0.689989 0.000000
1.000000 0.551364 0.000000
1.000000 0.056168 0.000000
1.000000 0.000000 0.000000
0.937255 0.266667 0.266667
0.937255 0.266667 0.266667
0.000000 1.000000 0.000000
0.000000 1.000000 0.000000
0.000000 1.000000 0.000000
0.000000 1.000000 0.000000
0.000000 1.000000 0.000000
0.035349 0.988519 0.001209
0.901794 0.707110 0.030831
0.917647 0.701961 0.031373
0.572007 1.000000 0.000000
1.000000 1.000000 0.000000
1.000000 1.000000 0.000000
1.000000 1.000000 0.000000
1.000000 0.929407 0.000000
1.000000 0.750089 0.000000
1.000000 0.121357 0.000000
0.937255 0.266667 0.266667
0.937255 0.266667 0.266667
0.000000 1.000000 0.000000
0.000000 1.000000 0.000000
0.000000 1.000000 0.000000
0.000000 1.000000 0.000000
0.000000 1.000000 0.000000
0.000000 1.000000 0.000000
0.000000 1.000000 0.000000
0.000000 1.000000 0.000000
0.000000 1.000000 0.000000
0.777514 1.000000 0.000000
1.000000 1.000000 0.000000
1.000000 1.000000 0.000000
1.000000 1.000000 0.000000
1.000000 1.000000 0.000000
1.000000 1.000000 0.000000
0.937255 0.266667 0.266667
0.937255 0.266667 0.266667
0.000000 1.000000 0.000000
0.000000 1.000000 0.000000
0.000000 1.000000 0.000000
0.000000 1.000000 0.000000
0.000000 1.000000 0.000000
0.000000 1.000000 0.000000
0.000000 1.000000 0.000000
0.000000 1.000000 0.000000
0.000000 1.000000 0.000000
0.000000 1.000000 0.000000
1.000000 1.000000 0.000000
1.000000 1.000000 0.000000
1.000000 1.000000 0.000000
1.000000 1.000000 0.000000
0.937255 0.266667 0.266667
0.937255 0.266667 0.266667
0.937255 0.266667 0.266667
0.000000 1.000000 0.000000
0.000000 1.000000 0.000000
0.000000 1.000000 0.000000
0.000000 1.000000 0.000000
0.000000 1.000000 0.000000
0.000000 1.000000 0.000000
0.000000 1.000000 0.000000
0.000000 1.000000 0.000000
0.000000 1.000000 0.000000
0.000000 1.000000 0.000000
0.000000 1.000000 0.000000
1.000000 1.000000 0.000000
1.000000 1.000000 0.000000
0.937255 0.266667 0.266667
0.937255 0.266667 0.266667
0.937255 0.266667 0.266667
0.937255 0.266667 0.266667
0.937255 0.266667 0.266667
0.937255 0.266667 0.266667
0.937255 0.266667 0.266667
0.937255 0.266667 0.266667
0.937255 0.266667 0.266667
0.937255 0.266667 0.266667
0.937255 0.266667 0.266667
0.937255 0.266667 0.266667
0.937255 0.266667 0.266667
0.937255 0.266667 0.266667
0.937255 0.266667 0.266667
0.937255 0.266667 0.266667
0.937255 0.266667 0.266667
0.937255 0.266667 0.266667
0.937255 0.266667 0.266667
0.937255 0.266667 0.266667
0.937255 0.266667 0.266667
0.937255 0.266667 0.266667
0.937255 0.266667 0.266667
0.937255 0.266667 0.266667
0.937255 0.266667 0.266667
0.937255 0.266667 0.266667
0.937255 0.266667 0.266667
0.937255 0.266667 0.266667
0.937255 0.266667 0.266667
0.937255 0.266667 0.266667
0.937255 0.266667 0.266667
0.937255 0.266667 0.266667
0.937255 0.266667 0.266667
0.937255 0.266667 0.266667
0.937255 0.266667 0.266667
0.937255 0.266667 0.266667
0.937255 0.266667 0.266667
0.937255 0.266667 0.266667
0.937255 0.266667 0.266667
0.937255 0.266667 0.266667
0.937255 0.266667 0.266667
0.937255 0.266667 0.266667
0.937255 0.266667 0.266667
0.937255 0.266667 0.266667
0.937255 0.266667 0.266667
0.937255 0.266667 0.266667
0.937255 0.266667 0.266667
0.937255 0.266667 0.266667
0.937255 0.266667 0.266667
0.937255 0.266667 0.266667
0.937255 0.266667 0.266667
0.937255 0.266667 0.266667
0.937255 0.266667 0.266667
0.937255 0.266667 0.266667
0.937255 0.266667 0.266667
0.937255 0.266667 0.266667
0.937255 0.266667 0.266667
0.937255 0.266667 0.266667
0.937255 0.266667 0.266667
0.937255 0.266667 0.266667
0.937255 0.266667 0.266667
0.937255 0.266667 0.266667
0.937255 0.266667 0.266667
0.937255 0.266667 0.266667
0.937255 0.266667 0.266667
0.937255 0.266667 0.266667
0.937255 0.266667 0.266667
0.937255 0.266667 0.266667
0.937255 0.266667 0.266667
0.937255 0.266667 0.266667
0.937255 0.266667 0.266667
0.937255 0.266667 0.266667
0.388235 0.400000 0.945098
0.388235 0.400000 0.945098
0.388235 0.400000 0.945098
0.388235 0.400000 0.945098
0.388235 0.400000 0.945098
0.357558 0.000000 0.000000
0.498824 0.000000 0.000000
0.498916 0.206547 0.390850
0.917153 0.000000 0.000000
0.133333 0.772549 0.368627
0.962133 0.069755 0.238164
1.000000 0.000000 0.000000
1.000000 0.000000 0.000000
1.000000 0.000000 0.000000
1.000000 0.000000 0.000000
0.937255 0.266667 0.266667
0.937255 0.266667 0.266667
0.388235 0.400000 0.945098
0.388235 0.400000 0.945098
0.388235 0.400000 0.945098
0.388235 0.400000 0.945098
0.234493 0.000000 0.000000
0.348393 0.000000 0.000000
0.492268 0.000000 0.000000
0.676417 0.000000 0.000000
0.913741 0.000000 0.000000
1.000000 0.000000 0.000000
0.850980 0.274510 0.937255
1.000000 0.000000 0.000000
1.000000 0.000000 0.000000
1.000000 0.000000 0.000000
1.000000 0.000000 0.000000
0.937255 0.266667 0.266667
0.937255 0.266667 0.266667
0.388235 0.400000 0.945098
0.000000 0.044520 0.000000
0.031192 0.040822 0.000000
0.121017 0.036679 0.000000
0.220864 0.029541 0.000000
0.338992 0.016765 0.000000
0.485623 0.000000 0.000000
0.671661 0.000000 0.000000
0.910315 0.000000 0.000000
1.000000 0.000000 0.000000
0.850980 0.274510 0.937255
1.000000 0.000000 0.000000
1.000000 0.000000 0.000000
1.000000 0.000000 0.000000
1.000000 0.000000 0.000000
0.937255 0.266667 0.266667
0.937255 0.266667 0.266667
0.000000 0.121344 0.000000
0.000000 0.118424 0.000000
0.000000 0.115455 0.000000
0.094297 0.112067 0.000000
0.204697 0.106069 0.000000
0.328157 0.094762 0.000000
0.231373 0.509804 0.964706
0.666289 0.031313 0.000000
0.906459 0.000000 0.000000
1.000000 0.000000 0.000000
0.850980 0.274510 0.937255
1.000000 0.000000 0.000000
1.000000 0.000000 0.000000
1.000000 0.000000 0.000000
1.000000 0.000000 0.000000
0.937255 0.266667 0.266667
0.937255 0.266667 0.266667
0.000000 0.206462 0.000000
0.000000 0.204511 0.000000
0.000000 0.202544 0.000000
0.040268 0.200322 0.000000
0.174061 0.196446 0.000000
0.232163 0.506526 0.954839
0.464753 0.176080 0.000000
0.023529 0.713725 0.831373
0.899774 0.092834 0.000000
1.000000 0.000000 0.000000
1.000000 0.000000 0.000000
1.000000 0.000000 0.000000
1.000000 0.000000 0.000000
1.000000 0.000000 0.000000
1.000000 0.000000 0.000000
0.937255 0.266667 0.266667
0.937255 0.266667 0.266667
0.000000 0.311040 0.000000
0.000000 0.309681 0.000000
0.000000 0.308317 0.000000
0.000000 0.306781 0.000000
0.104957 0.304120 0.000000
0.270575 0.299301 0.000000
0.023529 0.713725 0.831373
0.639798 0.274087 0.000000
0.887669 0.242284 0.000000
1.000000 0.173834 0.000000
1.000000 0.000000 0.000000
0.920151 0.680614 0.030419
1.000000 0.000000 0.000000
1.000000 0.000000 0.000000
1.000000 0.000000 0.000000
0.937255 0.266667 0.266667
0.937255 0.266667 0.266667
0.000000 0.443071 0.000000
0.000000 0.442106 0.000000
0.000000 0.441138 0.000000
0.000000 0.440052 0.000000
0.000000 0.438174 0.000000
0.186639 0.434793 0.000000
0.391566 0.428675 0.000000
0.589941 0.430915 0.013926
0.865536 0.396729 0.000000
1.000000 0.356619 0.000000
1.000000 0.271318 0.000000
0.917647 0.701961 0.031373
1.000000 0.000000 0.000000
1.000000 0.000000 0.000000
1.000000 0.000000 0.000000
0.937255 0.266667 0.266667
0.937255 0.266667 0.266667
0.000000 0.612012 0.000000
0.000000 0.611320 0.000000
0.000000 0.610626 0.000000
0.000000 0.609849 0.000000
0.000000 0.608506 0.000000
0.000000 0.606096 0.000000
0.286164 0.601756 0.000000
0.545824 0.593905 0.000000
0.824288 0.579574 0.000000
1.000000 0.552953 0.000000
1.000000 0.501659 0.000000
1.000000 0.393227 0.000000
1.000000 0.002991 0.000000
1.000000 0.000000 0.000000
1.000000 0.000000 0.000000
0.937255 0.266667 0.266667
0.937255 0.266667 0.266667
0.850980 0.274510 0.937255
0.850980 0.274510 0.937255
0.850980 0.274510 0.937255
0.850980 0.274510 0.937255
0.689275 0.379530 0.759155
0.000000 0.825447 0.000000
0.000000 0.822336 0.000000
0.411326 0.816734 0.000000
0.744218 0.806602 0.000000
1.000000 0.788111 0.000000
0.917647 0.701961 0.031373
1.000000 0.687705 0.000000
1.000000 0.548469 0.000000
1.000000 0.042333 0.000000
1.000000 0.000000 0.000000
0.937255 0.266667 0.266667
0.937255 0.266667 0.266667
0.000000 1.000000 0.000000
0.000000 1.000000 0.000000
0.000000 1.000000 0.000000
0.000000 1.000000 0.000000
0.000000 1.000000 0.000000
0.064946 0.978906 0.002220
0.914483 0.702989 0.031264
0.917647 0.701961 0.031373
0.571162 1.000000 0.000000
1.000000 1.000000 0.000000
1.000000 1.000000 0.000000
1.000000 1.000000 0.000000
1.000000 0.927757 0.000000
1.000000 0.748001 0.000000
1.000000 0.110174 0.000000
0.937255 0.266667 0.266667
0.937255 0.266667 0.266667
0.000000 1.000000 0.000000
0.000000 1.000000 0.000000
0.000000 1.000000 0.000000
0.000000 1.000000 0.000000
0.000000 1.000000 0.000000
0.000000 1.000000 0.000000
0.000000 1.000000 0.000000
0.000000 1.000000 0.000000
0.000000 1.000000 0.000000
0.776904 1.000000 0.000000
1.000000 1.000000 0.000000
1.000000 1.000000 0.000000
1.000000 1.000000 0.000000
1.000000 1.000000 0.000000
1.000000 1.000000 0.000000
0.937255 0.266667 0.266667
0.937255 0.266667 0.266667
0.000000 1.000000 0.000000
0.000000 1.000000 0.000000
0.000000 1.000000 0.000000
0.000000 1.000000 0.000000
0.000000 1.000000 0.000000
0.000000 1.000000 0.000000
0.000000 1.000000 0.000000
0.000000 1.000000 0.000000
0.000000 1.000000 0.000000
0.000000 1.000000 0.000000
1.000000 1.000000 0.000000
1.000000 1.000000 0.000000
1.000000 1.000000 0.000000
1.000000 1.000000 0.000000
0.937255 0.266667 0.266667
0.937255 0.266667 0.266667
0.937255 0.266667 0.266667
0.000000 1.000000 0.000000
0.000000 1.000000 0.000000
0.000000 1.000000 0.000000
0.000000 1.000000 0.000000
0.000000 1.000000 0.000000
0.000000 1.000000 0.000000
0.000000 1.000000 0.000000
0.000000 1.000000 0.000000
0.000000 1.000000 0.000000
0.000000 1.000000 0.000000
0.000000 1.000000 0.000000
1.000000 1.000000 0.000000
1.000000 1.000000 0.000000
0.937255 0.266667 0.266667
0.937255 0.266667 0.266667
0.937255 0.266667 0.266667
0.937255 0.266667 0.266667
0.937255 0.266667 0.266667
0.937255 0.266667 0.266667
0.937255 0.266667 0.266667
0.937255 0.266667 0.266667
0.937255 0.266667 0.266667
0.937255 0.266667 0.266667
0.937255 0.266667 0.266667
0.937255 0.266667 0.266667
0.937255 0.266667 0.266667
0.937255 0.266667 0.266667
0.937255 0.266667 0.266667
0.937255 0.266667 0.266667
0.937255 0.266667 0.266667
0.937255 0.266667 0.266667
0.937255 0.266667 0.266667
0.937255 0.266667 0.266667
0.937255 0.266667 0.266667
0.937255 0.266667 0.266667
0.937255 0.266667 0.266667
0.937255 0.266667 0.266667
0.937255 0.266667 0.266667
0.937255 0.266667 0.266667
0.937255 0.266667 0.266667
0.937255 0.266667 0.266667
0.937255 0.266667 0.266667
0.937255 0.266667 0.266667
0.937255 0.266667 0.266667
0.937255 0.266667 0.266667
0.937255 0.266667 0.266667
0.937255 0.266667 0.266667
0.937255 0.266667 0.266667
0.937255 0.266667 0.266667
0.937255 0.266667 0.266667
0.937255 0.266667 0.266667
0.937255 0.266667 0.266667
0.937255 0.266667 0.266667
0.937255 0.266667 0.266667
0.937255 0.266667 0.266667
0.937255 0.266667 0.266667
0.937255 0.266667 0.266667
0.937255 0.266667 0.266667
0.937255 0.266667 0.266667
0.937255 0.266667 0.266667
0.937255 0.266667 0.266667
0.937255 0.266667 0.266667
0.937255 0.266667 0.266667
0.937255 0.266667 0.266667
0.937255 0.266667 0.266667
0.937255 0.266667 0.266667
0.937255 0.266667 0.266667
0.937255 0.266667 0.266667
0.937255 0.266667 0.266667
0.937255 0.266667 0.266667
0.937255 0.266667 0.266667
0.937255 0.266667 0.266667
0.937255 0.266667 0.266667
0.937255 0.266667 0.266667
0.937255 0.266667 0.266667
0.937255 0.266667 0.266667
0.937255 0.266667 0.266667
0.937255 0.266667 0.266667
0.937255 0.266667 0.266667
0.937255 0.266667 0.266667
0.937255 0.266667 0.266667
0.937255 0.266667 0.266667
0.937255 0.266667 0.266667
0.937255 0.266667 0.266667
0.937255 0.266667 0.266667
0.388235 0.400000 0.945098
0.388235 0.400000 0.945098
0.388235 0.400000 0.945098
0.388235 0.400000 0.945098
0.388235 0.400000 0.945098
0.356203 0.000000 0.043577
0.497851 0.000000 0.036739
0.680435 0.000000 0.024499
0.916644 0.000000 0.002590
0.133333 0.772549 0.368627
0.943645 0.103812 0.354442
1.000000 0.000000 0.000000
1.000000 0.000000 0.000000
1.000000 0.000000 0.000000
1.000000 0.000000 0.000000
0.937255 0.266667 0.266667
0.937255 0.266667 0.266667
0.388235 0.400000 0.945098
0.388235 0.400000 0.945098
0.388235 0.400000 0.945098
0.388235 0.400000 0.945098
0.232501 0.000000 0.035506
0.347004 0.000000 0.031686
0.491282 0.000000 0.024848
0.675709 0.000000 0.012607
0.913230 0.000000 0.000000
1.000000 0.000000 0.000000
0.850980 0.274510 0.937255
1.000000 0.000000 0.000000
1.000000 0.000000 0.000000
1.000000 0.000000 0.000000
1.000000 0.000000 0.000000
0.937255 0.266667 0.266667
0.937255 0.266667 0.266667
0.388235 0.400000 0.945098
0.000000 0.030685 0.028093
0.026987 0.026987 0.026987
0.117687 0.022844 0.025749
0.218767 0.015706 0.023614
0.337567 0.002930 0.019794
0.484622 0.000000 0.012956
0.670947 0.000000 0.000716
0.909802 0.000000 0.000000
1.000000 0.000000 0.000000
0.850980 0.274510 0.937255
1.000000 0.000000 0.000000
1.000000 0.000000 0.000000
1.000000 0.000000 0.000000
1.000000 0.000000 0.000000
0.937255 0.266667 0.266667
0.937255 0.266667 0.266667
0.000000 0.110161 0.015875
0.000000 0.107045 0.014769
0.000000 0.103871 0.013663
0.090383 0.100240 0.012425
0.202462 0.093789 0.010290
0.326687 0.081531 0.006470
0.240860 0.492372 0.927452
0.665569 0.017478 0.000000
0.905944 0.000000 0.000000
1.000000 0.000000 0.000000
0.850980 0.274510 0.937255
1.000000 0.000000 0.000000
1.000000 0.000000 0.000000
1.000000 0.000000 0.000000
1.000000 0.000000 0.000000
0.937255 0.266667 0.266667
0.937255 0.266667 0.266667
0.000000 0.199082 0.000000
0.000000 0.197072 0.000000
0.000000 0.195044 0.000000
0.036064 0.192752 0.000000
0.171512 0.188751 0.000000
0.291477 0.249171 0.199051
0.463707 0.167659 0.000000
0.023529 0.713725 0.831373
0.899254 0.079192 0.000000
1.000000 0.000000 0.000000
1.000000 0.000000 0.000000
1.000000 0.000000 0.000000
1.000000 0.000000 0.000000
1.000000 0.000000 0.000000
1.000000 0.000000 0.000000
0.937255 0.266667 0.266667
0.937255 0.266667 0.266667
0.000000 0.305928 0.000000
0.000000 0.304548 0.000000
0.000000 0.303162 0.000000
0.000000 0.301603 0.000000
0.101297 0.298898 0.000000
0.268820 0.294001 0.000000
0.023529 0.713725 0.831373
0.639047 0.268339 0.000000
0.887141 0.235861 0.000000
1.000000 0.165325 0.000000
1.000000 0.000000 0.000000
0.918521 0.694514 0.031040
1.000000 0.000000 0.000000
1.000000 0.000000 0.000000
1.000000 0.000000 0.000000
0.937255 0.266667 0.266667
0.937255 0.266667 0.266667
0.000000 0.439449 0.000000
0.000000 0.438476 0.000000
0.000000 0.437501 0.000000
0.000000 0.436405 0.000000
0.000000 0.434512 0.000000
0.184228 0.431103 0.000000
0.390325 0.424932 0.000000
0.507975 0.488733 0.077111
0.864994 0.392685 0.000000
1.000000 0.352132 0.000000
1.000000 0.265516 0.000000
0.917747 0.701111 0.031335
1.000000 0.000000 0.000000
1.000000 0.000000 0.000000
1.000000 0.000000 0.000000
0.937255 0.266667 0.266667
0.937255 0.266667 0.266667
0.000000 0.609417 0.000000
0.000000 0.608722 0.000000
0.000000 0.608025 0.000000
0.000000 0.607244 0.000000
0.000000 0.605896 0.000000
0.000000 0.603475 0.000000
0.284495 0.599115 0.000000
0.544937 0.591227 0.000000
0.823716 0.576826 0.000000
1.000000 0.550067 0.000000
1.000000 0.498467 0.000000
1.000000 0.389148 0.000000
1.000000 0.000000 0.000000
1.000000 0.000000 0.000000
1.000000 0.000000 0.000000
0.937255 0.266667 0.266667
0.937255 0.266667 0.266667
0.850980 0.274510 0.937255
0.850980 0.274510 0.937255
0.850980 0.274510 0.937255
0.850980 0.274510 0.937255
0.599927 0.437003 0.660749
0.000000 0.823567 0.000000
0.000000 0.820448 0.000000
0.410145 0.814832 0.000000
0.743579 0.804673 0.000000
1.000000 0.786133 0.000000
0.917647 0.701961 0.031373
1.000000 0.685413 0.000000
1.000000 0.545559 0.000000
1.000000 0.028498 0.000000
1.000000 0.000000 0.000000
0.937255 0.266667 0.266667
0.937255 0.266667 0.266667
0.000000 1.000000 0.000000
0.000000 1.000000 0.000000
0.000000 1.000000 0.000000
0.000000 1.000000 0.000000
0.000000 1.000000 0.000000
0.101886 0.966909 0.003483
0.917647 0.701961 0.031373
0.917647 0.701961 0.031373
0.570315 1.000000 0.000000
1.000000 1.000000 0.000000
1.000000 1.000000 0.000000
1.000000 1.000000 0.000000
1.000000 0.926103 0.000000
1.000000 0.745908 0.000000
1.000000 0.098208 0.000000
0.937255 0.266667 0.266667
0.937255 0.266667 0.266667
0.000000 1.000000 0.000000
0.000000 1.000000 0.000000
0.000000 1.000000 0.000000
0.000000 1.000000 0.000000
0.000000 1.000000 0.000000
0.000000 1.000000 0.000000
0.000000 1.000000 0.000000
0.000000 1.000000 0.000000
0.000000 1.000000 0.000000
0.776294 1.000000 0.000000
1.000000 1.000000 0.000000
1.000000 1.000000 0.000000
1.000000 1.000000 0.000000
1.000000 1.000000 0.000000
1.000000 1.000000 0.000000
0.937255 0.266667 0.266667
0.937255 0.266667 0.266667
0.000000 1.000000 0.000000
0.000000 1.000000 0.000000
0.000000 1.000000 0.000000
0.000000 1.000000 0.000000
0.000000 1.000000 0.000000
0.000000 1.000000 0.000000
0.000000 1.000000 0.000000
0.000000 1.000000 0.000000
0.000000 1.000000 0.000000
0.000000 1.000000 0.000000
1.000000 1.000000 0.000000
1.000000 1.000000 0.000000
1.000000 1.000000 0.000000
1.000000 1.000000 0.000000
0.937255 0.266667 0.266667
0.937255 0.266667 0.266667
0.937255 0.266667 0.266667
0.000000 1.000000 0.000000
0.000000 1.000000 0.000000
0.000000 1.000000 0.000000
0.000000 1.000000 0.000000
0.000000 1.000000 0.000000
0.000000 1.000000 0.000000
0.000000 1.000000 0.000000
0.000000 1.000000 0.000000
0.000000 1.000000 0.000000
0.000000 1.000000 0.000000
0.000000 1.000000 0.000000
1.000000 1.000000 0.000000
1.000000 1.000000 0.000000
0.937255 0.266667 0.266667
0.937255 0.266667 0.266667
0.937255 0.266667 0.266667
0.937255 0.266667 0.266667
0.937255 0.266667 0.266667
0.937255 0.266667 0.266667
0.937255 0.266667 0.266667
0.937255 0.266667 0.266667
0.937255 0.266667 0.266667
0.937255 0.266667 0.266667
0.937255 0.266667 0.266667
0.937255 0.266667 0.266667
0.937255 0.266667 0.266667
0.937255 0.266667 0.266667
0.937255 0.266667 0.266667
0.937255 0.266667 0.266667
0.937255 0.266667 0.266667
0.937255 0.266667 0.266667
0.937255 0.266667 0.266667
0.937255 0.266667 0.266667
0.937255 0.266667 0.266667
0.937255 0.266667 0.266667
0.937255 0.266667 0.266667
0.937255 0.266667 0.266667
0.937255 0.266667 0.266667
0.937255 0.266667 0.266667
0.937255 0.266667 0.266667
0.937255 0.266667 0.266667
0.937255 0.266667 0.266667
0.937255 0.266667 0.266667
0.937255 0.266667 0.266667
0.937255 0.266667 0.266667
0.937255 0.266667 0.266667
0.937255 0.266667 0.266667
0.937255 0.266667 0.266667
0.937255 0.266667 0.266667
0.937255 0.266667 0.266667
0.937255 0.266667 0.266667
0.937255 0.266667 0.266667
0.937255 0.266667 0.266667
0.937255 0.266667 0.266667
0.937255 0.266667 0.266667
0.937255 0.266667 0.266667
0.937255 0.266667 0.266667
0.937255 0.266667 0.266667
0.937255 0.266667 0.266667
0.937255 0.266667 0.266667
0.937255 0.266667 0.266667
0.937255 0.266667 0.266667
0.937255 0.266667 0.266667
0.937255 0.266667 0.266667
0.937255 0.266667 0.266667
0.937255 0.266667 0.266667
0.937255 0.266667 0.266667
0.937255 0.266667 0.266667
0.937255 0.266667 0.266667
0.937255 0.266667 0.266667
0.937255 0.266667 0.266667
0.937255 0.266667 0.266667
