luts/HybridMonitor_flog2.cube
# Hybrid Monitor LUT
# Profile  : Fuji F-Log2
# Cameras  : X-H2S, X-H2, GFX100S II
# Input    : Fuji F-Log2 log / F-Gamut
# Output   : Rec.709 base + narrow exposure tracer overlays
# Generator: hybrid_monitor_lut.py
#
# Base transform pipeline:
#   Log decode  →  F-Gamut → Rec.709 matrix  →  Rec.709 OETF
#
# Overlay zones (thin tracers over Rec.709 base):
#   #ef4444     white_clip      log 0.600 – 1.000
#   #eab308     +2 stops        log 0.529 – 0.539
#   #d946ef     +1 stops        log 0.457 – 0.467
#   #22c55e     +0 stops        log 0.386 – 0.396
#   #06b6d4     -1 stops        log 0.319 – 0.328
#   #3b82f6     -2 stops        log 0.257 – 0.265
#   #6366f1     black_clip      log 0.000 – 0.100
#   All other levels → standard Rec.709 color (no tracer)
#
TITLE "HybridMonitor Fuji F-Log2"
LUT_3D_SIZE 9
DOMAIN_MIN 0.0 0.0 0.0
DOMAIN_MAX 1.0 1.0 1.0
0.388235 0.400000 0.945098
0.388235 0.400000 0.945098
0.388235 0.400000 0.945098
0.501932 0.000000 0.000000
0.934847 0.000000 0.000000
0.850980 0.274510 0.937255
1.000000 0.000000 0.000000
0.937255 0.266667 0.266667
0.937255 0.266667 0.266667
0.388235 0.400000 0.945098
0.023296 0.019040 0.000000
0.219278 0.000000 0.000000
0.492938 0.000000 0.000000
0.930243 0.000000 0.000000
0.850980 0.274510 0.937255
1.000000 0.000000 0.000000
0.937255 0.266667 0.266667
0.937255 0.266667 0.266667
0.000000 0.175870 0.000000
0.000000 0.170902 0.000000
0.167659 0.158481 0.000000
0.470612 0.112099 0.000000
0.919075 0.000000 0.000000
1.000000 0.000000 0.000000
1.000000 0.000000 0.000000
0.937255 0.266667 0.266667
0.937255 0.266667 0.266667
0.000000 0.402645 0.000000
0.000000 0.400283 0.000000
0.000000 0.394550 0.000000
0.389756 0.375432 0.000000
0.881898 0.305946 0.000000
1.000000 0.000000 0.000000
1.000000 0.000000 0.000000
0.937255 0.266667 0.266667
0.937255 0.266667 0.266667
0.850980 0.274510 0.937255
0.846720 0.276980 0.932563
0.124290 0.693460 0.136891
0.000000 0.755637 0.000000
0.747826 0.724078 0.000000
0.917647 0.701961 0.031373
0.937255 0.266667 0.266667
0.937255 0.266667 0.266667
0.937255 0.266667 0.266667
0.000000 1.000000 0.000000
0.000000 1.000000 0.000000
0.000000 1.000000 0.000000
0.000000 1.000000 0.000000
0.001182 0.999075 0.000336
0.937255 0.266667 0.266667
0.937255 0.266667 0.266667
0.937255 0.266667 0.266667
0.937255 0.266667 0.266667
0.937255 0.266667 0.266667
0.937255 0.266667 0.266667
0.937255 0.266667 0.266667
0.937255 0.266667 0.266667
0.937255 0.266667 0.266667
0.937255 0.266667 0.266667
0.937255 0.266667 0.266667
0.937255 0.266667 0.266667
0.937255 0.266667 0.266667
0.937255 0.266667 0.266667
0.937255 0.266667 0.266667
0.937255 0.266667 0.266667
0.937255 0.266667 0.266667
0.937255 0.266667 0.266667
0.937255 0.266667 0.266667
0.937255 0.266667 0.266667
0.937255 0.266667 0.266667
0.937255 0.266667 0.266667
0.937255 0.266667 0.266667
0.937255 0.266667 0.266667
0.937255 0.266667 0.266667
0.937255 0.266667 0.266667
0.937255 0.266667 0.266667
0.937255 0.266667 0.266667
0.937255 0.266667 0.266667
0.937255 0.266667 0.266667
0.937255 0.266667 0.266667
0.388235 0.400000 0.945098
0.388235 0.400000 0.945098
0.235732 0.000000 0.022248
0.500826 0.000000 0.012944
0.934278 0.000000 0.000000
0.850980 0.274510 0.937255
1.000000 0.000000 0.000000
0.937255 0.266667 0.266667
0.937255 0.266667 0.266667
0.000000 0.026707 0.019687
0.018490 0.018490 0.018490
0.216865 0.000000 0.015612
0.491811 0.000000 0.006307
0.929671 0.000000 0.000000
0.850980 0.274510 0.937255
1.000000 0.000000 0.000000
0.937255 0.266667 0.266667
0.937255 0.266667 0.266667
0.000000 0.175541 0.003740
0.000000 0.170565 0.002543
0.164656 0.158124 0.000000
0.469431 0.111643 0.000000
0.918495 0.000000 0.000000
1.000000 0.000000 0.000000
1.000000 0.000000 0.000000
0.937255 0.266667 0.266667
0.937255 0.266667 0.266667
0.000000 0.402487 0.000000
0.000000 0.400124 0.000000
0.000000 0.394389 0.000000
0.388331 0.375263 0.000000
0.881291 0.305741 0.000000
1.000000 0.000000 0.000000
1.000000 0.000000 0.000000
0.937255 0.266667 0.266667
0.937255 0.266667 0.266667
0.850980 0.274510 0.937255
0.803311 0.302150 0.884752
0.045673 0.738706 0.050304
0.000000 0.755555 0.000000
0.747099 0.723992 0.000000
0.917647 0.701961 0.031373
0.937255 0.266667 0.266667
0.937255 0.266667 0.266667
0.937255 0.266667 0.266667
0.000000 1.000000 0.000000
0.000000 1.000000 0.000000
0.000000 1.000000 0.000000
0.000000 1.000000 0.000000
0.007016 0.994511 0.001996
0.937255 0.266667 0.266667
0.937255 0.266667 0.266667
0.937255 0.266667 0.266667
0.937255 0.266667 0.266667
0.937255 0.266667 0.266667
0.937255 0.266667 0.266667
0.937255 0.266667 0.266667
0.937255 0.266667 0.266667
0.937255 0.266667 0.266667
0.937255 0.266667 0.266667
0.937255 0.266667 0.266667
0.937255 0.266667 0.266667
0.937255 0.266667 0.266667
0.937255 0.266667 0.266667
0.937255 0.266667 0.266667
0.937255 0.266667 0.266667
0.937255 0.266667 0.266667
0.937255 0.266667 0.266667
0.937255 0.266667 0.266667
0.937255 0.266667 0.266667
0.937255 0.266667 0.266667
0.937255 0.266667 0.266667
0.937255 0.266667 0.266667
0.937255 0.266667 0.266667
0.937255 0.266667 0.266667
0.937255 0.266667 0.266667
0.937255 0.266667 0.266667
0.937255 0.266667 0.266667
0.937255 0.266667 0.266667
0.937255 0.266667 0.266667
0.937255 0.266667 0.266667
0.388235 0.400000 0.945098
0.388235 0.400000 0.945098
0.230249 0.000000 0.171489
0.498158 0.000000 0.165741
0.932908 0.000000 0.146018
0.850980 0.274510 0.937255
1.000000 0.000000 0.000000
0.937255 0.266667 0.266667
0.937255 0.266667 0.266667
0.000000 0.025384 0.169922
0.006939 0.017166 0.169185
0.210971 0.000000 0.167405
0.489093 0.000000 0.161546
0.928293 0.000000 0.141399
0.850980 0.274510 0.937255
1.000000 0.000000 0.000000
0.937255 0.266667 0.266667
0.937255 0.266667 0.266667
0.000000 0.174747 0.159901
0.000000 0.169753 0.159130
0.157263 0.157263 0.157263
0.466580 0.110544 0.151113
0.917099 0.000000 0.129828
1.000000 0.000000 0.040397
1.000000 0.000000 0.000000
0.937255 0.266667 0.266667
0.937255 0.266667 0.266667
0.000000 0.402107 0.123671
0.000000 0.399742 0.122742
0.000000 0.394001 0.120491
0.384887 0.374856 0.113012
0.879830 0.305247 0.086267
1.000000 0.000000 0.000000
1.000000 0.000000 0.000000
0.937255 0.266667 0.266667
0.937255 0.266667 0.266667
0.832226 0.285406 0.916599
0.565652 0.439888 0.622999
0.000000 0.764838 0.000000
0.000000 0.755357 0.000000
0.745349 0.723785 0.000000
0.917647 0.701961 0.031373
0.937255 0.266667 0.266667
0.937255 0.266667 0.266667
0.937255 0.266667 0.266667
0.000000 1.000000 0.000000
0.000000 1.000000 0.000000
0.000000 1.000000 0.000000
0.000000 1.000000 0.000000
0.039188 0.969338 0.011150
0.937255 0.266667 0.266667
0.937255 0.266667 0.266667
0.937255 0.266667 0.266667
0.937255 0.266667 0.266667
0.937255 0.266667 0.266667
0.937255 0.266667 0.266667
0.937255 0.266667 0.266667
0.937255 0.266667 0.266667
0.937255 0.266667 0.266667
0.937255 0.266667 0.266667
0.937255 0.266667 0.266667
0.937255 0.266667 0.266667
0.937255 0.266667 0.266667
0.937255 0.266667 0.266667
0.937255 0.266667 0.266667
0.937255 0.266667 0.266667
0.937255 0.266667 0.266667
0.937255 0.266667 0.266667
0.937255 0.266667 0.266667
0.937255 0.266667 0.266667
0.937255 0.266667 0.266667
0.937255 0.266667 0.266667
0.937255 0.266667 0.266667
0.937255 0.266667 0.266667
0.937255 0.266667 0.266667
0.937255 0.266667 0.266667
0.937255 0.266667 0.266667
0.937255 0.266667 0.266667
0.937255 0.266667 0.266667
0.937255 0.266667 0.266667
0.937255 0.266667 0.266667
0.000000 0.000000 0.399640
0.008367 0.000000 0.399294
0.211707 0.000000 0.398462
0.489430 0.000000 0.395758
0.928464 0.000000 0.386893
0.850980 0.274510 0.937255
1.000000 0.000000 0.236425
0.937255 0.266667 0.266667
0.937255 0.266667 0.266667
0.000000 0.021104 0.397719
0.000000 0.012886 0.397372
0.190903 0.000000 0.396536
0.231373 0.509804 0.964706
0.923825 0.000000 0.384910
0.928518 0.131678 0.634105
1.000000 0.000000 0.233297
0.937255 0.266667 0.266667
0.937255 0.266667 0.266667
0.000000 0.172160 0.393067
0.000000 0.167107 0.392715
0.146588 0.208592 0.479137
0.457243 0.106941 0.389121
0.912570 0.000000 0.380105
1.000000 0.000000 0.349424
1.000000 0.000000 0.225628
0.937255 0.266667 0.266667
0.937255 0.266667 0.266667
0.000000 0.400877 0.377643
0.000000 0.398505 0.377277
0.000000 0.392746 0.376397
0.373539 0.373539 0.373539
0.875088 0.303647 0.364150
1.000000 0.000000 0.332067
1.000000 0.000000 0.199164
0.937255 0.266667 0.266667
0.937255 0.266667 0.266667
0.036731 0.747009 0.349504
0.000000 0.767116 0.322566
0.000000 0.764207 0.321544
0.000000 0.754717 0.318220
0.739662 0.723114 0.307244
0.921547 0.697556 0.042624
0.937255 0.266667 0.266667
0.937255 0.266667 0.266667
0.937255 0.266667 0.266667
0.000000 1.000000 0.000000
0.000000 1.000000 0.000000
0.000000 1.000000 0.000000
0.000000 1.000000 0.000000
0.272284 0.786958 0.077470
0.937255 0.266667 0.266667
0.937255 0.266667 0.266667
0.937255 0.266667 0.266667
0.937255 0.266667 0.266667
0.937255 0.266667 0.266667
0.937255 0.266667 0.266667
0.937255 0.266667 0.266667
0.937255 0.266667 0.266667
0.937255 0.266667 0.266667
0.937255 0.266667 0.266667
0.937255 0.266667 0.266667
0.937255 0.266667 0.266667
0.937255 0.266667 0.266667
0.937255 0.266667 0.266667
0.937255 0.266667 0.266667
0.937255 0.266667 0.266667
0.937255 0.266667 0.266667
0.937255 0.266667 0.266667
0.937255 0.266667 0.266667
0.937255 0.266667 0.266667
0.937255 0.266667 0.266667
0.937255 0.266667 0.266667
0.937255 0.266667 0.266667
0.937255 0.266667 0.266667
0.937255 0.266667 0.266667
0.937255 0.266667 0.266667
0.937255 0.266667 0.266667
0.937255 0.266667 0.266667
0.937255 0.266667 0.266667
0.937255 0.266667 0.266667
0.937255 0.266667 0.266667
0.000000 0.000000 0.764235
0.000000 0.000000 0.764058
0.139489 0.000000 0.763633
0.460065 0.000000 0.762257
0.913932 0.000000 0.757789
1.000000 0.000000 0.743146
1.000000 0.000000 0.693521
0.937255 0.266667 0.266667
0.937255 0.266667 0.266667
0.000000 0.007266 0.763254
0.000000 0.000000 0.763077
0.109657 0.000000 0.762652
0.450226 0.000000 0.761274
0.909210 0.000000 0.756800
1.000000 0.000000 0.742136
1.000000 0.000000 0.692432
0.937255 0.266667 0.266667
0.937255 0.266667 0.266667
0.000000 0.163583 0.760893
0.000000 0.158322 0.760715
0.018961 0.145111 0.760288
0.425652 0.094726 0.758905
0.133333 0.772549 0.368627
1.000000 0.000000 0.739701
1.000000 0.000000 0.689809
0.937255 0.266667 0.266667
0.937255 0.266667 0.266667
0.000000 0.396874 0.753203
0.000000 0.394478 0.753024
0.000000 0.388662 0.752592
0.133333 0.772549 0.368627
0.859559 0.298417 0.746655
1.000000 0.000000 0.731771
1.000000 0.000000 0.681254
0.937255 0.266667 0.266667
0.937255 0.266667 0.266667
0.000000 0.766289 0.727741
0.000000 0.765079 0.727554
0.000000 0.762161 0.727106
0.000000 0.752643 0.725655
0.720942 0.720942 0.720942
1.000000 0.606337 0.705474
0.937255 0.266667 0.266667
0.937255 0.266667 0.266667
0.937255 0.266667 0.266667
0.000000 1.000000 0.637954
0.000000 1.000000 0.637740
0.000000 1.000000 0.637224
0.000000 1.000000 0.635553
0.937255 0.266667 0.266667
0.937255 0.266667 0.266667
0.937255 0.266667 0.266667
0.937255 0.266667 0.266667
0.937255 0.266667 0.266667
0.937255 0.266667 0.266667
0.937255 0.266667 0.266667
0.937255 0.266667 0.266667
0.937255 0.266667 0.266667
0.937255 0.266667 0.266667
0.937255 0.266667 0.266667
0.937255 0.266667 0.266667
0.937255 0.266667 0.266667
0.937255 0.266667 0.266667
0.937255 0.266667 0.266667
0.937255 0.266667 0.266667
0.937255 0.266667 0.266667
0.937255 0.266667 0.266667
0.937255 0.266667 0.266667
0.937255 0.266667 0.266667
0.937255 0.266667 0.266667
0.937255 0.266667 0.266667
0.937255 0.266667 0.266667
0.937255 0.266667 0.266667
0.937255 0.266667 0.266667
0.937255 0.266667 0.266667
0.937255 0.266667 0.266667
0.937255 0.266667 0.266667
0.937255 0.266667 0.266667
0.937255 0.266667 0.266667
0.937255 0.266667 0.266667
0.937255 0.266667 0.266667
0.000000 0.000000 1.000000
0.000000 0.000000 1.000000
0.000000 0.000000 1.000000
0.348723 0.000000 1.000000
0.865102 0.000000 1.000000
1.000000 0.000000 1.000000
1.000000 0.000000 1.000000
0.937255 0.266667 0.266667
0.937255 0.266667 0.266667
0.000000 0.000000 1.000000
0.000000 0.000000 1.000000
0.000000 0.000000 1.000000
0.335723 0.000000 1.000000
0.860085 0.000000 1.000000
1.000000 0.000000 1.000000
1.000000 0.000000 1.000000
0.937255 0.266667 0.266667
0.937255 0.266667 0.266667
0.000000 0.133161 1.000000
0.000000 0.127022 1.000000
0.000000 0.111366 1.000000
0.133333 0.772549 0.368627
0.847896 0.000000 1.000000
1.000000 0.000000 1.000000
0.999992 0.000036 0.999902
0.937255 0.266667 0.266667
0.937255 0.266667 0.266667
0.000000 0.383654 1.000000
0.000000 0.381177 1.000000
0.000000 0.375160 1.000000
0.158254 0.355037 1.000000
0.836963 0.276552 0.957303
1.000000 0.000000 1.000000
0.937255 0.266667 0.266667
0.937255 0.266667 0.266667
0.937255 0.266667 0.266667
0.000000 0.759673 1.000000
0.000000 0.758451 1.000000
0.000000 0.755505 1.000000
0.000000 0.745896 1.000000
0.656497 0.713872 1.000000
1.000000 0.597820 1.000000
0.937255 0.266667 0.266667
0.937255 0.266667 0.266667
0.937255 0.266667 0.266667
0.251953 0.802865 0.802865
0.368799 0.711442 0.711442
0.659328 0.484124 0.484124
0.937255 0.266667 0.266667
0.937255 0.266667 0.266667
0.937255 0.266667 0.266667
0.937255 0.266667 0.266667
0.937255 0.266667 0.266667
0.937255 0.266667 0.266667
0.937255 0.266667 0.266667
0.937255 0.266667 0.266667
0.937255 0.266667 0.266667
0.937255 0.266667 0.266667
0.937255 0.266667 0.266667
0.937255 0.266667 0.266667
0.937255 0.266667 0.266667
0.937255 0.266667 0.266667
0.937255 0.266667 0.266667
0.937255 0.266667 0.266667
0.937255 0.266667 0.266667
0.937255 0.266667 0.266667
0.937255 0.266667 0.266667
0.937255 0.266667 0.266667
0.937255 0.266667 0.266667
0.937255 0.266667 0.266667
0.937255 0.266667 0.266667
0.937255 0.266667 0.266667
0.937255 0.266667 0.266667
0.937255 0.266667 0.266667
0.937255 0.266667 0.266667
0.937255 0.266667 0.266667
0.937255 0.266667 0.266667
0.937255 0.266667 0.266667
0.937255 0.266667 0.266667
0.937255 0.266667 0.266667
0.937255 0.266667 0.266667
0.000000 0.000000 1.000000
0.000000 0.000000 1.000000
0.000000 0.000000 1.000000
0.000000 0.000000 1.000000
0.681204 0.000000 1.000000
0.972024 0.238458 0.670954
0.937255 0.266667 0.266667
0.937255 0.266667 0.266667
0.937255 0.266667 0.266667
0.000000 0.000000 1.000000
0.000000 0.000000 1.000000
0.000000 0.000000 1.000000
0.000000 0.000000 1.000000
0.674693 0.000000 1.000000
1.000000 0.000000 1.000000
0.937255 0.266667 0.266667
0.937255 0.266667 0.266667
0.937255 0.266667 0.266667
0.000000 0.000000 1.000000
0.000000 0.000000 1.000000
0.000000 0.000000 1.000000
0.000000 0.000000 1.000000
0.658769 0.000000 1.000000
1.000000 0.000000 1.000000
0.937255 0.266667 0.266667
0.937255 0.266667 0.266667
0.937255 0.266667 0.266667
0.000000 0.337519 1.000000
0.000000 0.334717 1.000000
0.000000 0.327890 1.000000
0.000000 0.304844 1.000000
0.604234 0.215979 1.000000
1.000000 0.000000 1.000000
0.937255 0.266667 0.266667
0.937255 0.266667 0.266667
0.937255 0.266667 0.266667
0.000000 0.737841 1.000000
0.000000 0.736580 1.000000
0.000000 0.733540 1.000000
0.000000 0.723615 1.000000
0.375055 0.690479 1.000000
1.000000 0.569369 1.000000
0.937255 0.266667 0.266667
0.937255 0.266667 0.266667
0.937255 0.266667 0.266667
0.937255 0.266667 0.266667
0.937255 0.266667 0.266667
0.937255 0.266667 0.266667
0.937255 0.266667 0.266667
0.937255 0.266667 0.266667
0.937255 0.266667 0.266667
0.937255 0.266667 0.266667
0.937255 0.266667 0.266667
0.937255 0.266667 0.266667
0.937255 0.266667 0.266667
0.937255 0.266667 0.266667
0.937255 0.266667 0.266667
0.937255 0.266667 0.266667
0.937255 0.266667 0.266667
0.937255 0.266667 0.266667
0.937255 0.266667 0.266667
0.937255 0.266667 0.266667
0.937255 0.266667 0.266667
0.937255 0.266667 0.266667
0.937255 0.266667 0.266667
0.937255 0.266667 0.266667
0.937255 0.266667 0.266667
0.937255 0.266667 0.266667
0.937255 0.266667 0.266667
0.937255 0.266667 0.266667
0.937255 0.266667 0.266667
0.937255 0.266667 0.266667
0.937255 0.266667 0.266667
0.937255 0.266667 0.266667
0.937255 0.266667 0.266667
0.937255 0.266667 0.266667
0.937255 0.266667 0.266667
0.937255 0.266667 0.266667
0.937255 0.266667 0.266667
0.937255 0.266667 0.266667
0.937255 0.266667 0.266667
0.000000 0.000000 1.000000
0.000000 0.000000 1.000000
0.000000 0.000000 1.000000
0.000000 0.000000 1.000000
0.937255 0.266667 0.266667
0.937255 0.266667 0.266667
0.937255 0.266667 0.266667
0.937255 0.266667 0.266667
0.937255 0.266667 0.266667
0.000000 0.000000 1.000000
0.000000 0.000000 1.000000
0.000000 0.000000 1.000000
0.006619 0.001883 0.994821
0.937255 0.266667 0.266667
0.937255 0.266667 0.266667
0.937255 0.266667 0.266667
0.937255 0.266667 0.266667
0.937255 0.266667 0.266667
0.000000 0.000000 1.000000
0.000000 0.000000 1.000000
0.015925 0.004531 0.987540
0.801878 0.228149 0.372589
0.937255 0.266667 0.266667
0.937255 0.266667 0.266667
0.937255 0.266667 0.266667
0.937255 0.266667 0.266667
0.937255 0.266667 0.266667
0.937255 0.266667 0.266667
0.937255 0.266667 0.266667
0.937255 0.266667 0.266667
0.937255 0.266667 0.266667
0.937255 0.266667 0.266667
0.937255 0.266667 0.266667
0.937255 0.266667 0.266667
0.937255 0.266667 0.266667
0.937255 0.266667 0.266667
0.937255 0.266667 0.266667
0.937255 0.266667 0.266667
0.937255 0.266667 0.266667
0.937255 0.266667 0.266667
0.937255 0.266667 0.266667
0.937255 0.266667 0.266667
0.937255 0.266667 0.266667
0.937255 0.266667 0.266667
0.937255 0.266667 0.266667
0.937255 0.266667 0.266667
0.937255 0.266667 0.266667
0.937255 0.266667 0.266667
0.937255 0.266667 0.266667
0.937255 0.266667 0.266667
0.937255 0.266667 0.266667
0.937255 0.266667 0.266667
0.937255 0.266667 0.266667
0.937255 0.266667 0.266667
0.937255 0.266667 0.266667
0.937255 0.266667 0.266667
0.937255 0.266667 0.266667
0.937255 0.266667 0.266667
0.937255 0.266667 0.266667
0.937255 0.266667 0.266667
0.937255 0.266667 0.266667
0.937255 0.266667 0.266667
0.937255 0.266667 0.266667
0.937255 0.266667 0.266667
0.937255 0.266667 0.266667
0.937255 0.266667 0.266667
0.937255 0.266667 0.266667
0.937255 0.266667 0.266667
0.937255 0.266667 0.266667
0.937255 0.266667 0.266667
0.937255 0.266667 0.266667
0.937255 0.266667 0.266667
0.937255 0.266667 0.266667
0.937255 0.266667 0.266667
0.937255 0.266667 0.266667
0.937255 0.266667 0.266667
0.937255 0.266667 0.266667
0.937255 0.266667 0.266667
0.937255 0.266667 0.266667
0.937255 0.266667 0.266667
0.937255 0.266667 0.266667
0.937255 0.266667 0.266667
0.937255 0.266667 0.266667
0.937255 0.266667 0.266667
0.937255 0.266667 0.266667
0.937255 0.266667 0.266667
0.937255 0.266667 0.266667
0.937255 0.266667 0.266667
0.937255 0.266667 0.266667
0.937255 0.266667 0.266667
0.937255 0.266667 0.266667
0.937255 0.266667 0.266667
0.937255 0.266667 0.266667
0.937255 0.266667 0.266667
0.937255 0.266667 0.266667
0.937255 0.266667 0.266667
0.937255 0.266667 0.266667
0.937255 0.266667 0.266667
0.937255 0.266667 0.266667
0.937255 0.266667 0.266667
0.937255 0.266667 0.266667
0.937255 0.266667 0.266667
0.937255 0.266667 0.266667
0.937255 0.266667 0.266667
0.937255 0.266667 0.266667
0.937255 0.266667 0.266667
0.937255 0.266667 0.266667
0.937255 0.266667 0.266667
0.937255 0.266667 0.266667
0.937255 0.266667 0.266667
0.937255 0.266667 0.266667
0.937255 0.266667 0.266667
0.937255 0.266667 0.266667
0.937255 0.266667 0.266667
0.937255 0.266667 0.266667
0.937255 0.266667 0.266667
0.937255 0.266667 0.266667
0.937255 0.266667 0.266667
0.937255 0.266667 0.266667
0.937255 0.266667 0.266667
0.937255 0.266667 0.266667
0.937255 0.266667 0.266667
0.937255 0.266667 0.266667
0.937255 0.266667 0.266667
0.937255 0.266667 0.266667
0.937255 0.266667 0.266667
0.937255 0.266667 0.266667
0.937255 0.266667 0.266667
0.937255 0.266667 0.266667
0.937255 0.266667 0.266667
0.937255 0.266667 0.266667
0.937255 0.266667 0.266667
0.937255 0.266667 0.266667
0.937255 0.266667 0.266667
0.937255 0.266667 0.266667
0.937255 0.266667 0.266667
0.937255 0.266667 0.266667
0.937255 0.266667 0.266667
0.937255 0.266667 0.266667
0.937255 0.266667 0.266667
0.937255 0.266667 0.266667
0.937255 0.266667 0.266667
0.937255 0.266667 0.266667
0.937255 0.266667 0.266667
0.937255 0.266667 0.266667
0.937255 0.266667 0.266667
0.937255 0.266667 0.266667
0.937255 0.266667 0.266667
0.937255 0.266667 0.266667
0.937255 0.266667 0.266667
0.937255 0.266667 0.266667
0.937255 0.266667 0.266667
0.937255 0.266667 0.266667
0.937255 0.266667 0.266667
0.937255 0.266667 0.266667
0.937255 0.266667 0.266667
0.937255 0.266667 0.266667
0.937255 0.266667 0.266667
0.937255 0.266667 0.266667
0.937255 0.266667 0.266667
0.937255 0.266667 0.266667
0.968627 0.633333 0.633333
