luts/HybridMonitor_slog3.cube
# Hybrid Monitor LUT
# Profile  : Sony S-Log3
# Cameras  : A7S III, A7 IV, FX3, FX6, FX9, ZV-E1, Venice
# Input    : Sony S-Log3 log / S-Gamut3.Cine
# Output   : Rec.709 base + narrow exposure tracer overlays
# Generator: hybrid_monitor_lut.py
#
# Base transform pipeline:
#   Log decode  →  S-Gamut3.Cine → Rec.709 matrix  →  Rec.709 OETF
#
# Overlay zones (thin tracers over Rec.709 base):
#   #ef4444     white_clip      log 0.760 – 1.000
#   #eab308     +2 stops        log 0.555 – 0.565
#   #d946ef     +1 stops        log 0.479 – 0.490
#   #22c55e     +0 stops        log 0.405 – 0.416
#   #06b6d4     -1 stops        log 0.334 – 0.344
#   #3b82f6     -2 stops        log 0.269 – 0.277
#   #6366f1     black_clip      log 0.000 – 0.100
#   All other levels → standard Rec.709 color (no tracer)
#
TITLE "HybridMonitor Sony S-Log3"
LUT_3D_SIZE 5
DOMAIN_MIN 0.0 0.0 0.0
DOMAIN_MAX 1.0 1.0 1.0
0.388235 0.400000 0.945098
0.388235 0.400000 0.945098
0.827591 0.000000 0.000000
1.000000 0.000000 0.000000
0.937255 0.266667 0.266667
0.000000 0.199238 0.000000
0.156161 0.177038 0.000000
0.811373 0.000000 0.000000
1.000000 0.000000 0.000000
0.937255 0.266667 0.266667
0.000000 0.770812 0.000000
0.000000 0.765059 0.000000
0.670199 0.718454 0.000000
1.000000 0.000000 0.000000
0.937255 0.266667 0.266667
0.000000 1.000000 0.000000
0.000000 1.000000 0.000000
0.000000 1.000000 0.000000
1.000000 1.000000 0.000000
0.937255 0.266667 0.266667
0.937255 0.266667 0.266667
0.937255 0.266667 0.266667
0.937255 0.266667 0.266667
0.937255 0.266667 0.266667
0.937255 0.266667 0.266667
0.388235 0.400000 0.945098
0.388235 0.400000 0.945098
0.825008 0.000000 0.118687
1.000000 0.000000 0.000000
0.937255 0.266667 0.266667
0.000000 0.168944 0.149982
0.143294 0.143294 0.143294
0.808733 0.000000 0.080216
1.000000 0.000000 0.000000
0.937255 0.266667 0.266667
0.000000 0.763086 0.000000
0.000000 0.757270 0.000000
0.666953 0.710112 0.000000
1.000000 0.000000 0.000000
0.937255 0.266667 0.266667
0.000000 1.000000 0.000000
0.000000 1.000000 0.000000
0.000000 1.000000 0.000000
1.000000 1.000000 0.000000
0.937255 0.266667 0.266667
0.937255 0.266667 0.266667
0.937255 0.266667 0.266667
0.937255 0.266667 0.266667
0.937255 0.266667 0.266667
0.937255 0.266667 0.266667
0.000000 0.000000 0.718738
0.121031 0.000000 0.717198
0.804538 0.000000 0.705058
1.000000 0.000000 0.576105
0.937255 0.266667 0.266667
0.000000 0.000000 0.711923
0.007657 0.000000 0.710367
0.787802 0.000000 0.698100
1.000000 0.000000 0.567467
0.937255 0.266667 0.266667
0.000000 0.699622 0.656128
0.000000 0.693232 0.654431
0.641020 0.641020 0.641020
1.000000 0.000000 0.494707
0.937255 0.266667 0.266667
0.000000 1.000000 0.000000
0.000000 1.000000 0.000000
0.000000 1.000000 0.000000
1.000000 1.000000 0.000000
0.937255 0.266667 0.266667
0.937255 0.266667 0.266667
0.937255 0.266667 0.266667
0.937255 0.266667 0.266667
0.937255 0.266667 0.266667
0.937255 0.266667 0.266667
0.000000 0.000000 1.000000
0.000000 0.000000 1.000000
0.850980 0.274510 0.937255
1.000000 0.000000 1.000000
0.937255 0.266667 0.266667
0.000000 0.000000 1.000000
0.000000 0.000000 1.000000
0.546756 0.000000 1.000000
1.000000 0.000000 1.000000
0.937255 0.266667 0.266667
0.000000 0.000000 1.000000
0.000000 0.000000 1.000000
0.293107 0.000000 1.000000
1.000000 0.000000 1.000000
0.937255 0.266667 0.266667
0.000000 1.000000 1.000000
0.000000 1.000000 1.000000
0.000000 1.000000 1.000000
1.000000 1.000000 1.000000
0.937255 0.266667 0.266667
0.937255 0.266667 0.266667
0.937255 0.266667 0.266667
0.937255 0.266667 0.266667
0.937255 0.266667 0.266667
0.937255 0.266667 0.266667
0.000000 0.000000 1.000000
0.000000 0.000000 1.000000
0.000000 0.000000 1.000000
1.000000 0.000000 1.000000
0.937255 0.266667 0.266667
0.000000 0.000000 1.000000
0.000000 0.000000 1.000000
0.000000 0.000000 1.000000
1.000000 0.000000 1.000000
0.937255 0.266667 0.266667
0.000000 0.000000 1.000000
0.000000 0.000000 1.000000
0.000000 0.000000 1.000000
1.000000 0.000000 1.000000
0.937255 0.266667 0.266667
0.937255 0.266667 0.266667
0.937255 0.266667 0.266667
0.937255 0.266667 0.266667
0.937255 0.266667 0.266667
0.937255 0.266667 0.266667
0.937255 0.266667 0.266667
0.937255 0.266667 0.266667
0.937255 0.266667 0.266667
0.937255 0.266667 0.266667
0.968627 0.633333 0.633333
