luts/HybridMonitor_nlog.cube
# Hybrid Monitor LUT
# Profile  : Nikon N-Log
# Cameras  : Z6, Z7, Z6II, Z7II, Z8, Z9
# Input    : Nikon N-Log log / N-Gamut
# Output   : Rec.709 base + narrow exposure tracer overlays
# Generator: hybrid_monitor_lut.py
#
# Base transform pipeline:
#   Log decode  →  N-Gamut → Rec.709 matrix  →  Rec.709 OETF
#
# Overlay zones (thin tracers over Rec.709 base):
#   #ef4444     white_clip      log 0.720 – 1.000
#   #eab308     +2 stops        log 0.550 – 0.564
#   #d946ef     +1 stops        log 0.448 – 0.462
#   #22c55e     +0 stops        log 0.358 – 0.369
#   #06b6d4     -1 stops        log 0.288 – 0.297
#   #3b82f6     -2 stops        log 0.235 – 0.241
#   #6366f1     black_clip      log 0.000 – 0.130
#   All other levels → standard Rec.709 color (no tracer)
#
TITLE "HybridMonitor Nikon N-Log"
LUT_3D_SIZE 9
DOMAIN_MIN 0.0 0.0 0.0
DOMAIN_MAX 1.0 1.0 1.0
0.388235 0.400000 0.945098
0.388235 0.400000 0.945098
0.279587 0.000000 0.000000
0.571817 0.000000 0.000000
0.903846 0.000000 0.000000
1.000000 0.000000 0.000000
1.000000 0.000000 0.000000
1.000000 0.000000 0.000000
0.937255 0.266667 0.266667
0.388235 0.400000 0.945098
0.388235 0.400000 0.945098
0.271337 0.000000 0.000000
0.567756 0.000000 0.000000
0.901368 0.000000 0.000000
1.000000 0.000000 0.000000
1.000000 0.000000 0.000000
1.000000 0.000000 0.000000
0.937255 0.266667 0.266667
0.000000 0.214340 0.000000
0.000000 0.212157 0.000000
0.205814 0.196318 0.000000
0.538441 0.146926 0.000000
0.883803 0.000000 0.000000
1.000000 0.000000 0.000000
1.000000 0.000000 0.000000
1.000000 0.000000 0.000000
0.937255 0.266667 0.266667
0.000000 0.463119 0.000000
0.000000 0.462053 0.000000
0.000000 0.454525 0.000000
0.133333 0.772549 0.368627
0.834076 0.387685 0.000000
1.000000 0.257227 0.000000
0.917647 0.701961 0.031373
1.000000 0.000000 0.000000
0.937255 0.266667 0.266667
0.841931 0.279499 0.927288
0.850980 0.274510 0.937255
0.850980 0.274510 0.937255
0.166225 0.725959 0.000000
0.723023 0.700075 0.000000
1.000000 0.637328 0.000000
1.000000 0.455546 0.000000
1.000000 0.000000 0.000000
0.937255 0.266667 0.266667
0.000000 1.000000 0.000000
0.000000 1.000000 0.000000
0.000000 1.000000 0.000000
0.000000 1.000000 0.000000
0.352279 1.000000 0.000000
1.000000 1.000000 0.000000
1.000000 0.981589 0.000000
1.000000 0.714789 0.000000
0.937255 0.266667 0.266667
0.000000 1.000000 0.000000
0.000000 1.000000 0.000000
0.000000 1.000000 0.000000
0.000000 1.000000 0.000000
0.000000 1.000000 0.000000
0.562620 1.000000 0.000000
0.937255 0.266667 0.266667
0.937255 0.266667 0.266667
0.937255 0.266667 0.266667
0.937255 0.266667 0.266667
0.937255 0.266667 0.266667
0.937255 0.266667 0.266667
0.937255 0.266667 0.266667
0.937255 0.266667 0.266667
0.937255 0.266667 0.266667
0.937255 0.266667 0.266667
0.937255 0.266667 0.266667
0.937255 0.266667 0.266667
0.937255 0.266667 0.266667
0.937255 0.266667 0.266667
0.937255 0.266667 0.266667
0.937255 0.266667 0.266667
0.937255 0.266667 0.266667
0.937255 0.266667 0.266667
0.937255 0.266667 0.266667
0.937255 0.266667 0.266667
0.937255 0.266667 0.266667
0.388235 0.400000 0.945098
0.388235 0.400000 0.945098
0.278576 0.000000 0.000000
0.571315 0.000000 0.000000
0.903539 0.000000 0.000000
1.000000 0.000000 0.000000
1.000000 0.000000 0.000000
1.000000 0.000000 0.000000
0.937255 0.266667 0.266667
0.388235 0.400000 0.945098
0.388235 0.400000 0.945098
0.270299 0.000000 0.000000
0.567250 0.000000 0.000000
0.901060 0.000000 0.000000
1.000000 0.000000 0.000000
1.000000 0.000000 0.000000
1.000000 0.000000 0.000000
0.937255 0.266667 0.266667
0.000000 0.214195 0.000000
0.000000 0.212010 0.000000
0.204495 0.196161 0.000000
0.537907 0.146730 0.000000
0.883489 0.000000 0.000000
1.000000 0.000000 0.000000
1.000000 0.000000 0.000000
1.000000 0.000000 0.000000
0.937255 0.266667 0.266667
0.000000 0.463048 0.000000
0.000000 0.461982 0.000000
0.000000 0.454452 0.000000
0.133333 0.772549 0.368627
0.833741 0.387599 0.000000
1.000000 0.257102 0.000000
0.917647 0.701961 0.031373
1.000000 0.000000 0.000000
0.937255 0.266667 0.266667
0.850945 0.274529 0.937216
0.850980 0.274510 0.937255
0.850980 0.274510 0.937255
0.164660 0.725915 0.000000
0.722632 0.700029 0.000000
1.000000 0.637277 0.000000
1.000000 0.455474 0.000000
1.000000 0.000000 0.000000
0.937255 0.266667 0.266667
0.000000 1.000000 0.000000
0.000000 1.000000 0.000000
0.000000 1.000000 0.000000
0.000000 1.000000 0.000000
0.351464 1.000000 0.000000
1.000000 1.000000 0.000000
1.000000 0.981557 0.000000
1.000000 0.714744 0.000000
0.937255 0.266667 0.266667
0.000000 1.000000 0.000000
0.000000 1.000000 0.000000
0.000000 1.000000 0.000000
0.000000 1.000000 0.000000
0.000000 1.000000 0.000000
0.562110 1.000000 0.000000
0.937255 0.266667 0.266667
0.937255 0.266667 0.266667
0.937255 0.266667 0.266667
0.937255 0.266667 0.266667
0.937255 0.266667 0.266667
0.937255 0.266667 0.266667
0.937255 0.266667 0.266667
0.937255 0.266667 0.266667
0.937255 0.266667 0.266667
0.937255 0.266667 0.266667
0.937255 0.266667 0.266667
0.937255 0.266667 0.266667
0.937255 0.266667 0.266667
0.937255 0.266667 0.266667
0.937255 0.266667 0.266667
0.937255 0.266667 0.266667
0.937255 0.266667 0.266667
0.937255 0.266667 0.266667
0.937255 0.266667 0.266667
0.937255 0.266667 0.266667
0.937255 0.266667 0.266667
0.388235 0.400000 0.945098
0.388235 0.400000 0.945098
0.271406 0.000000 0.209787
0.567790 0.000000 0.203582
0.901388 0.000000 0.190639
1.000000 0.000000 0.158358
1.000000 0.000000 0.052839
1.000000 0.000000 0.000000
0.937255 0.266667 0.266667
0.000000 0.002778 0.210579
0.000000 0.000000 0.210257
0.262927 0.000000 0.207993
0.231373 0.509804 0.964706
0.898902 0.000000 0.188698
1.000000 0.000000 0.156113
1.000000 0.000000 0.049393
1.000000 0.000000 0.000000
0.937255 0.266667 0.266667
0.000000 0.213172 0.197785
0.000000 0.210978 0.197446
0.195061 0.195061 0.195061
0.534153 0.145353 0.188465
0.881284 0.000000 0.174639
1.000000 0.000000 0.139669
1.000000 0.000000 0.025269
1.000000 0.000000 0.000000
0.937255 0.266667 0.266667
0.000000 0.462548 0.159087
0.000000 0.461481 0.158685
0.000000 0.453943 0.155850
0.180058 0.721434 0.335425
0.831391 0.387003 0.131093
1.000000 0.256229 0.085862
0.917647 0.701961 0.031373
1.000000 0.000000 0.000000
0.937255 0.266667 0.266667
0.850980 0.274510 0.937255
0.850980 0.274510 0.937255
0.850980 0.274510 0.937255
0.153374 0.725602 0.031673
0.719886 0.699704 0.007962
1.000000 0.636918 0.000000
1.000000 0.454966 0.000000
1.000000 0.000000 0.000000
0.937255 0.266667 0.266667
0.000000 1.000000 0.000000
0.000000 1.000000 0.000000
0.000000 1.000000 0.000000
0.000000 1.000000 0.000000
0.345708 1.000000 0.000000
1.000000 1.000000 0.000000
1.000000 0.981332 0.000000
1.000000 0.714426 0.000000
0.937255 0.266667 0.266667
0.000000 1.000000 0.000000
0.000000 1.000000 0.000000
0.000000 1.000000 0.000000
0.000000 1.000000 0.000000
0.000000 1.000000 0.000000
0.563813 0.989759 0.003724
0.937255 0.266667 0.266667
0.937255 0.266667 0.266667
0.937255 0.266667 0.266667
0.937255 0.266667 0.266667
0.937255 0.266667 0.266667
0.937255 0.266667 0.266667
0.937255 0.266667 0.266667
0.937255 0.266667 0.266667
0.937255 0.266667 0.266667
0.937255 0.266667 0.266667
0.937255 0.266667 0.266667
0.937255 0.266667 0.266667
0.937255 0.266667 0.266667
0.937255 0.266667 0.266667
0.937255 0.266667 0.266667
0.937255 0.266667 0.266667
0.937255 0.266667 0.266667
0.937255 0.266667 0.266667
0.937255 0.266667 0.266667
0.937255 0.266667 0.266667
0.937255 0.266667 0.266667
0.000000 0.000000 0.459838
0.000000 0.000000 0.459682
0.251032 0.000000 0.458587
0.558104 0.000000 0.455601
0.895520 0.000000 0.449549
1.000000 0.000000 0.435540
1.000000 0.000000 0.400780
1.000000 0.000000 0.304630
0.937255 0.266667 0.266667
0.000000 0.000000 0.458972
0.000000 0.000000 0.458815
0.241929 0.000000 0.457718
0.553939 0.000000 0.454726
0.893016 0.000000 0.448663
1.000000 0.000000 0.434625
1.000000 0.000000 0.399787
1.000000 0.000000 0.303340
0.937255 0.266667 0.266667
0.000000 0.210375 0.452860
0.000000 0.208157 0.452701
0.167369 0.192050 0.451589
0.314055 0.381466 0.609068
0.875268 0.000000 0.442409
1.000000 0.000000 0.428167
1.000000 0.000000 0.392764
1.000000 0.000000 0.294158
0.937255 0.266667 0.266667
0.000000 0.461189 0.435839
0.000000 0.460119 0.435674
0.000000 0.452557 0.434519
0.431366 0.431366 0.431366
0.824975 0.385381 0.424970
1.000000 0.253843 0.410128
0.917647 0.701961 0.031373
1.000000 0.000000 0.267808
0.937255 0.266667 0.266667
0.850980 0.274510 0.937255
0.850980 0.274510 0.937255
0.748157 0.330430 0.872107
0.119082 0.724753 0.394640
0.712376 0.698821 0.387649
1.000000 0.635942 0.371352
1.000000 0.453583 0.330122
1.000000 0.000000 0.206394
0.937255 0.266667 0.266667
0.000000 1.000000 0.302185
0.000000 1.000000 0.301951
0.000000 1.000000 0.300306
0.000000 1.000000 0.295799
0.329604 1.000000 0.286560
1.000000 1.000000 0.264578
1.000000 0.980722 0.205265
0.995646 0.682550 0.018505
0.937255 0.266667 0.266667
0.000000 1.000000 0.000000
0.000000 1.000000 0.000000
0.000000 1.000000 0.000000
0.000000 1.000000 0.000000
0.000000 1.000000 0.000000
0.626629 0.852875 0.053500
0.937255 0.266667 0.266667
0.937255 0.266667 0.266667
0.937255 0.266667 0.266667
0.937255 0.266667 0.266667
0.937255 0.266667 0.266667
0.937255 0.266667 0.266667
0.937255 0.266667 0.266667
0.937255 0.266667 0.266667
0.937255 0.266667 0.266667
0.937255 0.266667 0.266667
0.937255 0.266667 0.266667
0.937255 0.266667 0.266667
0.937255 0.266667 0.266667
0.937255 0.266667 0.266667
0.937255 0.266667 0.266667
0.937255 0.266667 0.266667
0.937255 0.266667 0.266667
0.937255 0.266667 0.266667
0.937255 0.266667 0.266667
0.937255 0.266667 0.266667
0.937255 0.266667 0.266667
0.000000 0.000000 0.738881
0.000000 0.000000 0.738786
0.205030 0.000000 0.738119
0.538124 0.000000 0.736305
0.883616 0.000000 0.732651
1.000000 0.000000 0.724307
1.000000 0.000000 0.704319
1.000000 0.000000 0.654872
0.937255 0.266667 0.266667
0.000000 0.000000 0.738353
0.000000 0.000000 0.738258
0.230705 0.500656 0.960631
0.533797 0.000000 0.735775
0.881075 0.000000 0.732119
1.000000 0.000000 0.723768
1.000000 0.000000 0.703764
1.000000 0.000000 0.654271
0.937255 0.266667 0.266667
0.000000 0.204667 0.734647
0.000000 0.202398 0.734551
0.094255 0.206785 0.737739
0.502439 0.133734 0.732055
0.133333 0.772549 0.368627
1.000000 0.000000 0.719981
1.000000 0.000000 0.699860
1.000000 0.000000 0.650050
0.937255 0.266667 0.266667
0.133333 0.772549 0.368627
0.133333 0.772549 0.368627
0.091926 0.672306 0.478899
0.405093 0.428436 0.721853
0.811934 0.382104 0.718120
1.000000 0.248997 0.709592
0.921593 0.668322 0.062894
1.000000 0.000000 0.638443
0.937255 0.266667 0.266667
0.001074 0.740278 0.703909
0.000000 0.740215 0.703514
0.000000 0.735635 0.702811
0.028534 0.723046 0.700899
0.697045 0.697045 0.697045
1.000000 0.633978 0.688237
1.000000 0.450797 0.667090
1.000000 0.000000 0.614453
0.937255 0.266667 0.266667
0.000000 1.000000 0.653735
0.000000 1.000000 0.653627
0.000000 1.000000 0.652866
0.000000 1.000000 0.650798
0.294830 1.000000 0.646625
1.000000 1.000000 0.637074
1.000000 0.979496 0.614054
0.959699 0.425900 0.370210
0.937255 0.266667 0.266667
0.000000 1.000000 0.517022
0.000000 1.000000 0.516883
0.000000 1.000000 0.515912
0.000000 1.000000 0.513264
0.000000 1.000000 0.507909
0.859776 0.405608 0.310036
0.937255 0.266667 0.266667
0.937255 0.266667 0.266667
0.937255 0.266667 0.266667
0.937255 0.266667 0.266667
0.937255 0.266667 0.266667
0.937255 0.266667 0.266667
0.937255 0.266667 0.266667
0.937255 0.266667 0.266667
0.937255 0.266667 0.266667
0.937255 0.266667 0.266667
0.937255 0.266667 0.266667
0.937255 0.266667 0.266667
0.937255 0.266667 0.266667
0.937255 0.266667 0.266667
0.937255 0.266667 0.266667
0.937255 0.266667 0.266667
0.937255 0.266667 0.266667
0.937255 0.266667 0.266667
0.937255 0.266667 0.266667
0.937255 0.266667 0.266667
0.937255 0.266667 0.266667
0.000000 0.000000 1.000000
0.000000 0.000000 1.000000
0.023529 0.713725 0.831373
0.489800 0.000000 1.000000
0.133333 0.772549 0.368627
1.000000 0.000000 1.000000
1.000000 0.000000 1.000000
1.000000 0.000000 1.000000
0.937255 0.266667 0.266667
0.000000 0.000000 1.000000
0.000000 0.000000 1.000000
0.023455 0.492201 0.883711
0.485032 0.000000 1.000000
0.137760 0.767799 0.372509
1.000000 0.000000 1.000000
1.000000 0.000000 1.000000
1.000000 0.000000 1.000000
0.937255 0.266667 0.266667
0.000000 0.191236 1.000000
0.000000 0.188837 1.000000
0.000000 0.171305 1.000000
0.450226 0.114697 1.000000
0.834690 0.000000 1.000000
0.850980 0.274510 0.937255
0.924327 0.645021 0.109944
1.000000 0.000000 1.000000
0.937255 0.266667 0.266667
0.000000 0.452186 1.000000
0.000000 0.451094 1.000000
0.000000 0.443379 1.000000
0.338377 0.421728 1.000000
0.781537 0.374585 1.000000
1.000000 0.237710 1.000000
1.000000 0.000000 1.000000
1.000000 0.000000 1.000000
0.937255 0.266667 0.266667
0.000000 0.737087 1.000000
0.000000 0.736432 1.000000
0.000000 0.731826 1.000000
0.000000 0.719165 1.000000
0.660935 0.693008 1.000000
1.000000 0.629510 1.000000
1.000000 0.444426 1.000000
1.000000 0.000000 1.000000
0.937255 0.266667 0.266667
0.000000 1.000000 1.000000
0.000000 1.000000 1.000000
0.000000 1.000000 1.000000
0.000000 1.000000 1.000000
0.197397 1.000000 1.000000
1.000000 1.000000 1.000000
1.000000 0.976715 1.000000
0.937255 0.266667 0.266667
0.937255 0.266667 0.266667
0.000000 1.000000 1.000000
0.000000 1.000000 1.000000
0.000000 1.000000 1.000000
0.000000 1.000000 1.000000
0.000000 1.000000 1.000000
0.937255 0.266667 0.266667
0.937255 0.266667 0.266667
0.937255 0.266667 0.266667
0.937255 0.266667 0.266667
0.937255 0.266667 0.266667
0.937255 0.266667 0.266667
0.937255 0.266667 0.266667
0.937255 0.266667 0.266667
0.937255 0.266667 0.266667
0.937255 0.266667 0.266667
0.937255 0.266667 0.266667
0.937255 0.266667 0.266667
0.937255 0.266667 0.266667
0.937255 0.266667 0.266667
0.937255 0.266667 0.266667
0.937255 0.266667 0.266667
0.937255 0.266667 0.266667
0.937255 0.266667 0.266667
0.937255 0.266667 0.266667
0.937255 0.266667 0.266667
0.937255 0.266667 0.266667
0.937255 0.266667 0.266667
0.127517 0.738847 0.396171
0.078444 0.454517 0.628542
0.000000 0.000000 1.000000
0.351151 0.000000 1.000000
0.787044 0.000000 1.000000
1.000000 0.000000 1.000000
0.981341 0.159047 0.780532
1.000000 0.000000 1.000000
0.937255 0.266667 0.266667
0.000000 0.000000 1.000000
0.000000 0.000000 1.000000
0.000000 0.000000 1.000000
0.344504 0.000000 1.000000
0.784159 0.000000 1.000000
1.000000 0.000000 1.000000
0.999385 0.005242 0.992766
1.000000 0.000000 1.000000
0.937255 0.266667 0.266667
0.000000 0.156293 1.000000
0.000000 0.153481 1.000000
0.000000 0.132620 1.000000
0.294071 0.060333 1.000000
0.763634 0.000000 1.000000
1.000000 0.000000 1.000000
1.000000 0.000000 1.000000
1.000000 0.000000 1.000000
0.937255 0.266667 0.266667
0.000000 0.437143 1.000000
0.000000 0.436014 1.000000
0.837008 0.277031 0.938285
0.478336 0.337487 0.967406
0.704658 0.356351 1.000000
1.000000 0.209229 1.000000
1.000000 0.000000 1.000000
1.000000 0.000000 1.000000
0.937255 0.266667 0.266667
0.000000 0.728139 1.000000
0.000000 0.727475 1.000000
0.000000 0.722808 1.000000
0.000000 0.709974 1.000000
0.566695 0.683440 1.000000
1.000000 0.618897 1.000000
1.000000 0.429112 1.000000
1.000000 0.000000 1.000000
0.937255 0.266667 0.266667
0.000000 1.000000 1.000000
0.000000 1.000000 1.000000
0.000000 1.000000 1.000000
0.000000 1.000000 1.000000
0.000000 1.000000 1.000000
1.000000 1.000000 1.000000
1.000000 0.970158 1.000000
0.937255 0.266667 0.266667
0.937255 0.266667 0.266667
0.000000 1.000000 1.000000
0.000000 1.000000 1.000000
0.000000 1.000000 1.000000
0.000000 1.000000 1.000000
0.937255 0.266667 0.266667
0.937255 0.266667 0.266667
0.937255 0.266667 0.266667
0.937255 0.266667 0.266667
0.937255 0.266667 0.266667
0.937255 0.266667 0.266667
0.937255 0.266667 0.266667
0.937255 0.266667 0.266667
0.937255 0.266667 0.266667
0.937255 0.266667 0.266667
0.937255 0.266667 0.266667
0.937255 0.266667 0.266667
0.937255 0.266667 0.266667
0.937255 0.266667 0.266667
0.937255 0.266667 0.266667
0.937255 0.266667 0.266667
0.937255 0.266667 0.266667
0.937255 0.266667 0.266667
0.937255 0.266667 0.266667
0.937255 0.266667 0.266667
0.937255 0.266667 0.266667
0.937255 0.266667 0.266667
0.937255 0.266667 0.266667
0.000000 0.000000 1.000000
0.000000 0.000000 1.000000
0.000000 0.000000 1.000000
0.000000 0.000000 1.000000
0.591714 0.000000 1.000000
0.920941 0.673885 0.070114
1.000000 0.000000 1.000000
1.000000 0.000000 1.000000
0.937255 0.266667 0.266667
0.000000 0.000000 1.000000
0.000000 0.000000 1.000000
0.000000 0.000000 1.000000
0.000000 0.000000 1.000000
0.587796 0.000000 1.000000
0.917647 0.701961 0.031373
1.000000 0.000000 1.000000
1.000000 0.000000 1.000000
0.937255 0.266667 0.266667
0.000000 0.039730 1.000000
0.000000 0.035463 1.000000
0.000000 0.005590 1.000000
0.000000 0.000000 1.000000
0.559574 0.000000 1.000000
0.917647 0.701961 0.031373
1.000000 0.000000 1.000000
1.000000 0.000000 1.000000
0.937255 0.266667 0.266667
0.000000 0.399660 1.000000
0.000000 0.398426 1.000000
0.000000 0.389682 1.000000
0.000000 0.364924 1.000000
0.917647 0.701961 0.031373
1.000000 0.124802 1.000000
1.000000 0.000000 1.000000
1.000000 0.000000 1.000000
0.937255 0.266667 0.266667
0.000000 0.706673 1.000000
0.000000 0.705987 1.000000
0.000000 0.701166 1.000000
0.000000 0.687899 1.000000
0.221938 0.660416 1.000000
1.000000 0.593217 1.000000
1.000000 0.390871 1.000000
1.000000 0.000000 1.000000
0.937255 0.266667 0.266667
0.000000 1.000000 1.000000
0.000000 1.000000 1.000000
0.000000 1.000000 1.000000
0.000000 1.000000 1.000000
0.000000 1.000000 1.000000
0.877971 1.000000 1.000000
1.000000 0.954581 1.000000
0.937255 0.266667 0.266667
0.937255 0.266667 0.266667
0.937255 0.266667 0.266667
0.937255 0.266667 0.266667
0.937255 0.266667 0.266667
0.937255 0.266667 0.266667
0.937255 0.266667 0.266667
0.937255 0.266667 0.266667
0.937255 0.266667 0.266667
0.937255 0.266667 0.266667
0.937255 0.266667 0.266667
0.937255 0.266667 0.266667
0.937255 0.266667 0.266667
0.937255 0.266667 0.266667
0.937255 0.266667 0.266667
0.937255 0.266667 0.266667
0.937255 0.266667 0.266667
0.937255 0.266667 0.266667
0.937255 0.266667 0.266667
0.937255 0.266667 0.266667
0.937255 0.266667 0.266667
0.937255 0.266667 0.266667
0.937255 0.266667 0.266667
0.937255 0.266667 0.266667
0.937255 0.266667 0.266667
0.937255 0.266667 0.266667
0.937255 0.266667 0.266667
0.937255 0.266667 0.266667
0.937255 0.266667 0.266667
0.000000 0.000000 1.000000
0.000000 0.000000 1.000000
0.000000 0.000000 1.000000
0.000000 0.000000 1.000000
0.000000 0.000000 1.000000
0.911444 0.000000 1.000000
1.000000 0.000000 1.000000
0.937255 0.266667 0.266667
0.937255 0.266667 0.266667
0.000000 0.000000 1.000000
0.000000 0.000000 1.000000
0.000000 0.000000 1.000000
0.000000 0.000000 1.000000
0.000000 0.000000 1.000000
0.908989 0.000000 1.000000
1.000000 0.000000 1.000000
0.937255 0.266667 0.266667
0.937255 0.266667 0.266667
0.000000 0.000000 1.000000
0.000000 0.000000 1.000000
0.000000 0.000000 1.000000
0.000000 0.000000 1.000000
0.000000 0.000000 1.000000
0.891590 0.000000 1.000000
1.000000 0.000000 1.000000
0.937255 0.266667 0.266667
0.937255 0.266667 0.266667
0.000000 0.294304 1.000000
0.000000 0.292653 1.000000
0.000000 0.280850 1.000000
0.000000 0.246295 1.000000
0.000000 0.159661 1.000000
0.842367 0.000000 1.000000
1.000000 0.000000 1.000000
0.937255 0.266667 0.266667
0.937255 0.266667 0.266667
0.000000 0.653357 1.000000
0.000000 0.652612 1.000000
0.000000 0.647366 1.000000
0.000000 0.632895 1.000000
0.000000 0.602750 1.000000
0.732687 0.527874 1.000000
1.000000 0.282466 1.000000
0.937255 0.266667 0.266667
0.937255 0.266667 0.266667
0.000000 1.000000 1.000000
0.000000 1.000000 1.000000
0.000000 1.000000 1.000000
0.000000 1.000000 1.000000
0.000000 1.000000 1.000000
0.372007 1.000000 1.000000
0.937255 0.266667 0.266667
0.937255 0.266667 0.266667
0.937255 0.266667 0.266667
0.937255 0.266667 0.266667
0.937255 0.266667 0.266667
0.937255 0.266667 0.266667
0.937255 0.266667 0.266667
0.937255 0.266667 0.266667
0.937255 0.266667 0.266667
0.937255 0.266667 0.266667
0.937255 0.266667 0.266667
0.937255 0.266667 0.266667
0.937255 0.266667 0.266667
0.937255 0.266667 0.266667
0.937255 0.266667 0.266667
0.937255 0.266667 0.266667
0.937255 0.266667 0.266667
0.937255 0.266667 0.266667
0.937255 0.266667 0.266667
0.937255 0.266667 0.266667
0.937255 0.266667 0.266667
0.937255 0.266667 0.266667
0.937255 0.266667 0.266667
0.937255 0.266667 0.266667
0.937255 0.266667 0.266667
0.937255 0.266667 0.266667
0.937255 0.266667 0.266667
0.937255 0.266667 0.266667
0.937255 0.266667 0.266667
0.968627 0.633333 0.633333
