luts/HybridMonitor_vlog.cube
# Hybrid Monitor LUT
# Profile  : Panasonic V-Log L
# Cameras  : GH5, GH6, S5, S5II, S1, BGH1, AU-EVA1
# Input    : Panasonic V-Log L log / V-Gamut
# Output   : Rec.709 base + narrow exposure tracer overlays
# Generator: hybrid_monitor_lut.py
#
# Base transform pipeline:
#   Log decode  →  V-Gamut → Rec.709 matrix  →  Rec.709 OETF
#
# Overlay zones (thin tracers over Rec.709 base):
#   #ef4444     white_clip      log 0.800 – 1.010
#   #eab308     +2 stops        log 0.560 – 0.570
#   #d946ef     +1 stops        log 0.489 – 0.499
#   #22c55e     +0 stops        log 0.418 – 0.428
#   #06b6d4     -1 stops        log 0.351 – 0.360
#   #3b82f6     -2 stops        log 0.287 – 0.296
#   #6366f1     black_clip      log 0.000 – 0.130
#   All other levels → standard Rec.709 color (no tracer)
#
TITLE "HybridMonitor Panasonic V-Log L"
LUT_3D_SIZE 9
DOMAIN_MIN 0.0 0.0 0.0
DOMAIN_MAX 1.0 1.0 1.0
0.388235 0.400000 0.945098
0.388235 0.400000 0.945098
0.388235 0.400000 0.945098
0.453984 0.000000 0.000000
0.843358 0.000000 0.000000
1.000000 0.000000 0.000000
1.000000 0.000000 0.000000
1.000000 0.000000 0.000000
0.937255 0.266667 0.266667
0.388235 0.400000 0.945098
0.388235 0.400000 0.945098
0.191612 0.000000 0.000000
0.435842 0.000000 0.000000
0.834034 0.000000 0.000000
1.000000 0.000000 0.000000
1.000000 0.000000 0.000000
1.000000 0.000000 0.000000
0.937255 0.266667 0.266667
0.000000 0.166750 0.000000
0.000000 0.155832 0.000000
0.137600 0.141577 0.000000
0.412461 0.090374 0.000000
0.822417 0.000000 0.000000
1.000000 0.000000 0.000000
1.000000 0.000000 0.000000
1.000000 0.000000 0.000000
0.937255 0.266667 0.266667
0.000000 0.370295 0.000000
0.000000 0.364945 0.000000
0.000000 0.358266 0.000000
0.332206 0.337314 0.000000
0.786165 0.257488 0.000000
0.850980 0.274510 0.937255
1.000000 0.000000 0.000000
1.000000 0.000000 0.000000
0.937255 0.266667 0.266667
0.000000 0.710899 0.000000
0.000000 0.708166 0.000000
0.000000 0.704793 0.000000
0.000000 0.694490 0.000000
0.850980 0.274510 0.937255
1.000000 0.526262 0.000000
1.000000 0.000000 0.000000
1.000000 0.000000 0.000000
0.937255 0.266667 0.266667
0.000000 1.000000 0.000000
0.000000 1.000000 0.000000
0.000000 1.000000 0.000000
0.000000 1.000000 0.000000
0.000000 1.000000 0.000000
1.000000 1.000000 0.000000
1.000000 0.978013 0.000000
1.000000 0.000000 0.000000
0.937255 0.266667 0.266667
0.000000 1.000000 0.000000
0.000000 1.000000 0.000000
0.000000 1.000000 0.000000
0.000000 1.000000 0.000000
0.000000 1.000000 0.000000
0.000000 1.000000 0.000000
1.000000 1.000000 0.000000
1.000000 1.000000 0.000000
0.937255 0.266667 0.266667
0.937255 0.266667 0.266667
0.937255 0.266667 0.266667
0.937255 0.266667 0.266667
0.937255 0.266667 0.266667
0.937255 0.266667 0.266667
0.937255 0.266667 0.266667
0.937255 0.266667 0.266667
0.937255 0.266667 0.266667
0.937255 0.266667 0.266667
0.937255 0.266667 0.266667
0.937255 0.266667 0.266667
0.937255 0.266667 0.266667
0.937255 0.266667 0.266667
0.937255 0.266667 0.266667
0.937255 0.266667 0.266667
0.937255 0.266667 0.266667
0.937255 0.266667 0.266667
0.937255 0.266667 0.266667
0.388235 0.400000 0.945098
0.388235 0.400000 0.945098
0.388235 0.400000 0.945098
0.451142 0.000000 0.003000
0.841879 0.000000 0.000000
1.000000 0.000000 0.000000
1.000000 0.000000 0.000000
1.000000 0.000000 0.000000
0.937255 0.266667 0.266667
0.388235 0.400000 0.945098
0.388235 0.400000 0.945098
0.185308 0.000000 0.000000
0.432880 0.000000 0.000000
0.832537 0.000000 0.000000
1.000000 0.000000 0.000000
1.000000 0.000000 0.000000
1.000000 0.000000 0.000000
0.937255 0.266667 0.266667
0.000000 0.158074 0.000000
0.000000 0.146681 0.000000
0.129430 0.131729 0.000000
0.275969 0.401282 0.722953
0.820897 0.000000 0.000000
1.000000 0.000000 0.000000
1.000000 0.000000 0.000000
1.000000 0.000000 0.000000
0.937255 0.266667 0.266667
0.000000 0.366028 0.000000
0.000000 0.360617 0.000000
0.000464 0.360960 0.016402
0.328345 0.332644 0.000000
0.784569 0.251489 0.000000
0.850980 0.274510 0.937255
1.000000 0.000000 0.000000
1.000000 0.000000 0.000000
0.937255 0.266667 0.266667
0.000000 0.708717 0.000000
0.000000 0.705976 0.000000
0.000000 0.702591 0.000000
0.000000 0.692253 0.000000
0.850980 0.274510 0.937255
1.000000 0.523265 0.000000
1.000000 0.000000 0.000000
1.000000 0.000000 0.000000
0.937255 0.266667 0.266667
0.000000 1.000000 0.000000
0.000000 1.000000 0.000000
0.000000 1.000000 0.000000
0.000000 1.000000 0.000000
0.000000 1.000000 0.000000
1.000000 1.000000 0.000000
1.000000 0.976474 0.000000
1.000000 0.000000 0.000000
0.937255 0.266667 0.266667
0.000000 1.000000 0.000000
0.000000 1.000000 0.000000
0.000000 1.000000 0.000000
0.000000 1.000000 0.000000
0.000000 1.000000 0.000000
0.000000 1.000000 0.000000
1.000000 1.000000 0.000000
1.000000 1.000000 0.000000
0.937255 0.266667 0.266667
0.937255 0.266667 0.266667
0.937255 0.266667 0.266667
0.937255 0.266667 0.266667
0.937255 0.266667 0.266667
0.937255 0.266667 0.266667
0.937255 0.266667 0.266667
0.937255 0.266667 0.266667
0.937255 0.266667 0.266667
0.937255 0.266667 0.266667
0.937255 0.266667 0.266667
0.937255 0.266667 0.266667
0.937255 0.266667 0.266667
0.937255 0.266667 0.266667
0.937255 0.266667 0.266667
0.937255 0.266667 0.266667
0.937255 0.266667 0.266667
0.937255 0.266667 0.266667
0.937255 0.266667 0.266667
0.388235 0.400000 0.945098
0.388235 0.400000 0.945098
0.388235 0.400000 0.945098
0.447624 0.000000 0.137855
0.840058 0.000000 0.114216
1.000000 0.000000 0.015685
1.000000 0.000000 0.000000
1.000000 0.000000 0.000000
0.937255 0.266667 0.266667
0.388235 0.400000 0.945098
0.000000 0.000000 0.135691
0.177319 0.000000 0.133421
0.429213 0.000000 0.126390
0.830694 0.000000 0.101069
1.000000 0.000000 0.000169
1.000000 0.000000 0.000000
1.000000 0.000000 0.000000
0.937255 0.266667 0.266667
0.000000 0.146896 0.123301
0.000000 0.134831 0.121328
0.118873 0.118874 0.118873
0.231373 0.509804 0.964706
0.819025 0.000000 0.083304
1.000000 0.000000 0.000000
1.000000 0.000000 0.000000
1.000000 0.000000 0.000000
0.937255 0.266667 0.266667
0.000000 0.360718 0.071450
0.000000 0.355230 0.068918
0.023020 0.705817 0.814801
0.323540 0.326820 0.056403
0.782603 0.243939 0.025437
0.850980 0.274510 0.937255
1.000000 0.000000 0.000000
1.000000 0.000000 0.000000
0.937255 0.266667 0.266667
0.000000 0.706026 0.000000
0.000000 0.703274 0.000000
0.000000 0.699875 0.000000
0.000000 0.689494 0.000000
0.850980 0.274510 0.937255
1.000000 0.519558 0.000000
1.000000 0.000000 0.000000
1.000000 0.000000 0.000000
0.937255 0.266667 0.266667
0.000000 1.000000 0.000000
0.000000 1.000000 0.000000
0.000000 1.000000 0.000000
0.000000 1.000000 0.000000
0.000000 1.000000 0.000000
1.000000 1.000000 0.000000
1.000000 0.974580 0.000000
1.000000 0.000000 0.000000
0.937255 0.266667 0.266667
0.000000 1.000000 0.000000
0.000000 1.000000 0.000000
0.000000 1.000000 0.000000
0.000000 1.000000 0.000000
0.000000 1.000000 0.000000
0.000000 1.000000 0.000000
1.000000 1.000000 0.000000
1.000000 1.000000 0.000000
0.937255 0.266667 0.266667
0.937255 0.266667 0.266667
0.937255 0.266667 0.266667
0.937255 0.266667 0.266667
0.937255 0.266667 0.266667
0.937255 0.266667 0.266667
0.937255 0.266667 0.266667
0.937255 0.266667 0.266667
0.937255 0.266667 0.266667
0.937255 0.266667 0.266667
0.937255 0.266667 0.266667
0.937255 0.266667 0.266667
0.937255 0.266667 0.266667
0.937255 0.266667 0.266667
0.937255 0.266667 0.266667
0.937255 0.266667 0.266667
0.937255 0.266667 0.266667
0.937255 0.266667 0.266667
0.937255 0.266667 0.266667
0.388235 0.400000 0.945098
0.388235 0.400000 0.945098
0.388235 0.400000 0.945098
0.436818 0.000000 0.341068
0.834529 0.000000 0.330498
1.000000 0.000000 0.293200
1.000000 0.000000 0.116170
1.000000 0.000000 0.000000
0.937255 0.266667 0.266667
0.000000 0.000000 0.340911
0.000000 0.000000 0.340058
0.151252 0.000000 0.339007
0.417934 0.000000 0.335811
0.023529 0.713725 0.831373
1.000000 0.000000 0.287135
1.000000 0.000000 0.103179
1.000000 0.000000 0.000000
0.937255 0.266667 0.266667
0.000000 0.108560 0.334436
0.000000 0.093497 0.333568
0.082315 0.072748 0.332497
0.393505 0.009288 0.329242
0.813339 0.000000 0.318303
1.000000 0.000000 0.279518
1.000000 0.000000 0.085665
1.000000 0.000000 0.000000
0.937255 0.266667 0.266667
0.000000 0.344192 0.314108
0.023491 0.713105 0.830516
0.023529 0.713725 0.831373
0.308594 0.308595 0.308595
0.776626 0.219778 0.296954
0.850980 0.274510 0.937255
1.000000 0.000000 0.027846
1.000000 0.000000 0.000000
0.937255 0.266667 0.266667
0.000000 0.697825 0.236330
0.000000 0.695038 0.235141
0.000000 0.691596 0.233671
0.000000 0.681080 0.229182
0.850980 0.274510 0.937255
1.000000 0.508184 0.155162
1.000000 0.000000 0.000000
1.000000 0.000000 0.000000
0.937255 0.266667 0.266667
0.000000 1.000000 0.000000
0.000000 1.000000 0.000000
0.000000 1.000000 0.000000
0.000000 1.000000 0.000000
0.000000 1.000000 0.000000
1.000000 1.000000 0.000000
1.000000 0.968829 0.000000
1.000000 0.000000 0.000000
0.937255 0.266667 0.266667
0.000000 1.000000 0.000000
0.000000 1.000000 0.000000
0.000000 1.000000 0.000000
0.000000 1.000000 0.000000
0.000000 1.000000 0.000000
0.000000 1.000000 0.000000
1.000000 1.000000 0.000000
1.000000 1.000000 0.000000
0.937255 0.266667 0.266667
0.937255 0.266667 0.266667
0.937255 0.266667 0.266667
0.937255 0.266667 0.266667
0.937255 0.266667 0.266667
0.937255 0.266667 0.266667
0.937255 0.266667 0.266667
0.937255 0.266667 0.266667
0.937255 0.266667 0.266667
0.937255 0.266667 0.266667
0.937255 0.266667 0.266667
0.937255 0.266667 0.266667
0.937255 0.266667 0.266667
0.937255 0.266667 0.266667
0.937255 0.266667 0.266667
0.937255 0.266667 0.266667
0.937255 0.266667 0.266667
0.937255 0.266667 0.266667
0.937255 0.266667 0.266667
0.000000 0.000000 0.673029
0.000000 0.000000 0.672600
0.100603 0.000000 0.672073
0.399192 0.000000 0.670477
0.023983 0.713317 0.831277
1.000000 0.000000 0.647473
1.000000 0.000000 0.585107
1.000000 0.000000 0.296257
0.937255 0.266667 0.266667
0.000000 0.000000 0.670398
0.000000 0.000000 0.669967
0.031727 0.000000 0.669438
0.378469 0.000000 0.667836
0.806361 0.000000 0.662530
1.000000 0.000000 0.644731
1.000000 0.000000 0.582055
1.000000 0.000000 0.290250
0.937255 0.266667 0.266667
0.032092 0.070711 0.708421
0.100006 0.220353 0.795517
0.000000 0.000000 0.666185
0.351390 0.000000 0.664574
0.794302 0.000000 0.659240
1.000000 0.000000 0.641344
1.000000 0.000000 0.578281
1.000000 0.000000 0.282710
0.937255 0.266667 0.266667
0.000000 0.283506 0.657227
0.000000 0.276610 0.656788
0.000000 0.267917 0.656247
0.253824 0.239967 0.654610
0.297164 0.600136 0.442378
0.952955 0.086663 0.727678
1.000000 0.000000 0.566716
1.000000 0.000000 0.258727
0.937255 0.266667 0.266667
0.000000 0.670061 0.623370
0.000000 0.667150 0.622905
0.000000 0.663553 0.622333
0.000000 0.652555 0.620602
0.614862 0.614864 0.614863
1.000000 0.468744 0.595557
1.000000 0.000000 0.526771
1.000000 0.000000 0.160317
0.937255 0.266667 0.266667
0.000000 1.000000 0.494910
0.000000 1.000000 0.494319
0.000000 1.000000 0.493592
0.000000 1.000000 0.491388
0.000000 1.000000 0.484060
1.000000 1.000000 0.459092
1.000000 0.949617 0.365064
1.000000 0.000000 0.000000
0.937255 0.266667 0.266667
0.000000 1.000000 0.000000
0.000000 1.000000 0.000000
0.000000 1.000000 0.000000
0.000000 1.000000 0.000000
0.000000 1.000000 0.000000
0.000000 1.000000 0.000000
1.000000 1.000000 0.000000
1.000000 1.000000 0.000000
0.937255 0.266667 0.266667
0.937255 0.266667 0.266667
0.937255 0.266667 0.266667
0.937255 0.266667 0.266667
0.937255 0.266667 0.266667
0.937255 0.266667 0.266667
0.937255 0.266667 0.266667
0.937255 0.266667 0.266667
0.937255 0.266667 0.266667
0.937255 0.266667 0.266667
0.937255 0.266667 0.266667
0.937255 0.266667 0.266667
0.937255 0.266667 0.266667
0.937255 0.266667 0.266667
0.937255 0.266667 0.266667
0.937255 0.266667 0.266667
0.937255 0.266667 0.266667
0.937255 0.266667 0.266667
0.937255 0.266667 0.266667
0.000000 0.000000 1.000000
0.000000 0.000000 1.000000
0.000000 0.000000 1.000000
0.238794 0.000000 1.000000
0.751607 0.000000 1.000000
0.850980 0.274510 0.937255
1.000000 0.000000 1.000000
1.000000 0.000000 1.000000
0.937255 0.266667 0.266667
0.023529 0.713725 0.831373
0.023529 0.713725 0.831373
0.000000 0.000000 1.000000
0.204166 0.000000 1.000000
0.133333 0.772549 0.368627
0.850980 0.274510 0.937255
1.000000 0.000000 1.000000
1.000000 0.000000 1.000000
0.937255 0.266667 0.266667
0.000000 0.000000 1.000000
0.000000 0.000000 1.000000
0.000000 0.000000 1.000000
0.153511 0.000000 1.000000
0.727788 0.000000 1.000000
1.000000 0.000000 1.000000
1.000000 0.000000 1.000000
1.000000 0.000000 1.000000
0.937255 0.266667 0.266667
0.000000 0.000000 1.000000
0.067678 0.392135 0.679524
0.133333 0.772549 0.368627
0.000000 0.000000 1.000000
0.686116 0.000000 1.000000
1.000000 0.000000 1.000000
1.000000 0.000000 1.000000
1.000000 0.000000 1.000000
0.937255 0.266667 0.266667
0.850980 0.274510 0.937255
0.850980 0.274510 0.937255
0.850980 0.274510 0.937255
0.000000 0.547579 1.000000
0.524397 0.501681 1.000000
1.000000 0.305197 1.000000
1.000000 0.000000 1.000000
1.000000 0.000000 1.000000
0.937255 0.266667 0.266667
0.000000 1.000000 1.000000
0.000000 1.000000 1.000000
0.000000 1.000000 1.000000
0.000000 1.000000 1.000000
0.000000 1.000000 1.000000
1.000000 1.000000 1.000000
1.000000 0.883080 1.000000
1.000000 0.000000 0.981016
0.937255 0.266667 0.266667
0.000000 1.000000 0.926786
0.000000 1.000000 0.926483
0.000000 1.000000 0.926111
0.000000 1.000000 0.924985
0.000000 1.000000 0.921266
0.000000 1.000000 0.908903
1.000000 1.000000 0.866816
1.000000 1.000000 0.708962
0.937255 0.266667 0.266667
0.937255 0.266667 0.266667
0.937255 0.266667 0.266667
0.937255 0.266667 0.266667
0.937255 0.266667 0.266667
0.937255 0.266667 0.266667
0.937255 0.266667 0.266667
0.937255 0.266667 0.266667
0.937255 0.266667 0.266667
0.937255 0.266667 0.266667
0.937255 0.266667 0.266667
0.937255 0.266667 0.266667
0.937255 0.266667 0.266667
0.937255 0.266667 0.266667
0.937255 0.266667 0.266667
0.937255 0.266667 0.266667
0.937255 0.266667 0.266667
0.937255 0.266667 0.266667
0.937255 0.266667 0.266667
0.000000 0.000000 1.000000
0.000000 0.000000 1.000000
0.000000 0.000000 1.000000
0.000000 0.000000 1.000000
0.850980 0.274510 0.937255
1.000000 0.000000 1.000000
1.000000 0.000000 1.000000
1.000000 0.000000 1.000000
0.937255 0.266667 0.266667
0.000000 0.000000 1.000000
0.000000 0.000000 1.000000
0.000000 0.000000 1.000000
0.000000 0.000000 1.000000
0.459456 0.000000 1.000000
1.000000 0.000000 1.000000
1.000000 0.000000 1.000000
1.000000 0.000000 1.000000
0.937255 0.266667 0.266667
0.000000 0.000000 1.000000
0.000000 0.000000 1.000000
0.000000 0.000000 1.000000
0.850980 0.274510 0.937255
0.437334 0.000000 1.000000
1.000000 0.000000 1.000000
1.000000 0.000000 1.000000
1.000000 0.000000 1.000000
0.937255 0.266667 0.266667
0.137374 0.044314 0.989871
0.000000 0.000000 1.000000
0.000000 0.000000 1.000000
0.000000 0.000000 1.000000
0.362460 0.000000 1.000000
1.000000 0.000000 1.000000
1.000000 0.000000 1.000000
1.000000 0.000000 1.000000
0.937255 0.266667 0.266667
0.000000 0.000000 1.000000
0.000000 0.000000 1.000000
0.000000 0.000000 1.000000
0.000000 0.000000 1.000000
0.000000 0.000000 1.000000
1.000000 0.000000 1.000000
1.000000 0.000000 1.000000
1.000000 0.000000 1.000000
0.937255 0.266667 0.266667
0.000000 1.000000 1.000000
0.000000 1.000000 1.000000
0.000000 1.000000 1.000000
0.000000 1.000000 1.000000
0.000000 1.000000 1.000000
0.977005 0.938637 1.000000
1.000000 0.609224 1.000000
1.000000 0.000000 1.000000
0.937255 0.266667 0.266667
0.000000 1.000000 1.000000
0.000000 1.000000 1.000000
0.000000 1.000000 1.000000
0.000000 1.000000 1.000000
0.000000 1.000000 1.000000
0.000000 1.000000 1.000000
1.000000 1.000000 1.000000
1.000000 1.000000 1.000000
0.937255 0.266667 0.266667
0.937255 0.266667 0.266667
0.937255 0.266667 0.266667
0.937255 0.266667 0.266667
0.937255 0.266667 0.266667
0.937255 0.266667 0.266667
0.937255 0.266667 0.266667
0.937255 0.266667 0.266667
0.937255 0.266667 0.266667
0.937255 0.266667 0.266667
0.937255 0.266667 0.266667
0.937255 0.266667 0.266667
0.937255 0.266667 0.266667
0.937255 0.266667 0.266667
0.937255 0.266667 0.266667
0.937255 0.266667 0.266667
0.937255 0.266667 0.266667
0.937255 0.266667 0.266667
0.937255 0.266667 0.266667
0.000000 0.000000 1.000000
0.000000 0.000000 1.000000
0.000000 0.000000 1.000000
0.000000 0.000000 1.000000
0.000000 0.000000 1.000000
0.884295 0.000000 1.000000
1.000000 0.000000 1.000000
1.000000 0.000000 1.000000
0.937255 0.266667 0.266667
0.000000 0.000000 1.000000
0.000000 0.000000 1.000000
0.000000 0.000000 1.000000
0.000000 0.000000 1.000000
0.000000 0.000000 1.000000
0.875448 0.000000 1.000000
1.000000 0.000000 1.000000
1.000000 0.000000 1.000000
0.937255 0.266667 0.266667
0.000000 0.000000 1.000000
0.000000 0.000000 1.000000
0.000000 0.000000 1.000000
0.000000 0.000000 1.000000
0.000000 0.000000 1.000000
0.864440 0.000000 1.000000
1.000000 0.000000 1.000000
1.000000 0.000000 1.000000
0.937255 0.266667 0.266667
0.000000 0.000000 1.000000
0.000000 0.000000 1.000000
0.000000 0.000000 1.000000
0.000000 0.000000 1.000000
0.000000 0.000000 1.000000
0.830192 0.000000 1.000000
1.000000 0.000000 1.000000
1.000000 0.000000 1.000000
0.937255 0.266667 0.266667
0.000000 0.000000 1.000000
0.000000 0.000000 1.000000
0.000000 0.000000 1.000000
0.000000 0.000000 1.000000
0.000000 0.000000 1.000000
0.704608 0.000000 1.000000
1.000000 0.000000 1.000000
1.000000 0.000000 1.000000
0.937255 0.266667 0.266667
0.000000 0.000000 1.000000
0.000000 0.000000 1.000000
0.000000 0.000000 1.000000
0.000000 0.000000 1.000000
0.000000 0.000000 1.000000
0.000000 0.000000 1.000000
1.000000 0.000000 1.000000
1.000000 0.000000 1.000000
0.937255 0.266667 0.266667
0.000000 1.000000 1.000000
0.000000 1.000000 1.000000
0.000000 1.000000 1.000000
0.000000 1.000000 1.000000
0.000000 1.000000 1.000000
0.000000 1.000000 1.000000
1.000000 1.000000 1.000000
0.937255 0.266667 0.266667
0.937255 0.266667 0.266667
0.937255 0.266667 0.266667
0.937255 0.266667 0.266667
0.937255 0.266667 0.266667
0.937255 0.266667 0.266667
0.937255 0.266667 0.266667
0.937255 0.266667 0.266667
0.937255 0.266667 0.266667
0.937255 0.266667 0.266667
0.937255 0.266667 0.266667
0.937255 0.266667 0.266667
0.937255 0.266667 0.266667
0.937255 0.266667 0.266667
0.937255 0.266667 0.266667
0.937255 0.266667 0.266667
0.937255 0.266667 0.266667
0.937255 0.266667 0.266667
0.937255 0.266667 0.266667
0.937255 0.266667 0.266667
0.000000 0.000000 1.000000
0.000000 0.000000 1.000000
0.000000 0.000000 1.000000
0.000000 0.000000 1.000000
0.000000 0.000000 1.000000
0.000000 0.000000 1.000000
1.000000 0.000000 1.000000
1.000000 0.000000 1.000000
0.937255 0.266667 0.266667
0.000000 0.000000 1.000000
0.000000 0.000000 1.000000
0.000000 0.000000 1.000000
0.000000 0.000000 1.000000
0.000000 0.000000 1.000000
0.000000 0.000000 1.000000
1.000000 0.000000 1.000000
1.000000 0.000000 1.000000
0.937255 0.266667 0.266667
0.000000 0.000000 1.000000
0.000000 0.000000 1.000000
0.000000 0.000000 1.000000
0.000000 0.000000 1.000000
0.000000 0.000000 1.000000
0.000000 0.000000 1.000000
1.000000 0.000000 1.000000
1.000000 0.000000 1.000000
0.937255 0.266667 0.266667
0.000000 0.000000 1.000000
0.000000 0.000000 1.000000
0.000000 0.000000 1.000000
0.000000 0.000000 1.000000
0.000000 0.000000 1.000000
0.000000 0.000000 1.000000
1.000000 0.000000 1.000000
1.000000 0.000000 1.000000
0.937255 0.266667 0.266667
0.000000 0.000000 1.000000
0.000000 0.000000 1.000000
0.000000 0.000000 1.000000
0.000000 0.000000 1.000000
0.000000 0.000000 1.000000
0.000000 0.000000 1.000000
1.000000 0.000000 1.000000
1.000000 0.000000 1.000000
0.937255 0.266667 0.266667
0.000000 0.000000 1.000000
0.000000 0.000000 1.000000
0.000000 0.000000 1.000000
0.000000 0.000000 1.000000
0.000000 0.000000 1.000000
0.000000 0.000000 1.000000
1.000000 0.000000 1.000000
0.937255 0.266667 0.266667
0.937255 0.266667 0.266667
0.000000 0.000000 1.000000
0.000000 0.000000 1.000000
0.000000 0.000000 1.000000
0.000000 0.000000 1.000000
0.000000 0.000000 1.000000
0.000000 0.000000 1.000000
0.937255 0.266667 0.266667
0.937255 0.266667 0.266667
0.937255 0.266667 0.266667
0.937255 0.266667 0.266667
0.937255 0.266667 0.266667
0.937255 0.266667 0.266667
0.937255 0.266667 0.266667
0.937255 0.266667 0.266667
0.937255 0.266667 0.266667
0.937255 0.266667 0.266667
0.937255 0.266667 0.266667
0.937255 0.266667 0.266667
0.937255 0.266667 0.266667
0.937255 0.266667 0.266667
0.937255 0.266667 0.266667
0.937255 0.266667 0.266667
0.937255 0.266667 0.266667
0.937255 0.266667 0.266667
0.937255 0.266667 0.266667
0.937255 0.266667 0.266667
0.937255 0.266667 0.266667
