luts/HybridMonitor_slog3.cube
# Hybrid Monitor LUT
# Profile  : Sony S-Log3
# Cameras  : A7S III, A7 IV, FX3, FX6, FX9, ZV-E1, Venice
# Input    : Sony S-Log3 log / S-Gamut3.Cine
# Output   : Rec.709 base + narrow exposure tracer overlays
# Generator: hybrid_monitor_lut.py
#
# Base transform pipeline:
#   Log decode  →  S-Gamut3.Cine → Rec.709 matrix  →  Rec.709 OETF
#
# Overlay zones (thin tracers over Rec.709 base):
#   #ef4444     white_clip      log 0.760 – 1.000
#   #eab308     +2 stops        log 0.555 – 0.565
#   #d946ef     +1 stops        log 0.479 – 0.490
#   #22c55e     +0 stops        log 0.405 – 0.416
#   #06b6d4     -1 stops        log 0.334 – 0.344
#   #3b82f6     -2 stops        log 0.269 – 0.277
#   #6366f1     black_clip      log 0.000 – 0.100
#   All other levels → standard Rec.709 color (no tracer)
#
TITLE "HybridMonitor Sony S-Log3"
LUT_3D_SIZE 33
DOMAIN_MIN 0.0 0.0 0.0
DOMAIN_MAX 1.0 1.0 1.0
0.388235 0.400000 0.945098
0.388235 0.400000 0.945098
0.388235 0.400000 0.945098
0.388235 0.400000 0.945098
0.388235 0.400000 0.945098
0.388235 0.400000 0.945098
0.388235 0.400000 0.945098
0.388235 0.400000 0.945098
0.388235 0.400000 0.945098
0.388235 0.400000 0.945098
0.324790 0.000000 0.000000
0.385307 0.000000 0.000000
0.453505 0.000000 0.000000
0.530499 0.000000 0.000000
0.617541 0.000000 0.000000
0.716042 0.000000 0.000000
0.827591 0.000000 0.000000
0.953991 0.000000 0.000000
1.000000 0.000000 0.000000
1.000000 0.000000 0.000000
1.000000 0.000000 0.000000
0.850980 0.274510 0.937255
1.000000 0.000000 0.000000
1.000000 0.000000 0.000000
1.000000 0.000000 0.000000
1.000000 0.000000 0.000000
1.000000 0.000000 0.000000
1.000000 0.000000 0.000000
1.000000 0.000000 0.000000
1.000000 0.000000 0.000000
0.937255 0.266667 0.266667
0.937255 0.266667 0.266667
0.937255 0.266667 0.266667
0.388235 0.400000 0.945098
0.388235 0.400000 0.945098
0.388235 0.400000 0.945098
0.388235 0.400000 0.945098
0.388235 0.400000 0.945098
0.388235 0.400000 0.945098
0.388235 0.400000 0.945098
0.388235 0.400000 0.945098
0.388235 0.400000 0.945098
0.266146 0.000000 0.000000
0.320726 0.000000 0.000000
0.381860 0.000000 0.000000
0.450574 0.000000 0.000000
0.528002 0.000000 0.000000
0.615411 0.000000 0.000000
0.714223 0.000000 0.000000
0.826037 0.000000 0.000000
0.952662 0.000000 0.000000
1.000000 0.000000 0.000000
1.000000 0.000000 0.000000
1.000000 0.000000 0.000000
0.850980 0.274510 0.937255
1.000000 0.000000 0.000000
1.000000 0.000000 0.000000
1.000000 0.000000 0.000000
1.000000 0.000000 0.000000
1.000000 0.000000 0.000000
1.000000 0.000000 0.000000
1.000000 0.000000 0.000000
1.000000 0.000000 0.000000
0.937255 0.266667 0.266667
0.937255 0.266667 0.266667
0.937255 0.266667 0.266667
0.388235 0.400000 0.945098
0.388235 0.400000 0.945098
0.388235 0.400000 0.945098
0.388235 0.400000 0.945098
0.388235 0.400000 0.945098
0.388235 0.400000 0.945098
0.388235 0.400000 0.945098
0.388235 0.400000 0.945098
0.211338 0.000000 0.000000
0.261260 0.000000 0.000000
0.316613 0.000000 0.000000
0.378383 0.000000 0.000000
0.447624 0.000000 0.000000
0.525493 0.000000 0.000000
0.231373 0.509804 0.964706
0.712398 0.000000 0.000000
0.824479 0.000000 0.000000
0.951330 0.000000 0.000000
1.000000 0.000000 0.000000
1.000000 0.000000 0.000000
1.000000 0.000000 0.000000
0.850980 0.274510 0.937255
1.000000 0.000000 0.000000
1.000000 0.000000 0.000000
1.000000 0.000000 0.000000
1.000000 0.000000 0.000000
1.000000 0.000000 0.000000
1.000000 0.000000 0.000000
1.000000 0.000000 0.000000
1.000000 0.000000 0.000000
0.937255 0.266667 0.266667
0.937255 0.266667 0.266667
0.937255 0.266667 0.266667
0.388235 0.400000 0.945098
0.388235 0.400000 0.945098
0.388235 0.400000 0.945098
0.388235 0.400000 0.945098
0.388235 0.400000 0.945098
0.188968 0.150614 0.343418
0.114876 0.003530 0.000000
0.158601 0.000000 0.000000
0.205355 0.000000 0.000000
0.256291 0.000000 0.000000
0.312450 0.000000 0.000000
0.374874 0.000000 0.000000
0.444654 0.000000 0.000000
0.522972 0.000000 0.000000
0.611128 0.000000 0.000000
0.710569 0.000000 0.000000
0.023529 0.713725 0.831373
0.949997 0.000000 0.000000
1.000000 0.000000 0.000000
1.000000 0.000000 0.000000
1.000000 0.000000 0.000000
0.850980 0.274510 0.937255
1.000000 0.000000 0.000000
1.000000 0.000000 0.000000
1.000000 0.000000 0.000000
1.000000 0.000000 0.000000
1.000000 0.000000 0.000000
1.000000 0.000000 0.000000
1.000000 0.000000 0.000000
1.000000 0.000000 0.000000
0.937255 0.266667 0.266667
0.937255 0.266667 0.266667
0.937255 0.266667 0.266667
0.388235 0.400000 0.945098
0.388235 0.400000 0.945098
0.000000 0.049758 0.000000
0.000000 0.045967 0.000000
0.029212 0.042176 0.000000
0.063762 0.038385 0.000000
0.105296 0.033642 0.000000
0.151042 0.026988 0.000000
0.199225 0.018171 0.000000
0.251235 0.006488 0.000000
0.308235 0.000000 0.000000
0.371333 0.000000 0.000000
0.441664 0.000000 0.000000
0.520437 0.000000 0.000000
0.608974 0.000000 0.000000
0.708735 0.000000 0.000000
0.023529 0.713725 0.831373
0.948661 0.000000 0.000000
1.000000 0.000000 0.000000
1.000000 0.000000 0.000000
1.000000 0.000000 0.000000
0.850980 0.274510 0.937255
1.000000 0.000000 0.000000
1.000000 0.000000 0.000000
1.000000 0.000000 0.000000
1.000000 0.000000 0.000000
1.000000 0.000000 0.000000
1.000000 0.000000 0.000000
1.000000 0.000000 0.000000
1.000000 0.000000 0.000000
0.937255 0.266667 0.266667
0.937255 0.266667 0.266667
0.937255 0.266667 0.266667
0.000000 0.087573 0.000000
0.000000 0.083889 0.000000
0.000000 0.079870 0.000000
0.000000 0.076079 0.000000
0.017742 0.072288 0.000000
0.052292 0.068497 0.000000
0.095132 0.063754 0.000000
0.143192 0.057100 0.000000
0.192937 0.048283 0.000000
0.246089 0.036600 0.000000
0.303966 0.021118 0.000000
0.367760 0.000604 0.000000
0.438654 0.000000 0.000000
0.474494 0.077216 0.146117
0.606812 0.000000 0.000000
0.706896 0.000000 0.000000
0.262436 0.499581 0.581930
0.947324 0.000000 0.000000
1.000000 0.000000 0.000000
1.000000 0.000000 0.000000
1.000000 0.000000 0.000000
0.851607 0.273356 0.933316
1.000000 0.000000 0.000000
1.000000 0.000000 0.000000
1.000000 0.000000 0.000000
1.000000 0.000000 0.000000
1.000000 0.000000 0.000000
1.000000 0.000000 0.000000
1.000000 0.000000 0.000000
1.000000 0.000000 0.000000
0.937255 0.266667 0.266667
0.937255 0.266667 0.266667
0.937255 0.266667 0.266667
0.000000 0.120210 0.000000
0.000000 0.117196 0.000000
0.000000 0.114130 0.000000
0.000000 0.111009 0.000000
0.003390 0.107830 0.000000
0.037940 0.104591 0.000000
0.081417 0.100446 0.000000
0.132910 0.094449 0.000000
0.184828 0.086133 0.000000
0.239515 0.074276 0.000000
0.298545 0.058794 0.000000
0.363241 0.038279 0.000000
0.434858 0.011095 0.000000
0.249125 0.477859 0.904256
0.604096 0.000000 0.000000
0.704588 0.000000 0.000000
0.817821 0.000000 0.000000
0.945647 0.000000 0.000000
1.000000 0.000000 0.000000
1.000000 0.000000 0.000000
1.000000 0.000000 0.000000
0.913075 0.160124 0.546709
1.000000 0.000000 0.000000
1.000000 0.000000 0.000000
1.000000 0.000000 0.000000
1.000000 0.000000 0.000000
1.000000 0.000000 0.000000
1.000000 0.000000 0.000000
1.000000 0.000000 0.000000
1.000000 0.000000 0.000000
0.937255 0.266667 0.266667
0.937255 0.266667 0.266667
0.937255 0.266667 0.266667
0.000000 0.157872 0.000000
0.000000 0.155395 0.000000
0.000000 0.152888 0.000000
0.000000 0.150351 0.000000
0.000000 0.147782 0.000000
0.017808 0.145179 0.000000
0.061037 0.141874 0.000000
0.117469 0.137143 0.000000
0.172951 0.130689 0.000000
0.230021 0.121778 0.000000
0.290786 0.109247 0.000000
0.356809 0.091063 0.000000
0.260874 0.443408 0.821046
0.510155 0.027923 0.000000
0.600264 0.000000 0.000000
0.701336 0.000000 0.000000
0.815054 0.000000 0.000000
0.943290 0.000000 0.000000
0.281738 0.640261 0.305505
1.000000 0.000000 0.000000
1.000000 0.000000 0.000000
1.000000 0.000000 0.000000
1.000000 0.000000 0.000000
1.000000 0.000000 0.000000
1.000000 0.000000 0.000000
1.000000 0.000000 0.000000
1.000000 0.000000 0.000000
1.000000 0.000000 0.000000
1.000000 0.000000 0.000000
1.000000 0.000000 0.000000
0.937255 0.266667 0.266667
0.937255 0.266667 0.266667
0.937255 0.266667 0.266667
0.000000 0.199238 0.000000
0.000000 0.197177 0.000000
0.000000 0.195100 0.000000
0.000000 0.193004 0.000000
0.000000 0.190889 0.000000
0.000000 0.188756 0.000000
0.034360 0.186059 0.000000
0.094654 0.182222 0.000000
0.156161 0.177038 0.000000
0.216899 0.169979 0.000000
0.280203 0.160260 0.000000
0.231373 0.509804 0.964706
0.422243 0.127055 0.000000
0.504088 0.097342 0.000000
0.595146 0.050221 0.000000
0.023529 0.713725 0.831373
0.811373 0.000000 0.000000
0.940156 0.000000 0.000000
0.133333 0.772549 0.368627
1.000000 0.000000 0.000000
1.000000 0.000000 0.000000
1.000000 0.000000 0.000000
1.000000 0.000000 0.000000
1.000000 0.000000 0.000000
1.000000 0.000000 0.000000
1.000000 0.000000 0.000000
1.000000 0.000000 0.000000
1.000000 0.000000 0.000000
1.000000 0.000000 0.000000
1.000000 0.000000 0.000000
0.937255 0.266667 0.266667
0.937255 0.266667 0.266667
0.937255 0.266667 0.266667
0.000000 0.245098 0.000000
0.000000 0.243370 0.000000
0.000000 0.241632 0.000000
0.000000 0.239882 0.000000
0.000000 0.238122 0.000000
0.000000 0.236350 0.000000
0.000000 0.234117 0.000000
0.059650 0.230953 0.000000
0.131577 0.226703 0.000000
0.231373 0.509804 0.964706
0.265597 0.213161 0.000000
0.336259 0.202437 0.000000
0.412463 0.187464 0.000000
0.495931 0.166012 0.000000
0.588293 0.133799 0.000000
0.691213 0.079769 0.000000
0.806466 0.000000 0.000000
0.935986 0.000000 0.000000
0.956080 0.039150 0.018681
1.000000 0.000000 0.000000
1.000000 0.000000 0.000000
1.000000 0.000000 0.000000
1.000000 0.000000 0.000000
0.989246 0.091664 0.004097
1.000000 0.000000 0.000000
1.000000 0.000000 0.000000
1.000000 0.000000 0.000000
1.000000 0.000000 0.000000
1.000000 0.000000 0.000000
1.000000 0.000000 0.000000
0.937255 0.266667 0.266667
0.937255 0.266667 0.266667
0.937255 0.266667 0.266667
0.231373 0.509804 0.964706
0.231373 0.509804 0.964706
0.166807 0.449401 0.695502
0.000000 0.291876 0.000000
0.000000 0.290399 0.000000
0.000000 0.288915 0.000000
0.000000 0.287048 0.000000
0.012807 0.284410 0.000000
0.092958 0.280881 0.000000
0.171497 0.276141 0.000000
0.245064 0.269745 0.000000
0.319916 0.261055 0.000000
0.399140 0.249129 0.000000
0.475904 0.241901 0.016223
0.579080 0.208781 0.000000
0.683463 0.173379 0.000000
0.799914 0.115250 0.000000
0.930428 0.007859 0.000000
1.000000 0.000000 0.000000
1.000000 0.000000 0.000000
1.000000 0.000000 0.000000
1.000000 0.000000 0.000000
1.000000 0.000000 0.000000
0.918270 0.696648 0.031135
1.000000 0.000000 0.000000
1.000000 0.000000 0.000000
1.000000 0.000000 0.000000
1.000000 0.000000 0.000000
1.000000 0.000000 0.000000
1.000000 0.000000 0.000000
0.937255 0.266667 0.266667
0.937255 0.266667 0.266667
0.937255 0.266667 0.266667
0.000000 0.353623 0.000000
0.000000 0.352389 0.000000
0.000000 0.351151 0.000000
0.000000 0.349909 0.000000
0.000000 0.348662 0.000000
0.000000 0.347411 0.000000
0.000000 0.345840 0.000000
0.000000 0.343624 0.000000
0.031089 0.340668 0.000000
0.129762 0.336712 0.000000
0.215295 0.331401 0.000000
0.073441 0.642634 0.679625
0.036770 0.698930 0.800561
0.469895 0.301175 0.000000
0.566632 0.282619 0.000000
0.673045 0.256182 0.000000
0.791141 0.216918 0.000000
0.133333 0.772549 0.368627
1.000000 0.023634 0.000000
1.000000 0.000000 0.000000
0.926397 0.135584 0.462922
1.000000 0.000000 0.000000
1.000000 0.000000 0.000000
0.917647 0.701961 0.031373
1.000000 0.000000 0.000000
1.000000 0.000000 0.000000
1.000000 0.000000 0.000000
1.000000 0.000000 0.000000
1.000000 0.000000 0.000000
1.000000 0.000000 0.000000
0.937255 0.266667 0.266667
0.937255 0.266667 0.266667
0.937255 0.266667 0.266667
0.023529 0.713725 0.831373
0.023529 0.713725 0.831373
0.023529 0.713725 0.831373
0.023529 0.713725 0.831373
0.023529 0.713725 0.831373
0.023529 0.713725 0.831373
0.020374 0.673194 0.719866
0.000613 0.417583 0.021675
0.000000 0.407164 0.000000
0.055315 0.403838 0.000000
0.169520 0.399390 0.000000
0.263814 0.393420 0.000000
0.355051 0.385369 0.000000
0.449223 0.374443 0.000000
0.549685 0.359471 0.000000
0.658971 0.338659 0.000000
0.133333 0.772549 0.368627
0.913068 0.265238 0.000000
1.000000 0.194621 0.000000
1.000000 0.044538 0.000000
0.850980 0.274510 0.937255
1.000000 0.000000 0.000000
1.000000 0.000000 0.000000
0.917647 0.701961 0.031373
1.000000 0.000000 0.000000
1.000000 0.000000 0.000000
1.000000 0.000000 0.000000
1.000000 0.000000 0.000000
1.000000 0.000000 0.000000
1.000000 0.000000 0.000000
0.937255 0.266667 0.266667
0.937255 0.266667 0.266667
0.937255 0.266667 0.266667
0.000000 0.490827 0.000000
0.000000 0.489935 0.000000
0.000000 0.489041 0.000000
0.000000 0.488145 0.000000
0.000000 0.487248 0.000000
0.000000 0.486349 0.000000
0.000000 0.485222 0.000000
0.000000 0.483637 0.000000
0.000000 0.481527 0.000000
0.000000 0.478718 0.000000
0.087540 0.474969 0.000000
0.213114 0.469955 0.000000
0.317921 0.463227 0.000000
0.420266 0.454156 0.000000
0.276027 0.652483 0.234792
0.344046 0.627954 0.215266
0.763421 0.401580 0.000000
0.899713 0.368322 0.000000
1.000000 0.319193 0.000000
1.000000 0.240448 0.000000
1.000000 0.072238 0.000000
1.000000 0.000000 0.000000
1.000000 0.000000 0.000000
1.000000 0.000000 0.000000
1.000000 0.000000 0.000000
1.000000 0.000000 0.000000
1.000000 0.000000 0.000000
1.000000 0.000000 0.000000
1.000000 0.000000 0.000000
1.000000 0.000000 0.000000
0.937255 0.266667 0.266667
0.937255 0.266667 0.266667
0.937255 0.266667 0.266667
0.000000 0.572926 0.000000
0.000000 0.572165 0.000000
0.000000 0.571404 0.000000
0.000000 0.570641 0.000000
0.000000 0.569877 0.000000
0.000000 0.569112 0.000000
0.000000 0.568153 0.000000
0.015265 0.590361 0.042203
0.104637 0.727882 0.289289
0.133333 0.772549 0.368627
0.133333 0.772549 0.368627
0.133333 0.772549 0.368627
0.261389 0.549565 0.000000
0.378546 0.541968 0.000000
0.493702 0.531729 0.000000
0.613451 0.517840 0.000000
0.741742 0.498823 0.000000
0.881672 0.472424 0.000000
1.000000 0.434956 0.000000
0.852379 0.275497 0.928460
1.000000 0.291478 0.000000
1.000000 0.106965 0.000000
1.000000 0.000000 0.000000
1.000000 0.000000 0.000000
1.000000 0.000000 0.000000
1.000000 0.000000 0.000000
1.000000 0.000000 0.000000
1.000000 0.000000 0.000000
1.000000 0.000000 0.000000
1.000000 0.000000 0.000000
0.937255 0.266667 0.266667
0.937255 0.266667 0.266667
0.937255 0.266667 0.266667
0.000000 0.665753 0.000000
0.000000 0.665104 0.000000
0.000000 0.664454 0.000000
0.000000 0.663803 0.000000
0.000000 0.663152 0.000000
0.000000 0.662500 0.000000
0.000000 0.661683 0.000000
0.000000 0.660536 0.000000
0.000000 0.659012 0.000000
0.000000 0.656987 0.000000
0.000000 0.654293 0.000000
0.000000 0.650705 0.000000
0.163225 0.645919 0.000000
0.315211 0.639517 0.000000
0.446702 0.630929 0.000000
0.576563 0.619354 0.000000
0.711917 0.603656 0.000000
0.856990 0.575549 0.020170
0.927464 0.417111 0.456214
1.000000 0.510062 0.000000
1.000000 0.447770 0.000000
1.000000 0.348592 0.000000
0.917647 0.701961 0.031373
1.000000 0.000000 0.000000
1.000000 0.000000 0.000000
1.000000 0.000000 0.000000
1.000000 0.000000 0.000000
1.000000 0.000000 0.000000
1.000000 0.000000 0.000000
1.000000 0.000000 0.000000
0.937255 0.266667 0.266667
0.937255 0.266667 0.266667
0.937255 0.266667 0.266667
0.000000 0.770812 0.000000
0.000000 0.770257 0.000000
0.000000 0.769702 0.000000
0.000000 0.769146 0.000000
0.000000 0.768590 0.000000
0.000000 0.768034 0.000000
0.000000 0.767337 0.000000
0.000000 0.766358 0.000000
0.000000 0.765059 0.000000
0.000000 0.763334 0.000000
0.000000 0.761042 0.000000
0.000000 0.757993 0.000000
0.000000 0.753933 0.000000
0.206180 0.748515 0.000000
0.777179 0.346959 0.791778
0.850980 0.274510 0.937255
0.670199 0.718454 0.000000
0.823353 0.700693 0.000000
0.987816 0.676387 0.000000
1.000000 0.642668 0.000000
1.000000 0.594868 0.000000
1.000000 0.524522 0.000000
1.000000 0.412751 0.000000
1.000000 0.184754 0.000000
1.000000 0.000000 0.000000
1.000000 0.000000 0.000000
1.000000 0.000000 0.000000
1.000000 0.000000 0.000000
1.000000 0.000000 0.000000
1.000000 0.000000 0.000000
0.937255 0.266667 0.266667
0.937255 0.266667 0.266667
0.937255 0.266667 0.266667
0.000000 0.889799 0.000000
0.000000 0.889325 0.000000
0.000000 0.888850 0.000000
0.000000 0.888375 0.000000
0.000000 0.887900 0.000000
0.000000 0.887425 0.000000
0.000000 0.886830 0.000000
0.000000 0.885994 0.000000
0.000000 0.884886 0.000000
0.000000 0.883414 0.000000
0.000000 0.881461 0.000000
0.000000 0.878864 0.000000
0.000000 0.875411 0.000000
0.000000 0.870812 0.000000
0.253686 0.864676 0.000000
0.443278 0.856471 0.000000
0.610238 0.845464 0.000000
0.776128 0.830632 0.000000
0.949557 0.810521 0.000000
1.000000 0.783003 0.000000
1.000000 0.744837 0.000000
0.991504 0.691907 0.003236
1.000000 0.611208 0.000000
1.000000 0.485018 0.000000
1.000000 0.229507 0.000000
1.000000 0.000000 0.000000
1.000000 0.000000 0.000000
1.000000 0.000000 0.000000
1.000000 0.000000 0.000000
1.000000 0.000000 0.000000
0.937255 0.266667 0.266667
0.937255 0.266667 0.266667
0.937255 0.266667 0.266667
0.000000 1.000000 0.000000
0.000000 1.000000 0.000000
0.000000 1.000000 0.000000
0.000000 1.000000 0.000000
0.000000 1.000000 0.000000
0.000000 1.000000 0.000000
0.000000 1.000000 0.000000
0.000000 1.000000 0.000000
0.000000 1.000000 0.000000
0.000000 1.000000 0.000000
0.000000 1.000000 0.000000
0.000000 1.000000 0.000000
0.000000 1.000000 0.000000
0.000000 1.000000 0.000000
0.000000 1.000000 0.000000
0.306603 0.996276 0.000000
0.519652 0.986978 0.000000
0.708284 0.974506 0.000000
0.901338 0.895205 0.007667
0.917647 0.701961 0.031373
1.000000 0.903740 0.000000
1.000000 0.860510 0.000000
1.000000 0.799265 0.000000
1.000000 0.709237 0.000000
1.000000 0.566575 0.000000
1.000000 0.279268 0.000000
1.000000 0.000000 0.000000
1.000000 0.000000 0.000000
1.000000 0.000000 0.000000
1.000000 0.000000 0.000000
0.937255 0.266667 0.266667
0.937255 0.266667 0.266667
0.937255 0.266667 0.266667
0.917647 0.701961 0.031373
0.917647 0.701961 0.031373
0.917647 0.701961 0.031373
0.917647 0.701961 0.031373
0.917647 0.701961 0.031373
0.917647 0.701961 0.031373
0.917647 0.701961 0.031373
0.917647 0.701961 0.031373
0.917647 0.701961 0.031373
0.917647 0.701961 0.031373
0.917647 0.701961 0.031373
0.917647 0.701961 0.031373
0.917647 0.701961 0.031373
0.917647 0.701961 0.031373
0.848301 0.724483 0.029002
0.003066 0.999004 0.000105
0.365845 1.000000 0.000000
0.605874 1.000000 0.000000
0.819239 1.000000 0.000000
1.000000 1.000000 0.000000
1.000000 1.000000 0.000000
1.000000 1.000000 0.000000
1.000000 0.991555 0.000000
1.000000 0.922162 0.000000
1.000000 0.820195 0.000000
1.000000 0.658751 0.000000
1.000000 0.334905 0.000000
1.000000 0.000000 0.000000
1.000000 0.000000 0.000000
1.000000 0.000000 0.000000
0.937255 0.266667 0.266667
0.937255 0.266667 0.266667
0.937255 0.266667 0.266667
0.000000 1.000000 0.000000
0.000000 1.000000 0.000000
0.000000 1.000000 0.000000
0.000000 1.000000 0.000000
0.000000 1.000000 0.000000
0.000000 1.000000 0.000000
0.000000 1.000000 0.000000
0.000000 1.000000 0.000000
0.000000 1.000000 0.000000
0.000000 1.000000 0.000000
0.000000 1.000000 0.000000
0.000000 1.000000 0.000000
0.000000 1.000000 0.000000
0.000000 1.000000 0.000000
0.000000 1.000000 0.000000
0.000000 1.000000 0.000000
0.000000 1.000000 0.000000
0.432408 1.000000 0.000000
0.703347 1.000000 0.000000
0.944896 1.000000 0.000000
1.000000 1.000000 0.000000
1.000000 1.000000 0.000000
1.000000 1.000000 0.000000
1.000000 1.000000 0.000000
1.000000 1.000000 0.000000
1.000000 0.945875 0.000000
1.000000 0.763039 0.000000
1.000000 0.397358 0.000000
1.000000 0.000000 0.000000
0.949547 0.214424 0.214424
0.937255 0.266667 0.266667
0.937255 0.266667 0.266667
0.937255 0.266667 0.266667
0.000000 1.000000 0.000000
0.000000 1.000000 0.000000
0.000000 1.000000 0.000000
0.000000 1.000000 0.000000
0.000000 1.000000 0.000000
0.000000 1.000000 0.000000
0.000000 1.000000 0.000000
0.000000 1.000000 0.000000
0.000000 1.000000 0.000000
0.000000 1.000000 0.000000
0.000000 1.000000 0.000000
0.000000 1.000000 0.000000
0.000000 1.000000 0.000000
0.000000 1.000000 0.000000
0.000000 1.000000 0.000000
0.000000 1.000000 0.000000
0.000000 1.000000 0.000000
0.000000 1.000000 0.000000
0.507392 1.000000 0.000000
0.813650 1.000000 0.000000
1.000000 1.000000 0.000000
1.000000 1.000000 0.000000
1.000000 1.000000 0.000000
1.000000 1.000000 0.000000
1.000000 1.000000 0.000000
1.000000 1.000000 0.000000
1.000000 1.000000 0.000000
1.000000 0.881126 0.000000
1.000000 0.467665 0.000000
0.937255 0.266667 0.266667
0.937255 0.266667 0.266667
0.937255 0.266667 0.266667
0.937255 0.266667 0.266667
0.000000 1.000000 0.000000
0.000000 1.000000 0.000000
0.000000 1.000000 0.000000
0.000000 1.000000 0.000000
0.000000 1.000000 0.000000
0.000000 1.000000 0.000000
0.000000 1.000000 0.000000
0.000000 1.000000 0.000000
0.000000 1.000000 0.000000
0.000000 1.000000 0.000000
0.000000 1.000000 0.000000
0.000000 1.000000 0.000000
0.000000 1.000000 0.000000
0.000000 1.000000 0.000000
0.000000 1.000000 0.000000
0.000000 1.000000 0.000000
0.000000 1.000000 0.000000
0.000000 1.000000 0.000000
0.000000 1.000000 0.000000
0.592025 1.000000 0.000000
0.938565 1.000000 0.000000
1.000000 1.000000 0.000000
1.000000 1.000000 0.000000
1.000000 1.000000 0.000000
1.000000 1.000000 0.000000
1.000000 1.000000 0.000000
1.000000 1.000000 0.000000
1.000000 1.000000 0.000000
1.000000 1.000000 0.000000
0.937255 0.266667 0.266667
0.937255 0.266667 0.266667
0.937255 0.266667 0.266667
0.937255 0.266667 0.266667
0.000000 1.000000 0.000000
0.000000 1.000000 0.000000
0.000000 1.000000 0.000000
0.000000 1.000000 0.000000
0.000000 1.000000 0.000000
0.000000 1.000000 0.000000
0.000000 1.000000 0.000000
0.000000 1.000000 0.000000
0.000000 1.000000 0.000000
0.000000 1.000000 0.000000
0.000000 1.000000 0.000000
0.000000 1.000000 0.000000
0.000000 1.000000 0.000000
0.000000 1.000000 0.000000
0.000000 1.000000 0.000000
0.000000 1.000000 0.000000
0.000000 1.000000 0.000000
0.000000 1.000000 0.000000
0.000000 1.000000 0.000000
0.000000 1.000000 0.000000
0.687684 1.000000 0.000000
1.000000 1.000000 0.000000
1.000000 1.000000 0.000000
1.000000 1.000000 0.000000
1.000000 1.000000 0.000000
1.000000 1.000000 0.000000
1.000000 1.000000 0.000000
1.000000 1.000000 0.000000
0.937255 0.266667 0.266667
0.937255 0.266667 0.266667
0.937255 0.266667 0.266667
0.937255 0.266667 0.266667
0.937255 0.266667 0.266667
0.000000 1.000000 0.000000
0.000000 1.000000 0.000000
0.000000 1.000000 0.000000
0.000000 1.000000 0.000000
0.000000 1.000000 0.000000
0.000000 1.000000 0.000000
0.000000 1.000000 0.000000
0.000000 1.000000 0.000000
0.000000 1.000000 0.000000
0.000000 1.000000 0.000000
0.000000 1.000000 0.000000
0.000000 1.000000 0.000000
0.000000 1.000000 0.000000
0.000000 1.000000 0.000000
0.000000 1.000000 0.000000
0.000000 1.000000 0.000000
0.000000 1.000000 0.000000
0.000000 1.000000 0.000000
0.000000 1.000000 0.000000
0.000000 1.000000 0.000000
0.000000 1.000000 0.000000
0.795919 1.000000 0.000000
1.000000 1.000000 0.000000
1.000000 1.000000 0.000000
1.000000 1.000000 0.000000
1.000000 1.000000 0.000000
0.986693 0.844473 0.056555
0.937255 0.266667 0.266667
0.937255 0.266667 0.266667
0.937255 0.266667 0.266667
0.937255 0.266667 0.266667
0.937255 0.266667 0.266667
0.937255 0.266667 0.266667
0.000000 1.000000 0.000000
0.000000 1.000000 0.000000
0.000000 1.000000 0.000000
0.000000 1.000000 0.000000
0.000000 1.000000 0.000000
0.000000 1.000000 0.000000
0.000000 1.000000 0.000000
0.000000 1.000000 0.000000
0.000000 1.000000 0.000000
0.000000 1.000000 0.000000
0.000000 1.000000 0.000000
0.000000 1.000000 0.000000
0.000000 1.000000 0.000000
0.000000 1.000000 0.000000
0.000000 1.000000 0.000000
0.000000 1.000000 0.000000
0.000000 1.000000 0.000000
0.000000 1.000000 0.000000
0.000000 1.000000 0.000000
0.000000 1.000000 0.000000
0.000000 1.000000 0.000000
0.000000 1.000000 0.000000
0.918480 1.000000 0.000000
0.937346 0.267732 0.266279
0.937255 0.266667 0.266667
0.937255 0.266667 0.266667
0.937255 0.266667 0.266667
0.937255 0.266667 0.266667
0.937255 0.266667 0.266667
0.937255 0.266667 0.266667
