luts/HybridMonitor_bmpfilm5.cube
# Hybrid Monitor LUT
# Profile  : Blackmagic Film Gen 5
# Cameras  : Pocket 6K G2, 6K Pro, 6K G2, URSA Mini Pro 12K
# Input    : Blackmagic Film Gen 5 log / Blackmagic Wide Gamut
# Output   : Rec.709 base + narrow exposure tracer overlays
# Generator: hybrid_monitor_lut.py
#
# Base transform pipeline:
#   Log decode  →  Blackmagic Wide Gamut → Rec.709 matrix  →  Rec.709 OETF
#
# Overlay zones (thin tracers over Rec.709 base):
#   #ef4444     white_clip      log 0.750 – 1.000
#   #eab308     +2 stops        log 0.498 – 0.506
#   #d946ef     +1 stops        log 0.438 – 0.447
#   #22c55e     +0 stops        log 0.379 – 0.388
#   #06b6d4     -1 stops        log 0.322 – 0.330
#   #3b82f6     -2 stops        log 0.267 – 0.274
#   #6366f1     black_clip      log 0.000 – 0.100
#   All other levels → standard Rec.709 color (no tracer)
#
TITLE "HybridMonitor Blackmagic Film Gen 5"
LUT_3D_SIZE 33
DOMAIN_MIN 0.0 0.0 0.0
DOMAIN_MAX 1.0 1.0 1.0
0.388235 0.400000 0.945098
0.388235 0.400000 0.945098
0.388235 0.400000 0.945098
0.388235 0.400000 0.945098
0.388235 0.400000 0.945098
0.388235 0.400000 0.945098
0.388235 0.400000 0.945098
0.388235 0.400000 0.945098
0.388235 0.400000 0.945098
0.268006 0.000000 0.000000
0.333969 0.000000 0.000000
0.411238 0.000000 0.000000
0.501849 0.000000 0.000000
0.608186 0.000000 0.000000
0.733044 0.000000 0.000000
0.740776 0.115813 0.134903
1.000000 0.000000 0.000000
1.000000 0.000000 0.000000
1.000000 0.000000 0.000000
1.000000 0.000000 0.000000
1.000000 0.000000 0.000000
1.000000 0.000000 0.000000
1.000000 0.000000 0.000000
1.000000 0.000000 0.000000
1.000000 0.000000 0.000000
1.000000 0.000000 0.000000
1.000000 0.000000 0.000000
1.000000 0.000000 0.000000
1.000000 0.000000 0.000000
0.937255 0.266667 0.266667
0.937255 0.266667 0.266667
0.937255 0.266667 0.266667
0.937255 0.266667 0.266667
0.388235 0.400000 0.945098
0.388235 0.400000 0.945098
0.388235 0.400000 0.945098
0.388235 0.400000 0.945098
0.388235 0.400000 0.945098
0.388235 0.400000 0.945098
0.388235 0.400000 0.945098
0.388235 0.400000 0.945098
0.206993 0.000000 0.000000
0.264256 0.000000 0.000000
0.330912 0.000000 0.000000
0.408740 0.000000 0.000000
0.499805 0.000000 0.000000
0.231373 0.509804 0.964706
0.731672 0.000000 0.000000
0.878579 0.000000 0.000000
1.000000 0.000000 0.000000
1.000000 0.000000 0.000000
1.000000 0.000000 0.000000
1.000000 0.000000 0.000000
1.000000 0.000000 0.000000
1.000000 0.000000 0.000000
1.000000 0.000000 0.000000
1.000000 0.000000 0.000000
1.000000 0.000000 0.000000
1.000000 0.000000 0.000000
1.000000 0.000000 0.000000
1.000000 0.000000 0.000000
1.000000 0.000000 0.000000
0.937255 0.266667 0.266667
0.937255 0.266667 0.266667
0.937255 0.266667 0.266667
0.937255 0.266667 0.266667
0.388235 0.400000 0.945098
0.388235 0.400000 0.945098
0.388235 0.400000 0.945098
0.388235 0.400000 0.945098
0.388235 0.400000 0.945098
0.388235 0.400000 0.945098
0.388235 0.400000 0.945098
0.151718 0.000000 0.000000
0.202295 0.000000 0.000000
0.260459 0.000000 0.000000
0.327827 0.000000 0.000000
0.406226 0.000000 0.000000
0.497752 0.000000 0.000000
0.232793 0.507865 0.961037
0.730298 0.000000 0.000000
0.877453 0.000000 0.000000
1.000000 0.000000 0.000000
1.000000 0.000000 0.000000
1.000000 0.000000 0.000000
1.000000 0.000000 0.000000
1.000000 0.000000 0.000000
1.000000 0.000000 0.000000
1.000000 0.000000 0.000000
1.000000 0.000000 0.000000
1.000000 0.000000 0.000000
1.000000 0.000000 0.000000
1.000000 0.000000 0.000000
1.000000 0.000000 0.000000
1.000000 0.000000 0.000000
0.937255 0.266667 0.266667
0.937255 0.266667 0.266667
0.937255 0.266667 0.266667
0.937255 0.266667 0.266667
0.388235 0.400000 0.945098
0.388235 0.400000 0.945098
0.388235 0.400000 0.945098
0.388235 0.400000 0.945098
0.388235 0.400000 0.945098
0.068115 0.021614 0.026292
0.099530 0.008505 0.000000
0.145693 0.005236 0.000000
0.197507 0.000552 0.000000
0.256611 0.000000 0.000000
0.324715 0.000000 0.000000
0.403697 0.000000 0.000000
0.495691 0.000000 0.000000
0.603149 0.000000 0.000000
0.728921 0.000000 0.000000
0.876325 0.000000 0.000000
1.000000 0.000000 0.000000
1.000000 0.000000 0.000000
1.000000 0.000000 0.000000
1.000000 0.000000 0.000000
1.000000 0.000000 0.000000
1.000000 0.000000 0.000000
1.000000 0.000000 0.000000
1.000000 0.000000 0.000000
1.000000 0.000000 0.000000
1.000000 0.000000 0.000000
1.000000 0.000000 0.000000
1.000000 0.000000 0.000000
1.000000 0.000000 0.000000
0.937255 0.266667 0.266667
0.937255 0.266667 0.266667
0.937255 0.266667 0.266667
0.937255 0.266667 0.266667
0.388235 0.400000 0.945098
0.388235 0.400000 0.945098
0.000000 0.038164 0.000000
0.000000 0.036698 0.000000
0.020779 0.035232 0.000000
0.050081 0.033619 0.000000
0.091433 0.031337 0.000000
0.139481 0.028068 0.000000
0.192621 0.023385 0.000000
0.252713 0.016675 0.000000
0.321574 0.007064 0.000000
0.401152 0.000000 0.000000
0.493620 0.000000 0.000000
0.601461 0.000000 0.000000
0.727541 0.000000 0.000000
0.875196 0.000000 0.000000
1.000000 0.000000 0.000000
1.000000 0.000000 0.000000
1.000000 0.000000 0.000000
1.000000 0.000000 0.000000
1.000000 0.000000 0.000000
1.000000 0.000000 0.000000
1.000000 0.000000 0.000000
1.000000 0.000000 0.000000
1.000000 0.000000 0.000000
1.000000 0.000000 0.000000
1.000000 0.000000 0.000000
1.000000 0.000000 0.000000
1.000000 0.000000 0.000000
0.937255 0.266667 0.266667
0.937255 0.266667 0.266667
0.937255 0.266667 0.266667
0.937255 0.266667 0.266667
0.000000 0.066223 0.000000
0.000000 0.064757 0.000000
0.000000 0.063291 0.000000
0.000000 0.061825 0.000000
0.011013 0.060359 0.000000
0.040315 0.058746 0.000000
0.082005 0.056464 0.000000
0.132408 0.053195 0.000000
0.187127 0.048512 0.000000
0.248360 0.041802 0.000000
0.318085 0.032191 0.000000
0.398334 0.018422 0.000000
0.491332 0.000000 0.000000
0.599596 0.000000 0.000000
0.726019 0.000000 0.000000
0.873951 0.000000 0.000000
1.000000 0.000000 0.000000
1.000000 0.000000 0.000000
1.000000 0.000000 0.000000
1.000000 0.000000 0.000000
1.000000 0.000000 0.000000
1.000000 0.000000 0.000000
1.000000 0.000000 0.000000
1.000000 0.000000 0.000000
1.000000 0.000000 0.000000
1.000000 0.000000 0.000000
1.000000 0.000000 0.000000
1.000000 0.000000 0.000000
1.000000 0.000000 0.000000
0.937255 0.266667 0.266667
0.937255 0.266667 0.266667
0.937255 0.266667 0.266667
0.937255 0.266667 0.266667
0.000000 0.100739 0.000000
0.000000 0.099439 0.000000
0.000000 0.098129 0.000000
0.000000 0.096807 0.000000
0.000000 0.095475 0.000000
0.026504 0.093996 0.000000
0.067946 0.091880 0.000000
0.121928 0.088797 0.000000
0.179128 0.084270 0.000000
0.242088 0.077340 0.000000
0.313088 0.067729 0.000000
0.394313 0.053959 0.000000
0.231373 0.509804 0.964706
0.596949 0.005973 0.000000
0.723860 0.000000 0.000000
0.872188 0.000000 0.000000
1.000000 0.000000 0.000000
1.000000 0.000000 0.000000
1.000000 0.000000 0.000000
1.000000 0.000000 0.000000
1.000000 0.000000 0.000000
1.000000 0.000000 0.000000
1.000000 0.000000 0.000000
1.000000 0.000000 0.000000
1.000000 0.000000 0.000000
1.000000 0.000000 0.000000
1.000000 0.000000 0.000000
1.000000 0.000000 0.000000
1.000000 0.000000 0.000000
0.937255 0.266667 0.266667
0.937255 0.266667 0.266667
0.937255 0.266667 0.266667
0.937255 0.266667 0.266667
0.000000 0.140742 0.000000
0.000000 0.139703 0.000000
0.000000 0.138659 0.000000
0.000000 0.137609 0.000000
0.000000 0.136553 0.000000
0.006717 0.135385 0.000000
0.048160 0.133720 0.000000
0.105758 0.131309 0.000000
0.167153 0.127801 0.000000
0.232848 0.122656 0.000000
0.305798 0.115021 0.000000
0.388483 0.103463 0.000000
0.483374 0.085341 0.000000
0.593136 0.056885 0.000000
0.023529 0.713725 0.831373
0.869654 0.000000 0.000000
1.000000 0.000000 0.000000
1.000000 0.000000 0.000000
1.000000 0.000000 0.000000
1.000000 0.000000 0.000000
1.000000 0.000000 0.000000
1.000000 0.000000 0.000000
1.000000 0.000000 0.000000
1.000000 0.000000 0.000000
1.000000 0.000000 0.000000
1.000000 0.000000 0.000000
1.000000 0.000000 0.000000
1.000000 0.000000 0.000000
1.000000 0.000000 0.000000
0.937255 0.266667 0.266667
0.937255 0.266667 0.266667
0.937255 0.266667 0.266667
0.937255 0.266667 0.266667
0.000000 0.186799 0.000000
0.000000 0.185962 0.000000
0.000000 0.185122 0.000000
0.000000 0.184278 0.000000
0.000000 0.183432 0.000000
0.000000 0.182497 0.000000
0.019814 0.181168 0.000000
0.079185 0.179250 0.000000
0.148751 0.176475 0.000000
0.219036 0.172438 0.000000
0.295065 0.166524 0.000000
0.359278 0.206799 0.134382
0.476556 0.144526 0.000000
0.587627 0.123872 0.000000
0.716284 0.089370 0.000000
0.866011 0.031337 0.000000
0.183631 0.727713 0.347234
1.000000 0.000000 0.000000
1.000000 0.000000 0.000000
1.000000 0.000000 0.000000
1.000000 0.000000 0.000000
1.000000 0.000000 0.000000
1.000000 0.000000 0.000000
1.000000 0.000000 0.000000
1.000000 0.000000 0.000000
1.000000 0.000000 0.000000
1.000000 0.000000 0.000000
1.000000 0.000000 0.000000
1.000000 0.000000 0.000000
0.937255 0.266667 0.266667
0.937255 0.266667 0.266667
0.937255 0.266667 0.266667
0.937255 0.266667 0.266667
0.000000 0.240187 0.000000
0.000000 0.239508 0.000000
0.000000 0.238828 0.000000
0.000000 0.238146 0.000000
0.000000 0.237462 0.000000
0.000000 0.236707 0.000000
0.000000 0.235637 0.000000
0.038577 0.234096 0.000000
0.231373 0.509804 0.964706
0.218313 0.400226 0.588711
0.279035 0.223979 0.000000
0.367464 0.217131 0.000000
0.466612 0.206992 0.000000
0.153323 0.591889 0.637334
0.709824 0.167921 0.000000
0.860762 0.128453 0.000000
0.133333 0.772549 0.368627
1.000000 0.000000 0.000000
0.903040 0.178611 0.609830
1.000000 0.000000 0.000000
1.000000 0.000000 0.000000
1.000000 0.000000 0.000000
1.000000 0.000000 0.000000
1.000000 0.000000 0.000000
1.000000 0.000000 0.000000
1.000000 0.000000 0.000000
1.000000 0.000000 0.000000
1.000000 0.000000 0.000000
1.000000 0.000000 0.000000
0.937255 0.266667 0.266667
0.937255 0.266667 0.266667
0.937255 0.266667 0.266667
0.937255 0.266667 0.266667
0.000000 0.302349 0.000000
0.000000 0.301796 0.000000
0.000000 0.301243 0.000000
0.000000 0.300689 0.000000
0.000000 0.300134 0.000000
0.000000 0.299521 0.000000
0.000000 0.298654 0.000000
0.000000 0.297407 0.000000
0.065456 0.295612 0.000000
0.163844 0.293023 0.000000
0.254506 0.289278 0.000000
0.348786 0.283834 0.000000
0.023529 0.713725 0.831373
0.567994 0.264076 0.000000
0.700458 0.246322 0.000000
0.853181 0.218748 0.000000
1.000000 0.173188 0.000000
1.000000 0.083624 0.000000
0.850980 0.274510 0.937255
1.000000 0.000000 0.000000
0.953562 0.395825 0.017690
1.000000 0.000000 0.000000
1.000000 0.000000 0.000000
1.000000 0.000000 0.000000
1.000000 0.000000 0.000000
1.000000 0.000000 0.000000
1.000000 0.000000 0.000000
1.000000 0.000000 0.000000
1.000000 0.000000 0.000000
0.937255 0.266667 0.266667
0.937255 0.266667 0.266667
0.937255 0.266667 0.266667
0.937255 0.266667 0.266667
0.000000 0.374944 0.000000
0.000000 0.374493 0.000000
0.000000 0.374042 0.000000
0.000000 0.373590 0.000000
0.000000 0.373138 0.000000
0.000000 0.372640 0.000000
0.000000 0.371934 0.000000
0.000000 0.370920 0.000000
0.021483 0.683783 0.759062
0.023529 0.713725 0.831373
0.205453 0.382153 0.042377
0.320235 0.359970 0.000000
0.430157 0.353614 0.000000
0.550863 0.344313 0.000000
0.686802 0.330557 0.000000
0.133333 0.772549 0.368627
1.000000 0.277747 0.000000
1.000000 0.224847 0.000000
1.000000 0.121922 0.000000
1.000000 0.000000 0.000000
0.917647 0.701961 0.031373
1.000000 0.000000 0.000000
1.000000 0.000000 0.000000
1.000000 0.000000 0.000000
1.000000 0.000000 0.000000
1.000000 0.000000 0.000000
1.000000 0.000000 0.000000
1.000000 0.000000 0.000000
1.000000 0.000000 0.000000
0.937255 0.266667 0.266667
0.937255 0.266667 0.266667
0.937255 0.266667 0.266667
0.937255 0.266667 0.266667
0.000000 0.459897 0.000000
0.000000 0.459529 0.000000
0.000000 0.459160 0.000000
0.000000 0.458791 0.000000
0.000000 0.458422 0.000000
0.000000 0.458015 0.000000
0.000000 0.457440 0.000000
0.000000 0.456613 0.000000
0.000000 0.455427 0.000000
0.000000 0.453722 0.000000
0.145251 0.451269 0.000000
0.274614 0.447730 0.000000
0.396822 0.442612 0.000000
0.525313 0.435175 0.000000
0.218758 0.716774 0.309589
0.826164 0.408206 0.000000
1.000000 0.384008 0.000000
1.000000 0.346508 0.000000
1.000000 0.284845 0.000000
1.000000 0.165681 0.000000
0.922223 0.662952 0.029629
1.000000 0.000000 0.000000
1.000000 0.000000 0.000000
1.000000 0.000000 0.000000
1.000000 0.000000 0.000000
1.000000 0.000000 0.000000
1.000000 0.000000 0.000000
1.000000 0.000000 0.000000
1.000000 0.000000 0.000000
0.937255 0.266667 0.266667
0.937255 0.266667 0.266667
0.937255 0.266667 0.266667
0.937255 0.266667 0.266667
0.000000 0.559452 0.000000
0.000000 0.559151 0.000000
0.000000 0.558849 0.000000
0.000000 0.558547 0.000000
0.000000 0.558245 0.000000
0.000187 0.558214 0.000518
0.026542 0.600262 0.073380
0.097963 0.715306 0.270838
0.133333 0.772549 0.368627
0.133333 0.772549 0.368627
0.133333 0.772549 0.368627
0.193246 0.551748 0.003657
0.343637 0.545389 0.000000
0.486309 0.539391 0.000000
0.636768 0.530676 0.000000
0.802597 0.517928 0.000000
0.989748 0.499083 0.000000
0.994727 0.463804 0.033164
1.000000 0.426863 0.000000
1.000000 0.354794 0.000000
1.000000 0.216155 0.000000
1.000000 0.000000 0.000000
1.000000 0.000000 0.000000
1.000000 0.000000 0.000000
1.000000 0.000000 0.000000
1.000000 0.000000 0.000000
1.000000 0.000000 0.000000
1.000000 0.000000 0.000000
1.000000 0.000000 0.000000
0.937255 0.266667 0.266667
0.937255 0.266667 0.266667
0.937255 0.266667 0.266667
0.937255 0.266667 0.266667
0.000000 0.676231 0.000000
0.000000 0.675984 0.000000
0.000000 0.675737 0.000000
0.000000 0.675490 0.000000
0.000000 0.675243 0.000000
0.000000 0.674971 0.000000
0.000000 0.674586 0.000000
0.000000 0.674034 0.000000
0.000000 0.673242 0.000000
0.000000 0.672106 0.000000
0.000000 0.670475 0.000000
0.000000 0.668131 0.000000
0.249857 0.664758 0.000000
0.424143 0.659894 0.000000
0.591065 0.652858 0.000000
0.843030 0.309551 0.848040
0.962079 0.627685 0.000000
1.000000 0.605587 0.000000
1.000000 0.572366 0.000000
0.974637 0.576689 0.009662
1.000000 0.436556 0.000000
1.000000 0.274731 0.000000
1.000000 0.000000 0.000000
1.000000 0.000000 0.000000
1.000000 0.000000 0.000000
1.000000 0.000000 0.000000
1.000000 0.000000 0.000000
1.000000 0.000000 0.000000
1.000000 0.000000 0.000000
0.937255 0.266667 0.266667
0.937255 0.266667 0.266667
0.937255 0.266667 0.266667
0.937255 0.266667 0.266667
0.803845 0.304354 0.885340
0.842304 0.280001 0.927699
0.850980 0.274510 0.937255
0.850980 0.274510 0.937255
0.850980 0.274510 0.937255
0.850980 0.274510 0.937255
0.850980 0.274510 0.937255
0.850980 0.274510 0.937255
0.850980 0.274510 0.937255
0.850980 0.274510 0.937255
0.850980 0.274510 0.937255
0.850980 0.274510 0.937255
0.000330 0.803929 0.000000
0.314828 0.799969 0.000000
0.518274 0.794259 0.000000
0.713855 0.786001 0.000000
0.920831 0.774003 0.000000
1.000000 0.756456 0.000000
1.000000 0.730522 0.000000
1.000000 0.691542 0.000000
1.000000 0.631214 0.000000
1.000000 0.532294 0.000000
1.000000 0.342988 0.000000
1.000000 0.000000 0.000000
1.000000 0.000000 0.000000
1.000000 0.000000 0.000000
1.000000 0.000000 0.000000
1.000000 0.000000 0.000000
1.000000 0.000000 0.000000
0.937255 0.266667 0.266667
0.937255 0.266667 0.266667
0.937255 0.266667 0.266667
0.937255 0.266667 0.266667
0.000000 0.974277 0.000000
0.000000 0.974111 0.000000
0.000000 0.973945 0.000000
0.000000 0.973779 0.000000
0.000000 0.973613 0.000000
0.000000 0.973430 0.000000
0.000000 0.973172 0.000000
0.000000 0.972802 0.000000
0.000000 0.972271 0.000000
0.000000 0.971510 0.000000
0.000000 0.970418 0.000000
0.000000 0.968852 0.000000
0.000000 0.966604 0.000000
0.010663 0.963373 0.000000
0.390514 0.958723 0.000000
0.628519 0.952018 0.000000
0.857912 0.942320 0.000000
0.917647 0.701961 0.031373
1.000000 0.907625 0.000000
1.000000 0.877175 0.000000
1.000000 0.831411 0.000000
1.000000 0.760597 0.000000
1.000000 0.644534 0.000000
1.000000 0.422744 0.000000
1.000000 0.000000 0.000000
1.000000 0.000000 0.000000
1.000000 0.000000 0.000000
1.000000 0.000000 0.000000
1.000000 0.000000 0.000000
0.937255 0.266667 0.266667
0.937255 0.266667 0.266667
0.937255 0.266667 0.266667
0.937255 0.266667 0.266667
0.917647 0.701961 0.031373
0.917647 0.701961 0.031373
0.917647 0.701961 0.031373
0.917647 0.701961 0.031373
0.917647 0.701961 0.031373
0.917647 0.701961 0.031373
0.917647 0.701961 0.031373
0.917647 0.701961 0.031373
0.917647 0.701961 0.031373
0.917647 0.701961 0.031373
0.917647 0.701961 0.031373
0.917647 0.701961 0.031373
0.492645 0.839996 0.016843
0.000000 1.000000 0.000000
0.025467 1.000000 0.000000
0.478931 1.000000 0.000000
0.757784 1.000000 0.000000
1.000000 1.000000 0.000000
1.000000 1.000000 0.000000
1.000000 1.000000 0.000000
1.000000 1.000000 0.000000
1.000000 0.995649 0.000000
1.000000 0.912489 0.000000
1.000000 0.776231 0.000000
1.000000 0.516112 0.000000
1.000000 0.000000 0.000000
1.000000 0.000000 0.000000
1.000000 0.000000 0.000000
1.000000 0.000000 0.000000
0.937255 0.266667 0.266667
0.937255 0.266667 0.266667
0.937255 0.266667 0.266667
0.937255 0.266667 0.266667
0.000000 1.000000 0.000000
0.000000 1.000000 0.000000
0.000000 1.000000 0.000000
0.000000 1.000000 0.000000
0.000000 1.000000 0.000000
0.000000 1.000000 0.000000
0.000000 1.000000 0.000000
0.000000 1.000000 0.000000
0.000000 1.000000 0.000000
0.000000 1.000000 0.000000
0.000000 1.000000 0.000000
0.000000 1.000000 0.000000
0.000000 1.000000 0.000000
0.000000 1.000000 0.000000
0.000000 1.000000 0.000000
0.046675 1.000000 0.000000
0.582422 1.000000 0.000000
0.909472 1.000000 0.000000
1.000000 1.000000 0.000000
1.000000 1.000000 0.000000
1.000000 1.000000 0.000000
1.000000 1.000000 0.000000
1.000000 1.000000 0.000000
1.000000 1.000000 0.000000
1.000000 0.930846 0.000000
1.000000 0.625556 0.000000
1.000000 0.000000 0.000000
1.000000 0.000000 0.000000
1.000000 0.000000 0.000000
0.937255 0.266667 0.266667
0.937255 0.266667 0.266667
0.937255 0.266667 0.266667
0.937255 0.266667 0.266667
0.000000 1.000000 0.000000
0.000000 1.000000 0.000000
0.000000 1.000000 0.000000
0.000000 1.000000 0.000000
0.000000 1.000000 0.000000
0.000000 1.000000 0.000000
0.000000 1.000000 0.000000
0.000000 1.000000 0.000000
0.000000 1.000000 0.000000
0.000000 1.000000 0.000000
0.000000 1.000000 0.000000
0.000000 1.000000 0.000000
0.000000 1.000000 0.000000
0.000000 1.000000 0.000000
0.000000 1.000000 0.000000
0.000000 1.000000 0.000000
0.077057 1.000000 0.000000
0.703719 1.000000 0.000000
1.000000 1.000000 0.000000
1.000000 1.000000 0.000000
1.000000 1.000000 0.000000
1.000000 1.000000 0.000000
1.000000 1.000000 0.000000
1.000000 1.000000 0.000000
1.000000 1.000000 0.000000
1.000000 1.000000 0.000000
1.000000 0.753957 0.000000
1.000000 0.000000 0.000000
0.937255 0.266667 0.266667
0.937255 0.266667 0.266667
0.937255 0.266667 0.266667
0.937255 0.266667 0.266667
0.937255 0.266667 0.266667
0.000000 1.000000 0.000000
0.000000 1.000000 0.000000
0.000000 1.000000 0.000000
0.000000 1.000000 0.000000
0.000000 1.000000 0.000000
0.000000 1.000000 0.000000
0.000000 1.000000 0.000000
0.000000 1.000000 0.000000
0.000000 1.000000 0.000000
0.000000 1.000000 0.000000
0.000000 1.000000 0.000000
0.000000 1.000000 0.000000
0.000000 1.000000 0.000000
0.000000 1.000000 0.000000
0.000000 1.000000 0.000000
0.000000 1.000000 0.000000
0.000000 1.000000 0.000000
0.116591 1.000000 0.000000
0.846017 1.000000 0.000000
1.000000 1.000000 0.000000
1.000000 1.000000 0.000000
1.000000 1.000000 0.000000
1.000000 1.000000 0.000000
1.000000 1.000000 0.000000
1.000000 1.000000 0.000000
1.000000 1.000000 0.000000
1.000000 1.000000 0.000000
1.000000 0.904691 0.000000
0.937255 0.266667 0.266667
0.937255 0.266667 0.266667
0.937255 0.266667 0.266667
0.937255 0.266667 0.266667
0.937255 0.266667 0.266667
0.000000 1.000000 0.000000
0.000000 1.000000 0.000000
0.000000 1.000000 0.000000
0.000000 1.000000 0.000000
0.000000 1.000000 0.000000
0.000000 1.000000 0.000000
0.000000 1.000000 0.000000
0.000000 1.000000 0.000000
0.000000 1.000000 0.000000
0.000000 1.000000 0.000000
0.000000 1.000000 0.000000
0.000000 1.000000 0.000000
0.000000 1.000000 0.000000
0.000000 1.000000 0.000000
0.000000 1.000000 0.000000
0.000000 1.000000 0.000000
0.000000 1.000000 0.000000
0.000000 1.000000 0.000000
0.161069 1.000000 0.000000
1.000000 1.000000 0.000000
1.000000 1.000000 0.000000
1.000000 1.000000 0.000000
1.000000 1.000000 0.000000
1.000000 1.000000 0.000000
1.000000 1.000000 0.000000
1.000000 1.000000 0.000000
1.000000 1.000000 0.000000
1.000000 1.000000 0.000000
0.937255 0.266667 0.266667
0.937255 0.266667 0.266667
0.937255 0.266667 0.266667
0.937255 0.266667 0.266667
0.937255 0.266667 0.266667
0.000000 1.000000 0.000000
0.000000 1.000000 0.000000
0.000000 1.000000 0.000000
0.000000 1.000000 0.000000
0.000000 1.000000 0.000000
0.000000 1.000000 0.000000
0.000000 1.000000 0.000000
0.000000 1.000000 0.000000
0.000000 1.000000 0.000000
0.000000 1.000000 0.000000
0.000000 1.000000 0.000000
0.000000 1.000000 0.000000
0.000000 1.000000 0.000000
0.000000 1.000000 0.000000
0.000000 1.000000 0.000000
0.000000 1.000000 0.000000
0.000000 1.000000 0.000000
0.000000 1.000000 0.000000
0.000000 1.000000 0.000000
0.212028 1.000000 0.000000
1.000000 1.000000 0.000000
1.000000 1.000000 0.000000
1.000000 1.000000 0.000000
1.000000 1.000000 0.000000
1.000000 1.000000 0.000000
1.000000 1.000000 0.000000
1.000000 1.000000 0.000000
1.000000 1.000000 0.000000
0.937255 0.266667 0.266667
0.937255 0.266667 0.266667
0.937255 0.266667 0.266667
0.937255 0.266667 0.266667
0.937255 0.266667 0.266667
0.000000 1.000000 0.000000
0.000000 1.000000 0.000000
0.000000 1.000000 0.000000
0.000000 1.000000 0.000000
0.000000 1.000000 0.000000
0.000000 1.000000 0.000000
0.000000 1.000000 0.000000
0.000000 1.000000 0.000000
0.000000 1.000000 0.000000
0.000000 1.000000 0.000000
0.000000 1.000000 0.000000
0.000000 1.000000 0.000000
0.000000 1.000000 0.000000
0.000000 1.000000 0.000000
0.000000 1.000000 0.000000
0.000000 1.000000 0.000000
0.000000 1.000000 0.000000
0.000000 1.000000 0.000000
0.000000 1.000000 0.000000
0.000000 1.000000 0.000000
0.270910 1.000000 0.000000
1.000000 1.000000 0.000000
1.000000 1.000000 0.000000
1.000000 1.000000 0.000000
1.000000 1.000000 0.000000
1.000000 1.000000 0.000000
1.000000 1.000000 0.000000
0.937255 0.266667 0.266667
0.937255 0.266667 0.266667
0.937255 0.266667 0.266667
0.937255 0.266667 0.266667
0.937255 0.266667 0.266667
0.937255 0.266667 0.266667
0.000000 1.000000 0.000000
0.000000 1.000000 0.000000
0.000000 1.000000 0.000000
0.000000 1.000000 0.000000
0.000000 1.000000 0.000000
0.000000 1.000000 0.000000
0.000000 1.000000 0.000000
0.000000 1.000000 0.000000
0.000000 1.000000 0.000000
0.000000 1.000000 0.000000
0.000000 1.000000 0.000000
0.000000 1.000000 0.000000
0.000000 1.000000 0.000000
0.000000 1.000000 0.000000
0.000000 1.000000 0.000000
0.000000 1.000000 0.000000
0.000000 1.000000 0.000000
0.000000 1.000000 0.000000
0.000000 1.000000 0.000000
0.000000 1.000000 0.000000
0.000000 1.000000 0.000000
0.339324 1.000000 0.000000
1.000000 1.000000 0.000000
1.000000 1.000000 0.000000
1.000000 1.000000 0.000000
0.937255 0.266667 0.266667
0.937255 0.266667 0.266667
0.937255 0.266667 0.266667
0.937255 0.266667 0.266667
0.937255 0.266667 0.266667
0.937255 0.266667 0.266667
0.937255 0.266667 0.266667
0.937255 0.266667 0.266667
0.937255 0.266667 0.266667
0.937255 0.266667 0.266667
0.937255 0.266667 0.266667
0.937255 0.266667 0.266667
0.937255 0.266667 0.266667
0.937255 0.266667 0.266667
0.937255 0.266667 0.266667
0.937255 0.266667 0.266667
0.937255 0.266667 0.266667
0.937255 0.266667 0.266667
0.937255 0.266667 0.266667
0.937255 0.266667 0.266667
0.937255 0.266667 0.266667
0.937255 0.266667 0.266667
0.937255 0.266667 0.266667
0.937255 0.266667 0.266667
0.937255 0.266667 0.266667
0.937255 0.266667 0.266667
0.937255 0.266667 0.266667
0.937255 0.266667 0.266667
0.937255 0.266667 0.266667
0.937255 0.266667 0.266667
0.937255 0.266667 0.266667
0.937255 0.266667 0.266667
0.937255 0.266667 0.266667
0.937255 0.266667 0.266667
0.937255 0.266667 0.266667
0.937255 0.266667 0.266667
